(Project dumbell)
(Created by Estlcam version 11 build 11.245)
(Machining time about 00:02:02 hours)

(Required tools:)
(5/32")
G21
G90
G94
M03 S24000
G00 Z5.0000


(No. 1: Hole 1)
G00 X-1.4983 Y-5.1751
G00 Z0.5000
G01 Z-1.0000 F300 S24000
G01 X-1.2717 Y-4.5319 F762
G01 X-1.0753 Y-3.8788
G01 X-0.9097 Y-3.2173
G01 X-0.7751 Y-2.5487
G01 X-0.6720 Y-1.8746
G01 X-0.6004 Y-1.1964
G01 X-0.5606 Y-0.5157
G01 X-0.5526 Y0.1663
G01 X-0.5765 Y0.8478
G01 X-0.6322 Y1.5275
G01 X-0.7195 Y2.2038
G01 X-0.8384 Y2.8753
G01 X-0.9885 Y3.5405
G01 X-1.1695 Y4.1980
G01 X-1.3810 Y4.8463
G01 X-1.6226 Y5.4841
G01 X-1.2272 Y5.3721
G01 X-0.8242 Y5.2917
G01 X-0.4161 Y5.2432
G01 X-0.0054 Y5.2270
G01 X0.4052 Y5.2432
G01 X0.8134 Y5.2917
G01 X1.2164 Y5.3721
G01 X1.6118 Y5.4841
G01 X1.3632 Y4.8255
G01 X1.1465 Y4.1557
G01 X0.9623 Y3.4762
G01 X0.8110 Y2.7887
G01 X0.6930 Y2.0947
G01 X0.6085 Y1.3958
G01 X0.5577 Y0.6936
G01 X0.5408 Y-0.0102
G01 X0.5577 Y-0.7139
G01 X0.6085 Y-1.4161
G01 X0.6930 Y-2.1150
G01 X0.8110 Y-2.8090
G01 X0.9623 Y-3.4965
G01 X1.1465 Y-4.1760
G01 X1.3632 Y-4.8458
G01 X1.6118 Y-5.5044
G01 X1.2165 Y-5.3914
G01 X0.8135 Y-5.3101
G01 X0.4054 Y-5.2612
G01 X-0.0054 Y-5.2448
G01 X-0.4162 Y-5.2612
G01 X-0.8244 Y-5.3101
G01 X-1.2274 Y-5.3914
G01 X-1.6226 Y-5.5044
G01 X-1.4983 Y-5.1751
G00 Z5.0000
G00 X-0.6484 Y5.2708
G00 Z-0.5000
G01 Z-1.0000 F300
G01 X-0.5797 Y5.8490 F762
G01 X-0.1720 Y5.8161
G01 X0.2370 Y5.8190
G01 X0.6442 Y5.8574
G01 X1.0465 Y5.9312
G01 X1.4408 Y6.0398
G01 X1.8242 Y6.1824
G01 X2.1936 Y6.3578
G01 X2.5464 Y6.5647
G01 X2.8798 Y6.8016
G01 X3.1913 Y7.0667
G01 X3.4785 Y7.3579
G01 X3.7393 Y7.6730
G01 X3.9715 Y8.0097
G01 X4.1736 Y8.3653
G01 X4.3439 Y8.7371
G01 X4.4811 Y9.1224
G01 X4.5842 Y9.5182
G01 X4.6525 Y9.9215
G01 X4.6853 Y10.3292
G01 X4.6825 Y10.7382
G01 X4.6440 Y11.1454
G01 X4.5702 Y11.5477
G01 X4.4616 Y11.9420
G01 X4.3191 Y12.3253
G01 X4.1437 Y12.6948
G01 X3.9367 Y13.0476
G01 X3.6998 Y13.3810
G01 X3.4347 Y13.6925
G01 X3.1435 Y13.9797
G01 X2.8284 Y14.2404
G01 X2.4918 Y14.4727
G01 X2.1362 Y14.6748
G01 X1.7643 Y14.8450
G01 X1.3790 Y14.9823
G01 X0.9832 Y15.0854
G01 X0.5799 Y15.1536
G01 X0.1722 Y15.1865
G01 X-0.2367 Y15.1836
G01 X-0.6439 Y15.1452
G01 X-1.0462 Y15.0714
G01 X-1.4406 Y14.9628
G01 X-1.8239 Y14.8202
G01 X-2.1934 Y14.6448
G01 X-2.5462 Y14.4379
G01 X-2.8796 Y14.2010
G01 X-3.1911 Y13.9359
G01 X-3.4783 Y13.6447
G01 X-3.7390 Y13.3296
G01 X-3.9713 Y12.9929
G01 X-4.1733 Y12.6373
G01 X-4.3436 Y12.2655
G01 X-4.4808 Y11.8802
G01 X-4.5840 Y11.4844
G01 X-4.6522 Y11.0811
G01 X-4.6850 Y10.6734
G01 X-4.6822 Y10.2644
G01 X-4.6437 Y9.8572
G01 X-4.5699 Y9.4550
G01 X-4.4614 Y9.0606
G01 X-4.3188 Y8.6773
G01 X-4.1434 Y8.3078
G01 X-3.9365 Y7.9550
G01 X-3.6996 Y7.6216
G01 X-3.4345 Y7.3101
G01 X-3.1433 Y7.0229
G01 X-2.8282 Y6.7622
G01 X-2.4915 Y6.5299
G01 X-2.1359 Y6.3279
G01 X-1.7640 Y6.1576
G01 X-1.3787 Y6.0203
G01 X-0.9830 Y5.9172
G01 X-0.5797 Y5.8490
G00 Z5.0000
G00 X-0.2161 Y-5.2532
G00 Z-0.5000
G01 Z-1.0000 F300
G01 X-0.1937 Y-5.8170 F762
G01 X-0.6012 Y-5.8517
G01 X-1.0042 Y-5.9218
G01 X-1.3995 Y-6.0268
G01 X-1.7841 Y-6.1658
G01 X-2.1552 Y-6.3378
G01 X-2.5099 Y-6.5415
G01 X-2.8454 Y-6.7753
G01 X-3.1594 Y-7.0375
G01 X-3.4492 Y-7.3260
G01 X-3.7129 Y-7.6387
G01 X-3.9482 Y-7.9732
G01 X-4.1535 Y-8.3270
G01 X-4.3272 Y-8.6972
G01 X-4.4680 Y-9.0813
G01 X-4.5748 Y-9.4761
G01 X-4.6467 Y-9.8787
G01 X-4.6833 Y-10.2861
G01 X-4.6842 Y-10.6951
G01 X-4.6495 Y-11.1026
G01 X-4.5794 Y-11.5056
G01 X-4.4745 Y-11.9009
G01 X-4.3355 Y-12.2855
G01 X-4.1634 Y-12.6566
G01 X-3.9598 Y-13.0113
G01 X-3.7259 Y-13.3468
G01 X-3.4637 Y-13.6608
G01 X-3.1752 Y-13.9506
G01 X-2.8625 Y-14.2143
G01 X-2.5280 Y-14.4496
G01 X-2.1743 Y-14.6549
G01 X-1.8040 Y-14.8286
G01 X-1.4200 Y-14.9694
G01 X-1.0251 Y-15.0762
G01 X-0.6225 Y-15.1481
G01 X-0.2151 Y-15.1847
G01 X0.1939 Y-15.1856
G01 X0.6014 Y-15.1509
G01 X1.0043 Y-15.0808
G01 X1.3996 Y-14.9759
G01 X1.7843 Y-14.8369
G01 X2.1554 Y-14.6648
G01 X2.5101 Y-14.4612
G01 X2.8456 Y-14.2273
G01 X3.1595 Y-13.9651
G01 X3.4494 Y-13.6766
G01 X3.7130 Y-13.3639
G01 X3.9484 Y-13.0294
G01 X4.1537 Y-12.6757
G01 X4.3274 Y-12.3054
G01 X4.4682 Y-11.9214
G01 X4.5749 Y-11.5265
G01 X4.6469 Y-11.1239
G01 X4.6835 Y-10.7165
G01 X4.6844 Y-10.3075
G01 X4.6497 Y-9.9000
G01 X4.5796 Y-9.4971
G01 X4.4746 Y-9.1018
G01 X4.3356 Y-8.7171
G01 X4.1636 Y-8.3460
G01 X3.9599 Y-7.9913
G01 X3.7261 Y-7.6558
G01 X3.4639 Y-7.3419
G01 X3.1754 Y-7.0520
G01 X2.8627 Y-6.7884
G01 X2.5282 Y-6.5530
G01 X2.1744 Y-6.3477
G01 X1.8042 Y-6.1740
G01 X1.4201 Y-6.0332
G01 X1.0253 Y-5.9265
G01 X0.6227 Y-5.8545
G01 X0.2153 Y-5.8179
G01 X-0.1937 Y-5.8170
G00 Z5.0000
G00 X-1.5259 Y-5.2482
G00 Z-0.5000
G01 Z-1.0000 F300
G01 X-2.0467 Y-5.0516 F762
G01 X-1.8983 Y-4.6483
G01 X-1.7632 Y-4.2404
G01 X-1.6414 Y-3.8282
G01 X-1.5331 Y-3.4123
G01 X-1.4385 Y-2.9931
G01 X-1.3576 Y-2.5711
G01 X-1.2904 Y-2.1466
G01 X-1.2372 Y-1.7201
G01 X-1.1723 Y-1.1600
G01 X-1.1318 Y-0.5976
G01 X-1.1158 Y-0.0340
G01 X-1.1243 Y0.5298
G01 X-1.1573 Y1.0927
G01 X-1.2148 Y1.6536
G01 X-1.2967 Y2.2115
G01 X-1.4027 Y2.7653
G01 X-1.4861 Y3.2622
G01 X-1.5987 Y3.7534
G01 X-1.7401 Y4.2370
G01 X-1.9098 Y4.7115
G01 X-2.1072 Y5.1751
G01 X-2.3316 Y5.6263
G01 X-2.5823 Y6.0634
G01 X-2.8583 Y6.4850
G01 X-3.0823 Y6.7798
G01 X-3.3135 Y7.0690
G01 X-3.5516 Y7.3524
G01 X-3.7967 Y7.6300
G01 X-4.0119 Y7.9394
G01 X-4.2019 Y8.2649
G01 X-4.3656 Y8.6044
G01 X-4.5020 Y8.9559
G01 X-4.6100 Y9.3170
G01 X-4.6892 Y9.6855
G01 X-4.7389 Y10.0591
G01 X-4.7590 Y10.4355
G01 X-4.7491 Y10.8123
G01 X-4.7095 Y11.1872
G01 X-4.6404 Y11.5577
G01 X-4.5421 Y11.9216
G01 X-4.4154 Y12.2766
G01 X-4.2610 Y12.6204
G01 X-4.0798 Y12.9509
G01 X-3.8731 Y13.2661
G01 X-3.6420 Y13.5639
G01 X-3.3881 Y13.8425
G01 X-3.1130 Y14.1002
G01 X-2.8183 Y14.3352
G01 X-2.5060 Y14.5462
G01 X-2.1779 Y14.7318
G01 X-1.8362 Y14.8909
G01 X-1.4830 Y15.0225
G01 X-1.1205 Y15.1256
G01 X-0.7509 Y15.1998
G01 X-0.3766 Y15.2445
G01 X0.0000 Y15.2594
G01 X0.3766 Y15.2445
G01 X0.7509 Y15.1998
G01 X1.1205 Y15.1256
G01 X1.4830 Y15.0225
G01 X1.8362 Y14.8909
G01 X2.1779 Y14.7318
G01 X2.5060 Y14.5462
G01 X2.8183 Y14.3352
G01 X3.1130 Y14.1002
G01 X3.3881 Y13.8425
G01 X3.6420 Y13.5639
G01 X3.8731 Y13.2661
G01 X4.0590 Y12.9834
G01 X4.2246 Y12.6883
G01 X4.3689 Y12.3822
G01 X4.4912 Y12.0667
G01 X4.5910 Y11.7433
G01 X4.6677 Y11.4137
G01 X4.7209 Y11.0795
G01 X4.7503 Y10.7424
G01 X4.7559 Y10.4040
G01 X4.7376 Y10.0661
G01 X4.6954 Y9.7303
G01 X4.6297 Y9.3984
G01 X4.5407 Y9.0719
G01 X4.4288 Y8.7525
G01 X4.2947 Y8.4418
G01 X4.1389 Y8.1414
G01 X3.9624 Y7.8527
G01 X3.7659 Y7.5772
G01 X3.5504 Y7.3163
G01 X3.3170 Y7.0712
G01 X3.0736 Y6.7724
G01 X2.8443 Y6.4626
G01 X2.6299 Y6.1423
G01 X2.4306 Y5.8123
G01 X2.2471 Y5.4734
G01 X2.0796 Y5.1262
G01 X1.9286 Y4.7716
G01 X1.7943 Y4.4103
G01 X1.6771 Y4.0431
G01 X1.5772 Y3.6709
G01 X1.4949 Y3.2943
G01 X1.4303 Y2.9143
G01 X1.3494 Y2.4943
G01 X1.2804 Y2.0722
G01 X1.2234 Y1.6482
G01 X1.1784 Y1.2229
G01 X1.1456 Y0.7964
G01 X1.1248 Y0.3691
G01 X1.1162 Y-0.0585
G01 X1.1198 Y-0.4863
G01 X1.1576 Y-1.0115
G01 X1.2117 Y-1.5352
G01 X1.2821 Y-2.0571
G01 X1.3688 Y-2.5764
G01 X1.4716 Y-3.0929
G01 X1.5904 Y-3.6058
G01 X1.7251 Y-4.1149
G01 X1.8757 Y-4.6194
G01 X2.0277 Y-5.0029
G01 X2.1992 Y-5.3780
G01 X2.3899 Y-5.7437
G01 X2.5992 Y-6.0992
G01 X2.8265 Y-6.4433
G01 X3.0713 Y-6.7753
G01 X3.3328 Y-7.0943
G01 X3.6105 Y-7.3993
G01 X3.8690 Y-7.7285
G01 X4.0976 Y-8.0793
G01 X4.2945 Y-8.4487
G01 X4.4582 Y-8.8340
G01 X4.5873 Y-9.2323
G01 X4.6810 Y-9.6403
G01 X4.7384 Y-10.0550
G01 X4.7592 Y-10.4731
G01 X4.7432 Y-10.8914
G01 X4.6905 Y-11.3067
G01 X4.6014 Y-11.7158
G01 X4.4768 Y-12.1154
G01 X4.3175 Y-12.5026
G01 X4.1249 Y-12.8743
G01 X3.9003 Y-13.2276
G01 X3.6455 Y-13.5597
G01 X3.3625 Y-13.8683
G01 X3.0535 Y-14.1507
G01 X2.7209 Y-14.4049
G01 X2.3673 Y-14.6289
G01 X1.9953 Y-14.8210
G01 X1.6078 Y-14.9796
G01 X1.2080 Y-15.1036
G01 X0.7988 Y-15.1919
G01 X0.3834 Y-15.2440
G01 X-0.0350 Y-15.2593
G01 X-0.4531 Y-15.2378
G01 X-0.8677 Y-15.1797
G01 X-1.2755 Y-15.0853
G01 X-1.6735 Y-14.9555
G01 X-2.0586 Y-14.7912
G01 X-2.4277 Y-14.5937
G01 X-2.7780 Y-14.3645
G01 X-3.1069 Y-14.1055
G01 X-3.4117 Y-13.8185
G01 X-3.6901 Y-13.5058
G01 X-3.9024 Y-13.2232
G01 X-4.0932 Y-12.9256
G01 X-4.2615 Y-12.6147
G01 X-4.4064 Y-12.2923
G01 X-4.5271 Y-11.9601
G01 X-4.6230 Y-11.6198
G01 X-4.6935 Y-11.2734
G01 X-4.7382 Y-10.9227
G01 X-4.7569 Y-10.5697
G01 X-4.7495 Y-10.2163
G01 X-4.7160 Y-9.8644
G01 X-4.6566 Y-9.5159
G01 X-4.5717 Y-9.1728
G01 X-4.4616 Y-8.8368
G01 X-4.3271 Y-8.5099
G01 X-4.1688 Y-8.1939
G01 X-3.9876 Y-7.8903
G01 X-3.7845 Y-7.6010
G01 X-3.5605 Y-7.3275
G01 X-3.3170 Y-7.0712
G01 X-3.1256 Y-6.8411
G01 X-2.9429 Y-6.6039
G01 X-2.7694 Y-6.3600
G01 X-2.6053 Y-6.1096
G01 X-2.4507 Y-5.8532
G01 X-2.3060 Y-5.5912
G01 X-2.1712 Y-5.3239
G01 X-2.0467 Y-5.0516
G00 Z5.0000
G00 X-1.5061 Y-5.1958
G00 Z-0.5000
G01 Z-2.0000 F300
G01 X-1.2781 Y-4.5516 F762
G01 X-1.0804 Y-3.8975
G01 X-0.9136 Y-3.2348
G01 X-0.7780 Y-2.5651
G01 X-0.6739 Y-1.8897
G01 X-0.6015 Y-1.2102
G01 X-0.5610 Y-0.5281
G01 X-0.5525 Y0.1552
G01 X-0.5759 Y0.8381
G01 X-0.6313 Y1.5192
G01 X-0.7185 Y2.1970
G01 X-0.8373 Y2.8699
G01 X-0.9875 Y3.5365
G01 X-1.1687 Y4.1954
G01 X-1.3806 Y4.8450
G01 X-1.6226 Y5.4841
G01 X-1.2272 Y5.3721
G01 X-0.8242 Y5.2917
G01 X-0.4161 Y5.2432
G01 X-0.0054 Y5.2270
G01 X0.4052 Y5.2432
G01 X0.8134 Y5.2917
G01 X1.2164 Y5.3721
G01 X1.6118 Y5.4841
G01 X1.3632 Y4.8255
G01 X1.1465 Y4.1557
G01 X0.9623 Y3.4762
G01 X0.8110 Y2.7887
G01 X0.6930 Y2.0947
G01 X0.6085 Y1.3958
G01 X0.5577 Y0.6936
G01 X0.5408 Y-0.0102
G01 X0.5577 Y-0.7139
G01 X0.6085 Y-1.4161
G01 X0.6930 Y-2.1150
G01 X0.8110 Y-2.8090
G01 X0.9623 Y-3.4965
G01 X1.1465 Y-4.1760
G01 X1.3632 Y-4.8458
G01 X1.6118 Y-5.5044
G01 X1.2165 Y-5.3914
G01 X0.8135 Y-5.3101
G01 X0.4054 Y-5.2612
G01 X-0.0054 Y-5.2448
G01 X-0.4162 Y-5.2612
G01 X-0.8244 Y-5.3101
G01 X-1.2274 Y-5.3914
G01 X-1.6226 Y-5.5044
G01 X-1.5061 Y-5.1958
G00 Z5.0000
G00 X-0.6484 Y5.2708
G00 Z-1.5000
G01 Z-2.0000 F300
G01 X-0.5797 Y5.8490 F762
G01 X-0.1720 Y5.8161
G01 X0.2370 Y5.8190
G01 X0.6442 Y5.8574
G01 X1.0465 Y5.9312
G01 X1.4408 Y6.0398
G01 X1.8242 Y6.1824
G01 X2.1936 Y6.3578
G01 X2.5464 Y6.5647
G01 X2.8798 Y6.8016
G01 X3.1913 Y7.0667
G01 X3.4785 Y7.3579
G01 X3.7393 Y7.6730
G01 X3.9715 Y8.0097
G01 X4.1736 Y8.3653
G01 X4.3439 Y8.7371
G01 X4.4811 Y9.1224
G01 X4.5842 Y9.5182
G01 X4.6525 Y9.9215
G01 X4.6853 Y10.3292
G01 X4.6825 Y10.7382
G01 X4.6440 Y11.1454
G01 X4.5702 Y11.5477
G01 X4.4616 Y11.9420
G01 X4.3191 Y12.3253
G01 X4.1437 Y12.6948
G01 X3.9367 Y13.0476
G01 X3.6998 Y13.3810
G01 X3.4347 Y13.6925
G01 X3.1435 Y13.9797
G01 X2.8284 Y14.2404
G01 X2.4918 Y14.4727
G01 X2.1362 Y14.6748
G01 X1.7643 Y14.8450
G01 X1.3790 Y14.9823
G01 X0.9832 Y15.0854
G01 X0.5799 Y15.1536
G01 X0.1722 Y15.1865
G01 X-0.2367 Y15.1836
G01 X-0.6439 Y15.1452
G01 X-1.0462 Y15.0714
G01 X-1.4406 Y14.9628
G01 X-1.8239 Y14.8202
G01 X-2.1934 Y14.6448
G01 X-2.5462 Y14.4379
G01 X-2.8796 Y14.2010
G01 X-3.1911 Y13.9359
G01 X-3.4783 Y13.6447
G01 X-3.7390 Y13.3296
G01 X-3.9713 Y12.9929
G01 X-4.1733 Y12.6373
G01 X-4.3436 Y12.2655
G01 X-4.4808 Y11.8802
G01 X-4.5840 Y11.4844
G01 X-4.6522 Y11.0811
G01 X-4.6850 Y10.6734
G01 X-4.6822 Y10.2644
G01 X-4.6437 Y9.8572
G01 X-4.5699 Y9.4550
G01 X-4.4614 Y9.0606
G01 X-4.3188 Y8.6773
G01 X-4.1434 Y8.3078
G01 X-3.9365 Y7.9550
G01 X-3.6996 Y7.6216
G01 X-3.4345 Y7.3101
G01 X-3.1433 Y7.0229
G01 X-2.8282 Y6.7622
G01 X-2.4915 Y6.5299
G01 X-2.1359 Y6.3279
G01 X-1.7640 Y6.1576
G01 X-1.3787 Y6.0203
G01 X-0.9830 Y5.9172
G01 X-0.5797 Y5.8490
G00 Z5.0000
G00 X-0.2161 Y-5.2532
G00 Z-1.5000
G01 Z-2.0000 F300
G01 X-0.1937 Y-5.8170 F762
G01 X-0.6012 Y-5.8517
G01 X-1.0042 Y-5.9218
G01 X-1.3995 Y-6.0268
G01 X-1.7841 Y-6.1658
G01 X-2.1552 Y-6.3378
G01 X-2.5099 Y-6.5415
G01 X-2.8454 Y-6.7753
G01 X-3.1594 Y-7.0375
G01 X-3.4492 Y-7.3260
G01 X-3.7129 Y-7.6387
G01 X-3.9482 Y-7.9732
G01 X-4.1535 Y-8.3270
G01 X-4.3272 Y-8.6972
G01 X-4.4680 Y-9.0813
G01 X-4.5748 Y-9.4761
G01 X-4.6467 Y-9.8787
G01 X-4.6833 Y-10.2861
G01 X-4.6842 Y-10.6951
G01 X-4.6495 Y-11.1026
G01 X-4.5794 Y-11.5056
G01 X-4.4745 Y-11.9009
G01 X-4.3355 Y-12.2855
G01 X-4.1634 Y-12.6566
G01 X-3.9598 Y-13.0113
G01 X-3.7259 Y-13.3468
G01 X-3.4637 Y-13.6608
G01 X-3.1752 Y-13.9506
G01 X-2.8625 Y-14.2143
G01 X-2.5280 Y-14.4496
G01 X-2.1743 Y-14.6549
G01 X-1.8040 Y-14.8286
G01 X-1.4200 Y-14.9694
G01 X-1.0251 Y-15.0762
G01 X-0.6225 Y-15.1481
G01 X-0.2151 Y-15.1847
G01 X0.1939 Y-15.1856
G01 X0.6014 Y-15.1509
G01 X1.0043 Y-15.0808
G01 X1.3996 Y-14.9759
G01 X1.7843 Y-14.8369
G01 X2.1554 Y-14.6648
G01 X2.5101 Y-14.4612
G01 X2.8456 Y-14.2273
G01 X3.1595 Y-13.9651
G01 X3.4494 Y-13.6766
G01 X3.7130 Y-13.3639
G01 X3.9484 Y-13.0294
G01 X4.1537 Y-12.6757
G01 X4.3274 Y-12.3054
G01 X4.4682 Y-11.9214
G01 X4.5749 Y-11.5265
G01 X4.6469 Y-11.1239
G01 X4.6835 Y-10.7165
G01 X4.6844 Y-10.3075
G01 X4.6497 Y-9.9000
G01 X4.5796 Y-9.4971
G01 X4.4746 Y-9.1018
G01 X4.3356 Y-8.7171
G01 X4.1636 Y-8.3460
G01 X3.9599 Y-7.9913
G01 X3.7261 Y-7.6558
G01 X3.4639 Y-7.3419
G01 X3.1754 Y-7.0520
G01 X2.8627 Y-6.7884
G01 X2.5282 Y-6.5530
G01 X2.1744 Y-6.3477
G01 X1.8042 Y-6.1740
G01 X1.4201 Y-6.0332
G01 X1.0253 Y-5.9265
G01 X0.6227 Y-5.8545
G01 X0.2153 Y-5.8179
G01 X-0.1937 Y-5.8170
G00 Z5.0000
G00 X-1.5259 Y-5.2482
G00 Z-1.5000
G01 Z-2.0000 F300
G01 X-2.0467 Y-5.0516 F762
G01 X-1.8983 Y-4.6483
G01 X-1.7632 Y-4.2404
G01 X-1.6414 Y-3.8282
G01 X-1.5331 Y-3.4123
G01 X-1.4385 Y-2.9931
G01 X-1.3576 Y-2.5711
G01 X-1.2904 Y-2.1466
G01 X-1.2372 Y-1.7201
G01 X-1.1723 Y-1.1600
G01 X-1.1318 Y-0.5976
G01 X-1.1158 Y-0.0340
G01 X-1.1243 Y0.5298
G01 X-1.1573 Y1.0927
G01 X-1.2148 Y1.6536
G01 X-1.2967 Y2.2115
G01 X-1.4027 Y2.7653
G01 X-1.4861 Y3.2622
G01 X-1.5987 Y3.7534
G01 X-1.7401 Y4.2370
G01 X-1.9098 Y4.7115
G01 X-2.1072 Y5.1751
G01 X-2.3316 Y5.6263
G01 X-2.5823 Y6.0634
G01 X-2.8583 Y6.4850
G01 X-3.0823 Y6.7798
G01 X-3.3135 Y7.0690
G01 X-3.5516 Y7.3524
G01 X-3.7967 Y7.6300
G01 X-4.0119 Y7.9394
G01 X-4.2019 Y8.2649
G01 X-4.3656 Y8.6044
G01 X-4.5020 Y8.9559
G01 X-4.6100 Y9.3170
G01 X-4.6892 Y9.6855
G01 X-4.7389 Y10.0591
G01 X-4.7590 Y10.4355
G01 X-4.7491 Y10.8123
G01 X-4.7095 Y11.1872
G01 X-4.6404 Y11.5577
G01 X-4.5421 Y11.9216
G01 X-4.4154 Y12.2766
G01 X-4.2610 Y12.6204
G01 X-4.0798 Y12.9509
G01 X-3.8731 Y13.2661
G01 X-3.6420 Y13.5639
G01 X-3.3881 Y13.8425
G01 X-3.1130 Y14.1002
G01 X-2.8183 Y14.3352
G01 X-2.5060 Y14.5462
G01 X-2.1779 Y14.7318
G01 X-1.8362 Y14.8909
G01 X-1.4830 Y15.0225
G01 X-1.1205 Y15.1256
G01 X-0.7509 Y15.1998
G01 X-0.3766 Y15.2445
G01 X0.0000 Y15.2594
G01 X0.3766 Y15.2445
G01 X0.7509 Y15.1998
G01 X1.1205 Y15.1256
G01 X1.4830 Y15.0225
G01 X1.8362 Y14.8909
G01 X2.1779 Y14.7318
G01 X2.5060 Y14.5462
G01 X2.8183 Y14.3352
G01 X3.1130 Y14.1002
G01 X3.3881 Y13.8425
G01 X3.6420 Y13.5639
G01 X3.8731 Y13.2661
G01 X4.0590 Y12.9834
G01 X4.2246 Y12.6883
G01 X4.3689 Y12.3822
G01 X4.4912 Y12.0667
G01 X4.5910 Y11.7433
G01 X4.6677 Y11.4137
G01 X4.7209 Y11.0795
G01 X4.7503 Y10.7424
G01 X4.7559 Y10.4040
G01 X4.7376 Y10.0661
G01 X4.6954 Y9.7303
G01 X4.6297 Y9.3984
G01 X4.5407 Y9.0719
G01 X4.4288 Y8.7525
G01 X4.2947 Y8.4418
G01 X4.1389 Y8.1414
G01 X3.9624 Y7.8527
G01 X3.7659 Y7.5772
G01 X3.5504 Y7.3163
G01 X3.3170 Y7.0712
G01 X3.0736 Y6.7724
G01 X2.8443 Y6.4626
G01 X2.6299 Y6.1423
G01 X2.4306 Y5.8123
G01 X2.2471 Y5.4734
G01 X2.0796 Y5.1262
G01 X1.9286 Y4.7716
G01 X1.7943 Y4.4103
G01 X1.6771 Y4.0431
G01 X1.5772 Y3.6709
G01 X1.4949 Y3.2943
G01 X1.4303 Y2.9143
G01 X1.3494 Y2.4943
G01 X1.2804 Y2.0722
G01 X1.2234 Y1.6482
G01 X1.1784 Y1.2229
G01 X1.1456 Y0.7964
G01 X1.1248 Y0.3691
G01 X1.1162 Y-0.0585
G01 X1.1198 Y-0.4863
G01 X1.1576 Y-1.0115
G01 X1.2117 Y-1.5352
G01 X1.2821 Y-2.0571
G01 X1.3688 Y-2.5764
G01 X1.4716 Y-3.0929
G01 X1.5904 Y-3.6058
G01 X1.7251 Y-4.1149
G01 X1.8757 Y-4.6194
G01 X2.0277 Y-5.0029
G01 X2.1992 Y-5.3780
G01 X2.3899 Y-5.7437
G01 X2.5992 Y-6.0992
G01 X2.8265 Y-6.4433
G01 X3.0713 Y-6.7753
G01 X3.3328 Y-7.0943
G01 X3.6105 Y-7.3993
G01 X3.8690 Y-7.7285
G01 X4.0976 Y-8.0793
G01 X4.2945 Y-8.4487
G01 X4.4582 Y-8.8340
G01 X4.5873 Y-9.2323
G01 X4.6810 Y-9.6403
G01 X4.7384 Y-10.0550
G01 X4.7592 Y-10.4731
G01 X4.7432 Y-10.8914
G01 X4.6905 Y-11.3067
G01 X4.6014 Y-11.7158
G01 X4.4768 Y-12.1154
G01 X4.3175 Y-12.5026
G01 X4.1249 Y-12.8743
G01 X3.9003 Y-13.2276
G01 X3.6455 Y-13.5597
G01 X3.3625 Y-13.8683
G01 X3.0535 Y-14.1507
G01 X2.7209 Y-14.4049
G01 X2.3673 Y-14.6289
G01 X1.9953 Y-14.8210
G01 X1.6078 Y-14.9796
G01 X1.2080 Y-15.1036
G01 X0.7988 Y-15.1919
G01 X0.3834 Y-15.2440
G01 X-0.0350 Y-15.2593
G01 X-0.4531 Y-15.2378
G01 X-0.8677 Y-15.1797
G01 X-1.2755 Y-15.0853
G01 X-1.6735 Y-14.9555
G01 X-2.0586 Y-14.7912
G01 X-2.4277 Y-14.5937
G01 X-2.7780 Y-14.3645
G01 X-3.1069 Y-14.1055
G01 X-3.4117 Y-13.8185
G01 X-3.6901 Y-13.5058
G01 X-3.9024 Y-13.2232
G01 X-4.0932 Y-12.9256
G01 X-4.2615 Y-12.6147
G01 X-4.4064 Y-12.2923
G01 X-4.5271 Y-11.9601
G01 X-4.6230 Y-11.6198
G01 X-4.6935 Y-11.2734
G01 X-4.7382 Y-10.9227
G01 X-4.7569 Y-10.5697
G01 X-4.7495 Y-10.2163
G01 X-4.7160 Y-9.8644
G01 X-4.6566 Y-9.5159
G01 X-4.5717 Y-9.1728
G01 X-4.4616 Y-8.8368
G01 X-4.3271 Y-8.5099
G01 X-4.1688 Y-8.1939
G01 X-3.9876 Y-7.8903
G01 X-3.7845 Y-7.6010
G01 X-3.5605 Y-7.3275
G01 X-3.3170 Y-7.0712
G01 X-3.1256 Y-6.8411
G01 X-2.9429 Y-6.6039
G01 X-2.7694 Y-6.3600
G01 X-2.6053 Y-6.1096
G01 X-2.4507 Y-5.8532
G01 X-2.3060 Y-5.5912
G01 X-2.1712 Y-5.3239
G01 X-2.0467 Y-5.0516
G00 Z5.0000
G00 X-1.5061 Y-5.1958
G00 Z-1.5000
G01 Z-3.0000 F300
G01 X-1.2781 Y-4.5516 F762
G01 X-1.0804 Y-3.8975
G01 X-0.9136 Y-3.2348
G01 X-0.7780 Y-2.5651
G01 X-0.6739 Y-1.8897
G01 X-0.6015 Y-1.2102
G01 X-0.5610 Y-0.5281
G01 X-0.5525 Y0.1552
G01 X-0.5759 Y0.8381
G01 X-0.6313 Y1.5192
G01 X-0.7185 Y2.1970
G01 X-0.8373 Y2.8699
G01 X-0.9875 Y3.5365
G01 X-1.1687 Y4.1954
G01 X-1.3806 Y4.8450
G01 X-1.6226 Y5.4841
G01 X-1.2272 Y5.3721
G01 X-0.8242 Y5.2917
G01 X-0.4161 Y5.2432
G01 X-0.0054 Y5.2270
G01 X0.4052 Y5.2432
G01 X0.8134 Y5.2917
G01 X1.2164 Y5.3721
G01 X1.6118 Y5.4841
G01 X1.3632 Y4.8255
G01 X1.1465 Y4.1557
G01 X0.9623 Y3.4762
G01 X0.8110 Y2.7887
G01 X0.6930 Y2.0947
G01 X0.6085 Y1.3958
G01 X0.5577 Y0.6936
G01 X0.5408 Y-0.0102
G01 X0.5577 Y-0.7139
G01 X0.6085 Y-1.4161
G01 X0.6930 Y-2.1150
G01 X0.8110 Y-2.8090
G01 X0.9623 Y-3.4965
G01 X1.1465 Y-4.1760
G01 X1.3632 Y-4.8458
G01 X1.6118 Y-5.5044
G01 X1.2165 Y-5.3914
G01 X0.8135 Y-5.3101
G01 X0.4054 Y-5.2612
G01 X-0.0054 Y-5.2448
G01 X-0.4162 Y-5.2612
G01 X-0.8244 Y-5.3101
G01 X-1.2274 Y-5.3914
G01 X-1.6226 Y-5.5044
G01 X-1.5061 Y-5.1958
G00 Z5.0000
G00 X-0.6484 Y5.2708
G00 Z-2.5000
G01 Z-3.0000 F300
G01 X-0.5797 Y5.8490 F762
G01 X-0.1720 Y5.8161
G01 X0.2370 Y5.8190
G01 X0.6442 Y5.8574
G01 X1.0465 Y5.9312
G01 X1.4408 Y6.0398
G01 X1.8242 Y6.1824
G01 X2.1936 Y6.3578
G01 X2.5464 Y6.5647
G01 X2.8798 Y6.8016
G01 X3.1913 Y7.0667
G01 X3.4785 Y7.3579
G01 X3.7393 Y7.6730
G01 X3.9715 Y8.0097
G01 X4.1736 Y8.3653
G01 X4.3439 Y8.7371
G01 X4.4811 Y9.1224
G01 X4.5842 Y9.5182
G01 X4.6525 Y9.9215
G01 X4.6853 Y10.3292
G01 X4.6825 Y10.7382
G01 X4.6440 Y11.1454
G01 X4.5702 Y11.5477
G01 X4.4616 Y11.9420
G01 X4.3191 Y12.3253
G01 X4.1437 Y12.6948
G01 X3.9367 Y13.0476
G01 X3.6998 Y13.3810
G01 X3.4347 Y13.6925
G01 X3.1435 Y13.9797
G01 X2.8284 Y14.2404
G01 X2.4918 Y14.4727
G01 X2.1362 Y14.6748
G01 X1.7643 Y14.8450
G01 X1.3790 Y14.9823
G01 X0.9832 Y15.0854
G01 X0.5799 Y15.1536
G01 X0.1722 Y15.1865
G01 X-0.2367 Y15.1836
G01 X-0.6439 Y15.1452
G01 X-1.0462 Y15.0714
G01 X-1.4406 Y14.9628
G01 X-1.8239 Y14.8202
G01 X-2.1934 Y14.6448
G01 X-2.5462 Y14.4379
G01 X-2.8796 Y14.2010
G01 X-3.1911 Y13.9359
G01 X-3.4783 Y13.6447
G01 X-3.7390 Y13.3296
G01 X-3.9713 Y12.9929
G01 X-4.1733 Y12.6373
G01 X-4.3436 Y12.2655
G01 X-4.4808 Y11.8802
G01 X-4.5840 Y11.4844
G01 X-4.6522 Y11.0811
G01 X-4.6850 Y10.6734
G01 X-4.6822 Y10.2644
G01 X-4.6437 Y9.8572
G01 X-4.5699 Y9.4550
G01 X-4.4614 Y9.0606
G01 X-4.3188 Y8.6773
G01 X-4.1434 Y8.3078
G01 X-3.9365 Y7.9550
G01 X-3.6996 Y7.6216
G01 X-3.4345 Y7.3101
G01 X-3.1433 Y7.0229
G01 X-2.8282 Y6.7622
G01 X-2.4915 Y6.5299
G01 X-2.1359 Y6.3279
G01 X-1.7640 Y6.1576
G01 X-1.3787 Y6.0203
G01 X-0.9830 Y5.9172
G01 X-0.5797 Y5.8490
G00 Z5.0000
G00 X-0.2161 Y-5.2532
G00 Z-2.5000
G01 Z-3.0000 F300
G01 X-0.1937 Y-5.8170 F762
G01 X-0.6012 Y-5.8517
G01 X-1.0042 Y-5.9218
G01 X-1.3995 Y-6.0268
G01 X-1.7841 Y-6.1658
G01 X-2.1552 Y-6.3378
G01 X-2.5099 Y-6.5415
G01 X-2.8454 Y-6.7753
G01 X-3.1594 Y-7.0375
G01 X-3.4492 Y-7.3260
G01 X-3.7129 Y-7.6387
G01 X-3.9482 Y-7.9732
G01 X-4.1535 Y-8.3270
G01 X-4.3272 Y-8.6972
G01 X-4.4680 Y-9.0813
G01 X-4.5748 Y-9.4761
G01 X-4.6467 Y-9.8787
G01 X-4.6833 Y-10.2861
G01 X-4.6842 Y-10.6951
G01 X-4.6495 Y-11.1026
G01 X-4.5794 Y-11.5056
G01 X-4.4745 Y-11.9009
G01 X-4.3355 Y-12.2855
G01 X-4.1634 Y-12.6566
G01 X-3.9598 Y-13.0113
G01 X-3.7259 Y-13.3468
G01 X-3.4637 Y-13.6608
G01 X-3.1752 Y-13.9506
G01 X-2.8625 Y-14.2143
G01 X-2.5280 Y-14.4496
G01 X-2.1743 Y-14.6549
G01 X-1.8040 Y-14.8286
G01 X-1.4200 Y-14.9694
G01 X-1.0251 Y-15.0762
G01 X-0.6225 Y-15.1481
G01 X-0.2151 Y-15.1847
G01 X0.1939 Y-15.1856
G01 X0.6014 Y-15.1509
G01 X1.0043 Y-15.0808
G01 X1.3996 Y-14.9759
G01 X1.7843 Y-14.8369
G01 X2.1554 Y-14.6648
G01 X2.5101 Y-14.4612
G01 X2.8456 Y-14.2273
G01 X3.1595 Y-13.9651
G01 X3.4494 Y-13.6766
G01 X3.7130 Y-13.3639
G01 X3.9484 Y-13.0294
G01 X4.1537 Y-12.6757
G01 X4.3274 Y-12.3054
G01 X4.4682 Y-11.9214
G01 X4.5749 Y-11.5265
G01 X4.6469 Y-11.1239
G01 X4.6835 Y-10.7165
G01 X4.6844 Y-10.3075
G01 X4.6497 Y-9.9000
G01 X4.5796 Y-9.4971
G01 X4.4746 Y-9.1018
G01 X4.3356 Y-8.7171
G01 X4.1636 Y-8.3460
G01 X3.9599 Y-7.9913
G01 X3.7261 Y-7.6558
G01 X3.4639 Y-7.3419
G01 X3.1754 Y-7.0520
G01 X2.8627 Y-6.7884
G01 X2.5282 Y-6.5530
G01 X2.1744 Y-6.3477
G01 X1.8042 Y-6.1740
G01 X1.4201 Y-6.0332
G01 X1.0253 Y-5.9265
G01 X0.6227 Y-5.8545
G01 X0.2153 Y-5.8179
G01 X-0.1937 Y-5.8170
G00 Z5.0000
G00 X-1.5259 Y-5.2482
G00 Z-2.5000
G01 Z-3.0000 F300
G01 X-2.0467 Y-5.0516 F762
G01 X-1.8983 Y-4.6483
G01 X-1.7632 Y-4.2404
G01 X-1.6414 Y-3.8282
G01 X-1.5331 Y-3.4123
G01 X-1.4385 Y-2.9931
G01 X-1.3576 Y-2.5711
G01 X-1.2904 Y-2.1466
G01 X-1.2372 Y-1.7201
G01 X-1.1723 Y-1.1600
G01 X-1.1318 Y-0.5976
G01 X-1.1158 Y-0.0340
G01 X-1.1243 Y0.5298
G01 X-1.1573 Y1.0927
G01 X-1.2148 Y1.6536
G01 X-1.2967 Y2.2115
G01 X-1.4027 Y2.7653
G01 X-1.4861 Y3.2622
G01 X-1.5987 Y3.7534
G01 X-1.7401 Y4.2370
G01 X-1.9098 Y4.7115
G01 X-2.1072 Y5.1751
G01 X-2.3316 Y5.6263
G01 X-2.5823 Y6.0634
G01 X-2.8583 Y6.4850
G01 X-3.0823 Y6.7798
G01 X-3.3135 Y7.0690
G01 X-3.5516 Y7.3524
G01 X-3.7967 Y7.6300
G01 X-4.0119 Y7.9394
G01 X-4.2019 Y8.2649
G01 X-4.3656 Y8.6044
G01 X-4.5020 Y8.9559
G01 X-4.6100 Y9.3170
G01 X-4.6892 Y9.6855
G01 X-4.7389 Y10.0591
G01 X-4.7590 Y10.4355
G01 X-4.7491 Y10.8123
G01 X-4.7095 Y11.1872
G01 X-4.6404 Y11.5577
G01 X-4.5421 Y11.9216
G01 X-4.4154 Y12.2766
G01 X-4.2610 Y12.6204
G01 X-4.0798 Y12.9509
G01 X-3.8731 Y13.2661
G01 X-3.6420 Y13.5639
G01 X-3.3881 Y13.8425
G01 X-3.1130 Y14.1002
G01 X-2.8183 Y14.3352
G01 X-2.5060 Y14.5462
G01 X-2.1779 Y14.7318
G01 X-1.8362 Y14.8909
G01 X-1.4830 Y15.0225
G01 X-1.1205 Y15.1256
G01 X-0.7509 Y15.1998
G01 X-0.3766 Y15.2445
G01 X0.0000 Y15.2594
G01 X0.3766 Y15.2445
G01 X0.7509 Y15.1998
G01 X1.1205 Y15.1256
G01 X1.4830 Y15.0225
G01 X1.8362 Y14.8909
G01 X2.1779 Y14.7318
G01 X2.5060 Y14.5462
G01 X2.8183 Y14.3352
G01 X3.1130 Y14.1002
G01 X3.3881 Y13.8425
G01 X3.6420 Y13.5639
G01 X3.8731 Y13.2661
G01 X4.0590 Y12.9834
G01 X4.2246 Y12.6883
G01 X4.3689 Y12.3822
G01 X4.4912 Y12.0667
G01 X4.5910 Y11.7433
G01 X4.6677 Y11.4137
G01 X4.7209 Y11.0795
G01 X4.7503 Y10.7424
G01 X4.7559 Y10.4040
G01 X4.7376 Y10.0661
G01 X4.6954 Y9.7303
G01 X4.6297 Y9.3984
G01 X4.5407 Y9.0719
G01 X4.4288 Y8.7525
G01 X4.2947 Y8.4418
G01 X4.1389 Y8.1414
G01 X3.9624 Y7.8527
G01 X3.7659 Y7.5772
G01 X3.5504 Y7.3163
G01 X3.3170 Y7.0712
G01 X3.0736 Y6.7724
G01 X2.8443 Y6.4626
G01 X2.6299 Y6.1423
G01 X2.4306 Y5.8123
G01 X2.2471 Y5.4734
G01 X2.0796 Y5.1262
G01 X1.9286 Y4.7716
G01 X1.7943 Y4.4103
G01 X1.6771 Y4.0431
G01 X1.5772 Y3.6709
G01 X1.4949 Y3.2943
G01 X1.4303 Y2.9143
G01 X1.3494 Y2.4943
G01 X1.2804 Y2.0722
G01 X1.2234 Y1.6482
G01 X1.1784 Y1.2229
G01 X1.1456 Y0.7964
G01 X1.1248 Y0.3691
G01 X1.1162 Y-0.0585
G01 X1.1198 Y-0.4863
G01 X1.1576 Y-1.0115
G01 X1.2117 Y-1.5352
G01 X1.2821 Y-2.0571
G01 X1.3688 Y-2.5764
G01 X1.4716 Y-3.0929
G01 X1.5904 Y-3.6058
G01 X1.7251 Y-4.1149
G01 X1.8757 Y-4.6194
G01 X2.0277 Y-5.0029
G01 X2.1992 Y-5.3780
G01 X2.3899 Y-5.7437
G01 X2.5992 Y-6.0992
G01 X2.8265 Y-6.4433
G01 X3.0713 Y-6.7753
G01 X3.3328 Y-7.0943
G01 X3.6105 Y-7.3993
G01 X3.8690 Y-7.7285
G01 X4.0976 Y-8.0793
G01 X4.2945 Y-8.4487
G01 X4.4582 Y-8.8340
G01 X4.5873 Y-9.2323
G01 X4.6810 Y-9.6403
G01 X4.7384 Y-10.0550
G01 X4.7592 Y-10.4731
G01 X4.7432 Y-10.8914
G01 X4.6905 Y-11.3067
G01 X4.6014 Y-11.7158
G01 X4.4768 Y-12.1154
G01 X4.3175 Y-12.5026
G01 X4.1249 Y-12.8743
G01 X3.9003 Y-13.2276
G01 X3.6455 Y-13.5597
G01 X3.3625 Y-13.8683
G01 X3.0535 Y-14.1507
G01 X2.7209 Y-14.4049
G01 X2.3673 Y-14.6289
G01 X1.9953 Y-14.8210
G01 X1.6078 Y-14.9796
G01 X1.2080 Y-15.1036
G01 X0.7988 Y-15.1919
G01 X0.3834 Y-15.2440
G01 X-0.0350 Y-15.2593
G01 X-0.4531 Y-15.2378
G01 X-0.8677 Y-15.1797
G01 X-1.2755 Y-15.0853
G01 X-1.6735 Y-14.9555
G01 X-2.0586 Y-14.7912
G01 X-2.4277 Y-14.5937
G01 X-2.7780 Y-14.3645
G01 X-3.1069 Y-14.1055
G01 X-3.4117 Y-13.8185
G01 X-3.6901 Y-13.5058
G01 X-3.9024 Y-13.2232
G01 X-4.0932 Y-12.9256
G01 X-4.2615 Y-12.6147
G01 X-4.4064 Y-12.2923
G01 X-4.5271 Y-11.9601
G01 X-4.6230 Y-11.6198
G01 X-4.6935 Y-11.2734
G01 X-4.7382 Y-10.9227
G01 X-4.7569 Y-10.5697
G01 X-4.7495 Y-10.2163
G01 X-4.7160 Y-9.8644
G01 X-4.6566 Y-9.5159
G01 X-4.5717 Y-9.1728
G01 X-4.4616 Y-8.8368
G01 X-4.3271 Y-8.5099
G01 X-4.1688 Y-8.1939
G01 X-3.9876 Y-7.8903
G01 X-3.7845 Y-7.6010
G01 X-3.5605 Y-7.3275
G01 X-3.3170 Y-7.0712
G01 X-3.1256 Y-6.8411
G01 X-2.9429 Y-6.6039
G01 X-2.7694 Y-6.3600
G01 X-2.6053 Y-6.1096
G01 X-2.4507 Y-5.8532
G01 X-2.3060 Y-5.5912
G01 X-2.1712 Y-5.3239
G01 X-2.0467 Y-5.0516
G00 Z5.0000
G00 X-1.5061 Y-5.1958
G00 Z-2.5000
G01 Z-4.0000 F300
G01 X-1.2781 Y-4.5516 F762
G01 X-1.0804 Y-3.8975
G01 X-0.9136 Y-3.2348
G01 X-0.7780 Y-2.5651
G01 X-0.6739 Y-1.8897
G01 X-0.6015 Y-1.2102
G01 X-0.5610 Y-0.5281
G01 X-0.5525 Y0.1552
G01 X-0.5759 Y0.8381
G01 X-0.6313 Y1.5192
G01 X-0.7185 Y2.1970
G01 X-0.8373 Y2.8699
G01 X-0.9875 Y3.5365
G01 X-1.1687 Y4.1954
G01 X-1.3806 Y4.8450
G01 X-1.6226 Y5.4841
G01 X-1.2272 Y5.3721
G01 X-0.8242 Y5.2917
G01 X-0.4161 Y5.2432
G01 X-0.0054 Y5.2270
G01 X0.4052 Y5.2432
G01 X0.8134 Y5.2917
G01 X1.2164 Y5.3721
G01 X1.6118 Y5.4841
G01 X1.3632 Y4.8255
G01 X1.1465 Y4.1557
G01 X0.9623 Y3.4762
G01 X0.8110 Y2.7887
G01 X0.6930 Y2.0947
G01 X0.6085 Y1.3958
G01 X0.5577 Y0.6936
G01 X0.5408 Y-0.0102
G01 X0.5577 Y-0.7139
G01 X0.6085 Y-1.4161
G01 X0.6930 Y-2.1150
G01 X0.8110 Y-2.8090
G01 X0.9623 Y-3.4965
G01 X1.1465 Y-4.1760
G01 X1.3632 Y-4.8458
G01 X1.6118 Y-5.5044
G01 X1.2165 Y-5.3914
G01 X0.8135 Y-5.3101
G01 X0.4054 Y-5.2612
G01 X-0.0054 Y-5.2448
G01 X-0.4162 Y-5.2612
G01 X-0.8244 Y-5.3101
G01 X-1.2274 Y-5.3914
G01 X-1.6226 Y-5.5044
G01 X-1.5061 Y-5.1958
G00 Z5.0000
G00 X-0.6484 Y5.2708
G00 Z-3.5000
G01 Z-4.0000 F300
G01 X-0.5797 Y5.8490 F762
G01 X-0.1720 Y5.8161
G01 X0.2370 Y5.8190
G01 X0.6442 Y5.8574
G01 X1.0465 Y5.9312
G01 X1.4408 Y6.0398
G01 X1.8242 Y6.1824
G01 X2.1936 Y6.3578
G01 X2.5464 Y6.5647
G01 X2.8798 Y6.8016
G01 X3.1913 Y7.0667
G01 X3.4785 Y7.3579
G01 X3.7393 Y7.6730
G01 X3.9715 Y8.0097
G01 X4.1736 Y8.3653
G01 X4.3439 Y8.7371
G01 X4.4811 Y9.1224
G01 X4.5842 Y9.5182
G01 X4.6525 Y9.9215
G01 X4.6853 Y10.3292
G01 X4.6825 Y10.7382
G01 X4.6440 Y11.1454
G01 X4.5702 Y11.5477
G01 X4.4616 Y11.9420
G01 X4.3191 Y12.3253
G01 X4.1437 Y12.6948
G01 X3.9367 Y13.0476
G01 X3.6998 Y13.3810
G01 X3.4347 Y13.6925
G01 X3.1435 Y13.9797
G01 X2.8284 Y14.2404
G01 X2.4918 Y14.4727
G01 X2.1362 Y14.6748
G01 X1.7643 Y14.8450
G01 X1.3790 Y14.9823
G01 X0.9832 Y15.0854
G01 X0.5799 Y15.1536
G01 X0.1722 Y15.1865
G01 X-0.2367 Y15.1836
G01 X-0.6439 Y15.1452
G01 X-1.0462 Y15.0714
G01 X-1.4406 Y14.9628
G01 X-1.8239 Y14.8202
G01 X-2.1934 Y14.6448
G01 X-2.5462 Y14.4379
G01 X-2.8796 Y14.2010
G01 X-3.1911 Y13.9359
G01 X-3.4783 Y13.6447
G01 X-3.7390 Y13.3296
G01 X-3.9713 Y12.9929
G01 X-4.1733 Y12.6373
G01 X-4.3436 Y12.2655
G01 X-4.4808 Y11.8802
G01 X-4.5840 Y11.4844
G01 X-4.6522 Y11.0811
G01 X-4.6850 Y10.6734
G01 X-4.6822 Y10.2644
G01 X-4.6437 Y9.8572
G01 X-4.5699 Y9.4550
G01 X-4.4614 Y9.0606
G01 X-4.3188 Y8.6773
G01 X-4.1434 Y8.3078
G01 X-3.9365 Y7.9550
G01 X-3.6996 Y7.6216
G01 X-3.4345 Y7.3101
G01 X-3.1433 Y7.0229
G01 X-2.8282 Y6.7622
G01 X-2.4915 Y6.5299
G01 X-2.1359 Y6.3279
G01 X-1.7640 Y6.1576
G01 X-1.3787 Y6.0203
G01 X-0.9830 Y5.9172
G01 X-0.5797 Y5.8490
G00 Z5.0000
G00 X-0.2161 Y-5.2532
G00 Z-3.5000
G01 Z-4.0000 F300
G01 X-0.1937 Y-5.8170 F762
G01 X-0.6012 Y-5.8517
G01 X-1.0042 Y-5.9218
G01 X-1.3995 Y-6.0268
G01 X-1.7841 Y-6.1658
G01 X-2.1552 Y-6.3378
G01 X-2.5099 Y-6.5415
G01 X-2.8454 Y-6.7753
G01 X-3.1594 Y-7.0375
G01 X-3.4492 Y-7.3260
G01 X-3.7129 Y-7.6387
G01 X-3.9482 Y-7.9732
G01 X-4.1535 Y-8.3270
G01 X-4.3272 Y-8.6972
G01 X-4.4680 Y-9.0813
G01 X-4.5748 Y-9.4761
G01 X-4.6467 Y-9.8787
G01 X-4.6833 Y-10.2861
G01 X-4.6842 Y-10.6951
G01 X-4.6495 Y-11.1026
G01 X-4.5794 Y-11.5056
G01 X-4.4745 Y-11.9009
G01 X-4.3355 Y-12.2855
G01 X-4.1634 Y-12.6566
G01 X-3.9598 Y-13.0113
G01 X-3.7259 Y-13.3468
G01 X-3.4637 Y-13.6608
G01 X-3.1752 Y-13.9506
G01 X-2.8625 Y-14.2143
G01 X-2.5280 Y-14.4496
G01 X-2.1743 Y-14.6549
G01 X-1.8040 Y-14.8286
G01 X-1.4200 Y-14.9694
G01 X-1.0251 Y-15.0762
G01 X-0.6225 Y-15.1481
G01 X-0.2151 Y-15.1847
G01 X0.1939 Y-15.1856
G01 X0.6014 Y-15.1509
G01 X1.0043 Y-15.0808
G01 X1.3996 Y-14.9759
G01 X1.7843 Y-14.8369
G01 X2.1554 Y-14.6648
G01 X2.5101 Y-14.4612
G01 X2.8456 Y-14.2273
G01 X3.1595 Y-13.9651
G01 X3.4494 Y-13.6766
G01 X3.7130 Y-13.3639
G01 X3.9484 Y-13.0294
G01 X4.1537 Y-12.6757
G01 X4.3274 Y-12.3054
G01 X4.4682 Y-11.9214
G01 X4.5749 Y-11.5265
G01 X4.6469 Y-11.1239
G01 X4.6835 Y-10.7165
G01 X4.6844 Y-10.3075
G01 X4.6497 Y-9.9000
G01 X4.5796 Y-9.4971
G01 X4.4746 Y-9.1018
G01 X4.3356 Y-8.7171
G01 X4.1636 Y-8.3460
G01 X3.9599 Y-7.9913
G01 X3.7261 Y-7.6558
G01 X3.4639 Y-7.3419
G01 X3.1754 Y-7.0520
G01 X2.8627 Y-6.7884
G01 X2.5282 Y-6.5530
G01 X2.1744 Y-6.3477
G01 X1.8042 Y-6.1740
G01 X1.4201 Y-6.0332
G01 X1.0253 Y-5.9265
G01 X0.6227 Y-5.8545
G01 X0.2153 Y-5.8179
G01 X-0.1937 Y-5.8170
G00 Z5.0000
G00 X-1.5259 Y-5.2482
G00 Z-3.5000
G01 Z-4.0000 F300
G01 X-2.0467 Y-5.0516 F762
G01 X-1.8983 Y-4.6483
G01 X-1.7632 Y-4.2404
G01 X-1.6414 Y-3.8282
G01 X-1.5331 Y-3.4123
G01 X-1.4385 Y-2.9931
G01 X-1.3576 Y-2.5711
G01 X-1.2904 Y-2.1466
G01 X-1.2372 Y-1.7201
G01 X-1.1723 Y-1.1600
G01 X-1.1318 Y-0.5976
G01 X-1.1158 Y-0.0340
G01 X-1.1243 Y0.5298
G01 X-1.1573 Y1.0927
G01 X-1.2148 Y1.6536
G01 X-1.2967 Y2.2115
G01 X-1.4027 Y2.7653
G01 X-1.4861 Y3.2622
G01 X-1.5987 Y3.7534
G01 X-1.7401 Y4.2370
G01 X-1.9098 Y4.7115
G01 X-2.1072 Y5.1751
G01 X-2.3316 Y5.6263
G01 X-2.5823 Y6.0634
G01 X-2.8583 Y6.4850
G01 X-3.0823 Y6.7798
G01 X-3.3135 Y7.0690
G01 X-3.5516 Y7.3524
G01 X-3.7967 Y7.6300
G01 X-4.0119 Y7.9394
G01 X-4.2019 Y8.2649
G01 X-4.3656 Y8.6044
G01 X-4.5020 Y8.9559
G01 X-4.6100 Y9.3170
G01 X-4.6892 Y9.6855
G01 X-4.7389 Y10.0591
G01 X-4.7590 Y10.4355
G01 X-4.7491 Y10.8123
G01 X-4.7095 Y11.1872
G01 X-4.6404 Y11.5577
G01 X-4.5421 Y11.9216
G01 X-4.4154 Y12.2766
G01 X-4.2610 Y12.6204
G01 X-4.0798 Y12.9509
G01 X-3.8731 Y13.2661
G01 X-3.6420 Y13.5639
G01 X-3.3881 Y13.8425
G01 X-3.1130 Y14.1002
G01 X-2.8183 Y14.3352
G01 X-2.5060 Y14.5462
G01 X-2.1779 Y14.7318
G01 X-1.8362 Y14.8909
G01 X-1.4830 Y15.0225
G01 X-1.1205 Y15.1256
G01 X-0.7509 Y15.1998
G01 X-0.3766 Y15.2445
G01 X0.0000 Y15.2594
G01 X0.3766 Y15.2445
G01 X0.7509 Y15.1998
G01 X1.1205 Y15.1256
G01 X1.4830 Y15.0225
G01 X1.8362 Y14.8909
G01 X2.1779 Y14.7318
G01 X2.5060 Y14.5462
G01 X2.8183 Y14.3352
G01 X3.1130 Y14.1002
G01 X3.3881 Y13.8425
G01 X3.6420 Y13.5639
G01 X3.8731 Y13.2661
G01 X4.0590 Y12.9834
G01 X4.2246 Y12.6883
G01 X4.3689 Y12.3822
G01 X4.4912 Y12.0667
G01 X4.5910 Y11.7433
G01 X4.6677 Y11.4137
G01 X4.7209 Y11.0795
G01 X4.7503 Y10.7424
G01 X4.7559 Y10.4040
G01 X4.7376 Y10.0661
G01 X4.6954 Y9.7303
G01 X4.6297 Y9.3984
G01 X4.5407 Y9.0719
G01 X4.4288 Y8.7525
G01 X4.2947 Y8.4418
G01 X4.1389 Y8.1414
G01 X3.9624 Y7.8527
G01 X3.7659 Y7.5772
G01 X3.5504 Y7.3163
G01 X3.3170 Y7.0712
G01 X3.0736 Y6.7724
G01 X2.8443 Y6.4626
G01 X2.6299 Y6.1423
G01 X2.4306 Y5.8123
G01 X2.2471 Y5.4734
G01 X2.0796 Y5.1262
G01 X1.9286 Y4.7716
G01 X1.7943 Y4.4103
G01 X1.6771 Y4.0431
G01 X1.5772 Y3.6709
G01 X1.4949 Y3.2943
G01 X1.4303 Y2.9143
G01 X1.3494 Y2.4943
G01 X1.2804 Y2.0722
G01 X1.2234 Y1.6482
G01 X1.1784 Y1.2229
G01 X1.1456 Y0.7964
G01 X1.1248 Y0.3691
G01 X1.1162 Y-0.0585
G01 X1.1198 Y-0.4863
G01 X1.1576 Y-1.0115
G01 X1.2117 Y-1.5352
G01 X1.2821 Y-2.0571
G01 X1.3688 Y-2.5764
G01 X1.4716 Y-3.0929
G01 X1.5904 Y-3.6058
G01 X1.7251 Y-4.1149
G01 X1.8757 Y-4.6194
G01 X2.0277 Y-5.0029
G01 X2.1992 Y-5.3780
G01 X2.3899 Y-5.7437
G01 X2.5992 Y-6.0992
G01 X2.8265 Y-6.4433
G01 X3.0713 Y-6.7753
G01 X3.3328 Y-7.0943
G01 X3.6105 Y-7.3993
G01 X3.8690 Y-7.7285
G01 X4.0976 Y-8.0793
G01 X4.2945 Y-8.4487
G01 X4.4582 Y-8.8340
G01 X4.5873 Y-9.2323
G01 X4.6810 Y-9.6403
G01 X4.7384 Y-10.0550
G01 X4.7592 Y-10.4731
G01 X4.7432 Y-10.8914
G01 X4.6905 Y-11.3067
G01 X4.6014 Y-11.7158
G01 X4.4768 Y-12.1154
G01 X4.3175 Y-12.5026
G01 X4.1249 Y-12.8743
G01 X3.9003 Y-13.2276
G01 X3.6455 Y-13.5597
G01 X3.3625 Y-13.8683
G01 X3.0535 Y-14.1507
G01 X2.7209 Y-14.4049
G01 X2.3673 Y-14.6289
G01 X1.9953 Y-14.8210
G01 X1.6078 Y-14.9796
G01 X1.2080 Y-15.1036
G01 X0.7988 Y-15.1919
G01 X0.3834 Y-15.2440
G01 X-0.0350 Y-15.2593
G01 X-0.4531 Y-15.2378
G01 X-0.8677 Y-15.1797
G01 X-1.2755 Y-15.0853
G01 X-1.6735 Y-14.9555
G01 X-2.0586 Y-14.7912
G01 X-2.4277 Y-14.5937
G01 X-2.7780 Y-14.3645
G01 X-3.1069 Y-14.1055
G01 X-3.4117 Y-13.8185
G01 X-3.6901 Y-13.5058
G01 X-3.9024 Y-13.2232
G01 X-4.0932 Y-12.9256
G01 X-4.2615 Y-12.6147
G01 X-4.4064 Y-12.2923
G01 X-4.5271 Y-11.9601
G01 X-4.6230 Y-11.6198
G01 X-4.6935 Y-11.2734
G01 X-4.7382 Y-10.9227
G01 X-4.7569 Y-10.5697
G01 X-4.7495 Y-10.2163
G01 X-4.7160 Y-9.8644
G01 X-4.6566 Y-9.5159
G01 X-4.5717 Y-9.1728
G01 X-4.4616 Y-8.8368
G01 X-4.3271 Y-8.5099
G01 X-4.1688 Y-8.1939
G01 X-3.9876 Y-7.8903
G01 X-3.7845 Y-7.6010
G01 X-3.5605 Y-7.3275
G01 X-3.3170 Y-7.0712
G01 X-3.1256 Y-6.8411
G01 X-2.9429 Y-6.6039
G01 X-2.7694 Y-6.3600
G01 X-2.6053 Y-6.1096
G01 X-2.4507 Y-5.8532
G01 X-2.3060 Y-5.5912
G01 X-2.1712 Y-5.3239
G01 X-2.0467 Y-5.0516
G00 Z5.0000
G00 X-1.5061 Y-5.1958
G00 Z-3.5000
G01 Z-5.0000 F300
G01 X-1.2781 Y-4.5516 F762
G01 X-1.0804 Y-3.8975
G01 X-0.9136 Y-3.2348
G01 X-0.7780 Y-2.5651
G01 X-0.6739 Y-1.8897
G01 X-0.6015 Y-1.2102
G01 X-0.5610 Y-0.5281
G01 X-0.5525 Y0.1552
G01 X-0.5759 Y0.8381
G01 X-0.6313 Y1.5192
G01 X-0.7185 Y2.1970
G01 X-0.8373 Y2.8699
G01 X-0.9875 Y3.5365
G01 X-1.1687 Y4.1954
G01 X-1.3806 Y4.8450
G01 X-1.6226 Y5.4841
G01 X-1.2272 Y5.3721
G01 X-0.8242 Y5.2917
G01 X-0.4161 Y5.2432
G01 X-0.0054 Y5.2270
G01 X0.4052 Y5.2432
G01 X0.8134 Y5.2917
G01 X1.2164 Y5.3721
G01 X1.6118 Y5.4841
G01 X1.3632 Y4.8255
G01 X1.1465 Y4.1557
G01 X0.9623 Y3.4762
G01 X0.8110 Y2.7887
G01 X0.6930 Y2.0947
G01 X0.6085 Y1.3958
G01 X0.5577 Y0.6936
G01 X0.5408 Y-0.0102
G01 X0.5577 Y-0.7139
G01 X0.6085 Y-1.4161
G01 X0.6930 Y-2.1150
G01 X0.8110 Y-2.8090
G01 X0.9623 Y-3.4965
G01 X1.1465 Y-4.1760
G01 X1.3632 Y-4.8458
G01 X1.6118 Y-5.5044
G01 X1.2165 Y-5.3914
G01 X0.8135 Y-5.3101
G01 X0.4054 Y-5.2612
G01 X-0.0054 Y-5.2448
G01 X-0.4162 Y-5.2612
G01 X-0.8244 Y-5.3101
G01 X-1.2274 Y-5.3914
G01 X-1.6226 Y-5.5044
G01 X-1.5061 Y-5.1958
G00 Z5.0000
G00 X-0.6484 Y5.2708
G00 Z-4.5000
G01 Z-5.0000 F300
G01 X-0.5797 Y5.8490 F762
G01 X-0.1720 Y5.8161
G01 X0.2370 Y5.8190
G01 X0.6442 Y5.8574
G01 X1.0465 Y5.9312
G01 X1.4408 Y6.0398
G01 X1.8242 Y6.1824
G01 X2.1936 Y6.3578
G01 X2.5464 Y6.5647
G01 X2.8798 Y6.8016
G01 X3.1913 Y7.0667
G01 X3.4785 Y7.3579
G01 X3.7393 Y7.6730
G01 X3.9715 Y8.0097
G01 X4.1736 Y8.3653
G01 X4.3439 Y8.7371
G01 X4.4811 Y9.1224
G01 X4.5842 Y9.5182
G01 X4.6525 Y9.9215
G01 X4.6853 Y10.3292
G01 X4.6825 Y10.7382
G01 X4.6440 Y11.1454
G01 X4.5702 Y11.5477
G01 X4.4616 Y11.9420
G01 X4.3191 Y12.3253
G01 X4.1437 Y12.6948
G01 X3.9367 Y13.0476
G01 X3.6998 Y13.3810
G01 X3.4347 Y13.6925
G01 X3.1435 Y13.9797
G01 X2.8284 Y14.2404
G01 X2.4918 Y14.4727
G01 X2.1362 Y14.6748
G01 X1.7643 Y14.8450
G01 X1.3790 Y14.9823
G01 X0.9832 Y15.0854
G01 X0.5799 Y15.1536
G01 X0.1722 Y15.1865
G01 X-0.2367 Y15.1836
G01 X-0.6439 Y15.1452
G01 X-1.0462 Y15.0714
G01 X-1.4406 Y14.9628
G01 X-1.8239 Y14.8202
G01 X-2.1934 Y14.6448
G01 X-2.5462 Y14.4379
G01 X-2.8796 Y14.2010
G01 X-3.1911 Y13.9359
G01 X-3.4783 Y13.6447
G01 X-3.7390 Y13.3296
G01 X-3.9713 Y12.9929
G01 X-4.1733 Y12.6373
G01 X-4.3436 Y12.2655
G01 X-4.4808 Y11.8802
G01 X-4.5840 Y11.4844
G01 X-4.6522 Y11.0811
G01 X-4.6850 Y10.6734
G01 X-4.6822 Y10.2644
G01 X-4.6437 Y9.8572
G01 X-4.5699 Y9.4550
G01 X-4.4614 Y9.0606
G01 X-4.3188 Y8.6773
G01 X-4.1434 Y8.3078
G01 X-3.9365 Y7.9550
G01 X-3.6996 Y7.6216
G01 X-3.4345 Y7.3101
G01 X-3.1433 Y7.0229
G01 X-2.8282 Y6.7622
G01 X-2.4915 Y6.5299
G01 X-2.1359 Y6.3279
G01 X-1.7640 Y6.1576
G01 X-1.3787 Y6.0203
G01 X-0.9830 Y5.9172
G01 X-0.5797 Y5.8490
G00 Z5.0000
G00 X-0.2161 Y-5.2532
G00 Z-4.5000
G01 Z-5.0000 F300
G01 X-0.1937 Y-5.8170 F762
G01 X-0.6012 Y-5.8517
G01 X-1.0042 Y-5.9218
G01 X-1.3995 Y-6.0268
G01 X-1.7841 Y-6.1658
G01 X-2.1552 Y-6.3378
G01 X-2.5099 Y-6.5415
G01 X-2.8454 Y-6.7753
G01 X-3.1594 Y-7.0375
G01 X-3.4492 Y-7.3260
G01 X-3.7129 Y-7.6387
G01 X-3.9482 Y-7.9732
G01 X-4.1535 Y-8.3270
G01 X-4.3272 Y-8.6972
G01 X-4.4680 Y-9.0813
G01 X-4.5748 Y-9.4761
G01 X-4.6467 Y-9.8787
G01 X-4.6833 Y-10.2861
G01 X-4.6842 Y-10.6951
G01 X-4.6495 Y-11.1026
G01 X-4.5794 Y-11.5056
G01 X-4.4745 Y-11.9009
G01 X-4.3355 Y-12.2855
G01 X-4.1634 Y-12.6566
G01 X-3.9598 Y-13.0113
G01 X-3.7259 Y-13.3468
G01 X-3.4637 Y-13.6608
G01 X-3.1752 Y-13.9506
G01 X-2.8625 Y-14.2143
G01 X-2.5280 Y-14.4496
G01 X-2.1743 Y-14.6549
G01 X-1.8040 Y-14.8286
G01 X-1.4200 Y-14.9694
G01 X-1.0251 Y-15.0762
G01 X-0.6225 Y-15.1481
G01 X-0.2151 Y-15.1847
G01 X0.1939 Y-15.1856
G01 X0.6014 Y-15.1509
G01 X1.0043 Y-15.0808
G01 X1.3996 Y-14.9759
G01 X1.7843 Y-14.8369
G01 X2.1554 Y-14.6648
G01 X2.5101 Y-14.4612
G01 X2.8456 Y-14.2273
G01 X3.1595 Y-13.9651
G01 X3.4494 Y-13.6766
G01 X3.7130 Y-13.3639
G01 X3.9484 Y-13.0294
G01 X4.1537 Y-12.6757
G01 X4.3274 Y-12.3054
G01 X4.4682 Y-11.9214
G01 X4.5749 Y-11.5265
G01 X4.6469 Y-11.1239
G01 X4.6835 Y-10.7165
G01 X4.6844 Y-10.3075
G01 X4.6497 Y-9.9000
G01 X4.5796 Y-9.4971
G01 X4.4746 Y-9.1018
G01 X4.3356 Y-8.7171
G01 X4.1636 Y-8.3460
G01 X3.9599 Y-7.9913
G01 X3.7261 Y-7.6558
G01 X3.4639 Y-7.3419
G01 X3.1754 Y-7.0520
G01 X2.8627 Y-6.7884
G01 X2.5282 Y-6.5530
G01 X2.1744 Y-6.3477
G01 X1.8042 Y-6.1740
G01 X1.4201 Y-6.0332
G01 X1.0253 Y-5.9265
G01 X0.6227 Y-5.8545
G01 X0.2153 Y-5.8179
G01 X-0.1937 Y-5.8170
G00 Z5.0000
G00 X-1.5259 Y-5.2482
G00 Z-4.5000
G01 Z-5.0000 F300
G01 X-2.0467 Y-5.0516 F762
G01 X-1.8983 Y-4.6483
G01 X-1.7632 Y-4.2404
G01 X-1.6414 Y-3.8282
G01 X-1.5331 Y-3.4123
G01 X-1.4385 Y-2.9931
G01 X-1.3576 Y-2.5711
G01 X-1.2904 Y-2.1466
G01 X-1.2372 Y-1.7201
G01 X-1.1723 Y-1.1600
G01 X-1.1318 Y-0.5976
G01 X-1.1158 Y-0.0340
G01 X-1.1243 Y0.5298
G01 X-1.1573 Y1.0927
G01 X-1.2148 Y1.6536
G01 X-1.2967 Y2.2115
G01 X-1.4027 Y2.7653
G01 X-1.4861 Y3.2622
G01 X-1.5987 Y3.7534
G01 X-1.7401 Y4.2370
G01 X-1.9098 Y4.7115
G01 X-2.1072 Y5.1751
G01 X-2.3316 Y5.6263
G01 X-2.5823 Y6.0634
G01 X-2.8583 Y6.4850
G01 X-3.0823 Y6.7798
G01 X-3.3135 Y7.0690
G01 X-3.5516 Y7.3524
G01 X-3.7967 Y7.6300
G01 X-4.0119 Y7.9394
G01 X-4.2019 Y8.2649
G01 X-4.3656 Y8.6044
G01 X-4.5020 Y8.9559
G01 X-4.6100 Y9.3170
G01 X-4.6892 Y9.6855
G01 X-4.7389 Y10.0591
G01 X-4.7590 Y10.4355
G01 X-4.7491 Y10.8123
G01 X-4.7095 Y11.1872
G01 X-4.6404 Y11.5577
G01 X-4.5421 Y11.9216
G01 X-4.4154 Y12.2766
G01 X-4.2610 Y12.6204
G01 X-4.0798 Y12.9509
G01 X-3.8731 Y13.2661
G01 X-3.6420 Y13.5639
G01 X-3.3881 Y13.8425
G01 X-3.1130 Y14.1002
G01 X-2.8183 Y14.3352
G01 X-2.5060 Y14.5462
G01 X-2.1779 Y14.7318
G01 X-1.8362 Y14.8909
G01 X-1.4830 Y15.0225
G01 X-1.1205 Y15.1256
G01 X-0.7509 Y15.1998
G01 X-0.3766 Y15.2445
G01 X0.0000 Y15.2594
G01 X0.3766 Y15.2445
G01 X0.7509 Y15.1998
G01 X1.1205 Y15.1256
G01 X1.4830 Y15.0225
G01 X1.8362 Y14.8909
G01 X2.1779 Y14.7318
G01 X2.5060 Y14.5462
G01 X2.8183 Y14.3352
G01 X3.1130 Y14.1002
G01 X3.3881 Y13.8425
G01 X3.6420 Y13.5639
G01 X3.8731 Y13.2661
G01 X4.0590 Y12.9834
G01 X4.2246 Y12.6883
G01 X4.3689 Y12.3822
G01 X4.4912 Y12.0667
G01 X4.5910 Y11.7433
G01 X4.6677 Y11.4137
G01 X4.7209 Y11.0795
G01 X4.7503 Y10.7424
G01 X4.7559 Y10.4040
G01 X4.7376 Y10.0661
G01 X4.6954 Y9.7303
G01 X4.6297 Y9.3984
G01 X4.5407 Y9.0719
G01 X4.4288 Y8.7525
G01 X4.2947 Y8.4418
G01 X4.1389 Y8.1414
G01 X3.9624 Y7.8527
G01 X3.7659 Y7.5772
G01 X3.5504 Y7.3163
G01 X3.3170 Y7.0712
G01 X3.0736 Y6.7724
G01 X2.8443 Y6.4626
G01 X2.6299 Y6.1423
G01 X2.4306 Y5.8123
G01 X2.2471 Y5.4734
G01 X2.0796 Y5.1262
G01 X1.9286 Y4.7716
G01 X1.7943 Y4.4103
G01 X1.6771 Y4.0431
G01 X1.5772 Y3.6709
G01 X1.4949 Y3.2943
G01 X1.4303 Y2.9143
G01 X1.3494 Y2.4943
G01 X1.2804 Y2.0722
G01 X1.2234 Y1.6482
G01 X1.1784 Y1.2229
G01 X1.1456 Y0.7964
G01 X1.1248 Y0.3691
G01 X1.1162 Y-0.0585
G01 X1.1198 Y-0.4863
G01 X1.1576 Y-1.0115
G01 X1.2117 Y-1.5352
G01 X1.2821 Y-2.0571
G01 X1.3688 Y-2.5764
G01 X1.4716 Y-3.0929
G01 X1.5904 Y-3.6058
G01 X1.7251 Y-4.1149
G01 X1.8757 Y-4.6194
G01 X2.0277 Y-5.0029
G01 X2.1992 Y-5.3780
G01 X2.3899 Y-5.7437
G01 X2.5992 Y-6.0992
G01 X2.8265 Y-6.4433
G01 X3.0713 Y-6.7753
G01 X3.3328 Y-7.0943
G01 X3.6105 Y-7.3993
G01 X3.8690 Y-7.7285
G01 X4.0976 Y-8.0793
G01 X4.2945 Y-8.4487
G01 X4.4582 Y-8.8340
G01 X4.5873 Y-9.2323
G01 X4.6810 Y-9.6403
G01 X4.7384 Y-10.0550
G01 X4.7592 Y-10.4731
G01 X4.7432 Y-10.8914
G01 X4.6905 Y-11.3067
G01 X4.6014 Y-11.7158
G01 X4.4768 Y-12.1154
G01 X4.3175 Y-12.5026
G01 X4.1249 Y-12.8743
G01 X3.9003 Y-13.2276
G01 X3.6455 Y-13.5597
G01 X3.3625 Y-13.8683
G01 X3.0535 Y-14.1507
G01 X2.7209 Y-14.4049
G01 X2.3673 Y-14.6289
G01 X1.9953 Y-14.8210
G01 X1.6078 Y-14.9796
G01 X1.2080 Y-15.1036
G01 X0.7988 Y-15.1919
G01 X0.3834 Y-15.2440
G01 X-0.0350 Y-15.2593
G01 X-0.4531 Y-15.2378
G01 X-0.8677 Y-15.1797
G01 X-1.2755 Y-15.0853
G01 X-1.6735 Y-14.9555
G01 X-2.0586 Y-14.7912
G01 X-2.4277 Y-14.5937
G01 X-2.7780 Y-14.3645
G01 X-3.1069 Y-14.1055
G01 X-3.4117 Y-13.8185
G01 X-3.6901 Y-13.5058
G01 X-3.9024 Y-13.2232
G01 X-4.0932 Y-12.9256
G01 X-4.2615 Y-12.6147
G01 X-4.4064 Y-12.2923
G01 X-4.5271 Y-11.9601
G01 X-4.6230 Y-11.6198
G01 X-4.6935 Y-11.2734
G01 X-4.7382 Y-10.9227
G01 X-4.7569 Y-10.5697
G01 X-4.7495 Y-10.2163
G01 X-4.7160 Y-9.8644
G01 X-4.6566 Y-9.5159
G01 X-4.5717 Y-9.1728
G01 X-4.4616 Y-8.8368
G01 X-4.3271 Y-8.5099
G01 X-4.1688 Y-8.1939
G01 X-3.9876 Y-7.8903
G01 X-3.7845 Y-7.6010
G01 X-3.5605 Y-7.3275
G01 X-3.3170 Y-7.0712
G01 X-3.1256 Y-6.8411
G01 X-2.9429 Y-6.6039
G01 X-2.7694 Y-6.3600
G01 X-2.6053 Y-6.1096
G01 X-2.4507 Y-5.8532
G01 X-2.3060 Y-5.5912
G01 X-2.1712 Y-5.3239
G01 X-2.0467 Y-5.0516
G00 Z5.0000
G00 X-1.5061 Y-5.1958
G00 Z-4.5000
G01 Z-6.0000 F300
G01 X-1.2781 Y-4.5516 F762
G01 X-1.0804 Y-3.8975
G01 X-0.9136 Y-3.2348
G01 X-0.7780 Y-2.5651
G01 X-0.6739 Y-1.8897
G01 X-0.6015 Y-1.2102
G01 X-0.5610 Y-0.5281
G01 X-0.5525 Y0.1552
G01 X-0.5759 Y0.8381
G01 X-0.6313 Y1.5192
G01 X-0.7185 Y2.1970
G01 X-0.8373 Y2.8699
G01 X-0.9875 Y3.5365
G01 X-1.1687 Y4.1954
G01 X-1.3806 Y4.8450
G01 X-1.6226 Y5.4841
G01 X-1.2272 Y5.3721
G01 X-0.8242 Y5.2917
G01 X-0.4161 Y5.2432
G01 X-0.0054 Y5.2270
G01 X0.4052 Y5.2432
G01 X0.8134 Y5.2917
G01 X1.2164 Y5.3721
G01 X1.6118 Y5.4841
G01 X1.3632 Y4.8255
G01 X1.1465 Y4.1557
G01 X0.9623 Y3.4762
G01 X0.8110 Y2.7887
G01 X0.6930 Y2.0947
G01 X0.6085 Y1.3958
G01 X0.5577 Y0.6936
G01 X0.5408 Y-0.0102
G01 X0.5577 Y-0.7139
G01 X0.6085 Y-1.4161
G01 X0.6930 Y-2.1150
G01 X0.8110 Y-2.8090
G01 X0.9623 Y-3.4965
G01 X1.1465 Y-4.1760
G01 X1.3632 Y-4.8458
G01 X1.6118 Y-5.5044
G01 X1.2165 Y-5.3914
G01 X0.8135 Y-5.3101
G01 X0.4054 Y-5.2612
G01 X-0.0054 Y-5.2448
G01 X-0.4162 Y-5.2612
G01 X-0.8244 Y-5.3101
G01 X-1.2274 Y-5.3914
G01 X-1.6226 Y-5.5044
G01 X-1.5061 Y-5.1958
G00 Z5.0000
G00 X-0.6484 Y5.2708
G00 Z-5.5000
G01 Z-6.0000 F300
G01 X-0.5797 Y5.8490 F762
G01 X-0.1720 Y5.8161
G01 X0.2370 Y5.8190
G01 X0.6442 Y5.8574
G01 X1.0465 Y5.9312
G01 X1.4408 Y6.0398
G01 X1.8242 Y6.1824
G01 X2.1936 Y6.3578
G01 X2.5464 Y6.5647
G01 X2.8798 Y6.8016
G01 X3.1913 Y7.0667
G01 X3.4785 Y7.3579
G01 X3.7393 Y7.6730
G01 X3.9715 Y8.0097
G01 X4.1736 Y8.3653
G01 X4.3439 Y8.7371
G01 X4.4811 Y9.1224
G01 X4.5842 Y9.5182
G01 X4.6525 Y9.9215
G01 X4.6853 Y10.3292
G01 X4.6825 Y10.7382
G01 X4.6440 Y11.1454
G01 X4.5702 Y11.5477
G01 X4.4616 Y11.9420
G01 X4.3191 Y12.3253
G01 X4.1437 Y12.6948
G01 X3.9367 Y13.0476
G01 X3.6998 Y13.3810
G01 X3.4347 Y13.6925
G01 X3.1435 Y13.9797
G01 X2.8284 Y14.2404
G01 X2.4918 Y14.4727
G01 X2.1362 Y14.6748
G01 X1.7643 Y14.8450
G01 X1.3790 Y14.9823
G01 X0.9832 Y15.0854
G01 X0.5799 Y15.1536
G01 X0.1722 Y15.1865
G01 X-0.2367 Y15.1836
G01 X-0.6439 Y15.1452
G01 X-1.0462 Y15.0714
G01 X-1.4406 Y14.9628
G01 X-1.8239 Y14.8202
G01 X-2.1934 Y14.6448
G01 X-2.5462 Y14.4379
G01 X-2.8796 Y14.2010
G01 X-3.1911 Y13.9359
G01 X-3.4783 Y13.6447
G01 X-3.7390 Y13.3296
G01 X-3.9713 Y12.9929
G01 X-4.1733 Y12.6373
G01 X-4.3436 Y12.2655
G01 X-4.4808 Y11.8802
G01 X-4.5840 Y11.4844
G01 X-4.6522 Y11.0811
G01 X-4.6850 Y10.6734
G01 X-4.6822 Y10.2644
G01 X-4.6437 Y9.8572
G01 X-4.5699 Y9.4550
G01 X-4.4614 Y9.0606
G01 X-4.3188 Y8.6773
G01 X-4.1434 Y8.3078
G01 X-3.9365 Y7.9550
G01 X-3.6996 Y7.6216
G01 X-3.4345 Y7.3101
G01 X-3.1433 Y7.0229
G01 X-2.8282 Y6.7622
G01 X-2.4915 Y6.5299
G01 X-2.1359 Y6.3279
G01 X-1.7640 Y6.1576
G01 X-1.3787 Y6.0203
G01 X-0.9830 Y5.9172
G01 X-0.5797 Y5.8490
G00 Z5.0000
G00 X-0.2161 Y-5.2532
G00 Z-5.5000
G01 Z-6.0000 F300
G01 X-0.1937 Y-5.8170 F762
G01 X-0.6012 Y-5.8517
G01 X-1.0042 Y-5.9218
G01 X-1.3995 Y-6.0268
G01 X-1.7841 Y-6.1658
G01 X-2.1552 Y-6.3378
G01 X-2.5099 Y-6.5415
G01 X-2.8454 Y-6.7753
G01 X-3.1594 Y-7.0375
G01 X-3.4492 Y-7.3260
G01 X-3.7129 Y-7.6387
G01 X-3.9482 Y-7.9732
G01 X-4.1535 Y-8.3270
G01 X-4.3272 Y-8.6972
G01 X-4.4680 Y-9.0813
G01 X-4.5748 Y-9.4761
G01 X-4.6467 Y-9.8787
G01 X-4.6833 Y-10.2861
G01 X-4.6842 Y-10.6951
G01 X-4.6495 Y-11.1026
G01 X-4.5794 Y-11.5056
G01 X-4.4745 Y-11.9009
G01 X-4.3355 Y-12.2855
G01 X-4.1634 Y-12.6566
G01 X-3.9598 Y-13.0113
G01 X-3.7259 Y-13.3468
G01 X-3.4637 Y-13.6608
G01 X-3.1752 Y-13.9506
G01 X-2.8625 Y-14.2143
G01 X-2.5280 Y-14.4496
G01 X-2.1743 Y-14.6549
G01 X-1.8040 Y-14.8286
G01 X-1.4200 Y-14.9694
G01 X-1.0251 Y-15.0762
G01 X-0.6225 Y-15.1481
G01 X-0.2151 Y-15.1847
G01 X0.1939 Y-15.1856
G01 X0.6014 Y-15.1509
G01 X1.0043 Y-15.0808
G01 X1.3996 Y-14.9759
G01 X1.7843 Y-14.8369
G01 X2.1554 Y-14.6648
G01 X2.5101 Y-14.4612
G01 X2.8456 Y-14.2273
G01 X3.1595 Y-13.9651
G01 X3.4494 Y-13.6766
G01 X3.7130 Y-13.3639
G01 X3.9484 Y-13.0294
G01 X4.1537 Y-12.6757
G01 X4.3274 Y-12.3054
G01 X4.4682 Y-11.9214
G01 X4.5749 Y-11.5265
G01 X4.6469 Y-11.1239
G01 X4.6835 Y-10.7165
G01 X4.6844 Y-10.3075
G01 X4.6497 Y-9.9000
G01 X4.5796 Y-9.4971
G01 X4.4746 Y-9.1018
G01 X4.3356 Y-8.7171
G01 X4.1636 Y-8.3460
G01 X3.9599 Y-7.9913
G01 X3.7261 Y-7.6558
G01 X3.4639 Y-7.3419
G01 X3.1754 Y-7.0520
G01 X2.8627 Y-6.7884
G01 X2.5282 Y-6.5530
G01 X2.1744 Y-6.3477
G01 X1.8042 Y-6.1740
G01 X1.4201 Y-6.0332
G01 X1.0253 Y-5.9265
G01 X0.6227 Y-5.8545
G01 X0.2153 Y-5.8179
G01 X-0.1937 Y-5.8170
G00 Z5.0000
G00 X-1.5259 Y-5.2482
G00 Z-5.5000
G01 Z-6.0000 F300
G01 X-2.0467 Y-5.0516 F762
G01 X-1.8983 Y-4.6483
G01 X-1.7632 Y-4.2404
G01 X-1.6414 Y-3.8282
G01 X-1.5331 Y-3.4123
G01 X-1.4385 Y-2.9931
G01 X-1.3576 Y-2.5711
G01 X-1.2904 Y-2.1466
G01 X-1.2372 Y-1.7201
G01 X-1.1723 Y-1.1600
G01 X-1.1318 Y-0.5976
G01 X-1.1158 Y-0.0340
G01 X-1.1243 Y0.5298
G01 X-1.1573 Y1.0927
G01 X-1.2148 Y1.6536
G01 X-1.2967 Y2.2115
G01 X-1.4027 Y2.7653
G01 X-1.4861 Y3.2622
G01 X-1.5987 Y3.7534
G01 X-1.7401 Y4.2370
G01 X-1.9098 Y4.7115
G01 X-2.1072 Y5.1751
G01 X-2.3316 Y5.6263
G01 X-2.5823 Y6.0634
G01 X-2.8583 Y6.4850
G01 X-3.0823 Y6.7798
G01 X-3.3135 Y7.0690
G01 X-3.5516 Y7.3524
G01 X-3.7967 Y7.6300
G01 X-4.0119 Y7.9394
G01 X-4.2019 Y8.2649
G01 X-4.3656 Y8.6044
G01 X-4.5020 Y8.9559
G01 X-4.6100 Y9.3170
G01 X-4.6892 Y9.6855
G01 X-4.7389 Y10.0591
G01 X-4.7590 Y10.4355
G01 X-4.7491 Y10.8123
G01 X-4.7095 Y11.1872
G01 X-4.6404 Y11.5577
G01 X-4.5421 Y11.9216
G01 X-4.4154 Y12.2766
G01 X-4.2610 Y12.6204
G01 X-4.0798 Y12.9509
G01 X-3.8731 Y13.2661
G01 X-3.6420 Y13.5639
G01 X-3.3881 Y13.8425
G01 X-3.1130 Y14.1002
G01 X-2.8183 Y14.3352
G01 X-2.5060 Y14.5462
G01 X-2.1779 Y14.7318
G01 X-1.8362 Y14.8909
G01 X-1.4830 Y15.0225
G01 X-1.1205 Y15.1256
G01 X-0.7509 Y15.1998
G01 X-0.3766 Y15.2445
G01 X0.0000 Y15.2594
G01 X0.3766 Y15.2445
G01 X0.7509 Y15.1998
G01 X1.1205 Y15.1256
G01 X1.4830 Y15.0225
G01 X1.8362 Y14.8909
G01 X2.1779 Y14.7318
G01 X2.5060 Y14.5462
G01 X2.8183 Y14.3352
G01 X3.1130 Y14.1002
G01 X3.3881 Y13.8425
G01 X3.6420 Y13.5639
G01 X3.8731 Y13.2661
G01 X4.0590 Y12.9834
G01 X4.2246 Y12.6883
G01 X4.3689 Y12.3822
G01 X4.4912 Y12.0667
G01 X4.5910 Y11.7433
G01 X4.6677 Y11.4137
G01 X4.7209 Y11.0795
G01 X4.7503 Y10.7424
G01 X4.7559 Y10.4040
G01 X4.7376 Y10.0661
G01 X4.6954 Y9.7303
G01 X4.6297 Y9.3984
G01 X4.5407 Y9.0719
G01 X4.4288 Y8.7525
G01 X4.2947 Y8.4418
G01 X4.1389 Y8.1414
G01 X3.9624 Y7.8527
G01 X3.7659 Y7.5772
G01 X3.5504 Y7.3163
G01 X3.3170 Y7.0712
G01 X3.0736 Y6.7724
G01 X2.8443 Y6.4626
G01 X2.6299 Y6.1423
G01 X2.4306 Y5.8123
G01 X2.2471 Y5.4734
G01 X2.0796 Y5.1262
G01 X1.9286 Y4.7716
G01 X1.7943 Y4.4103
G01 X1.6771 Y4.0431
G01 X1.5772 Y3.6709
G01 X1.4949 Y3.2943
G01 X1.4303 Y2.9143
G01 X1.3494 Y2.4943
G01 X1.2804 Y2.0722
G01 X1.2234 Y1.6482
G01 X1.1784 Y1.2229
G01 X1.1456 Y0.7964
G01 X1.1248 Y0.3691
G01 X1.1162 Y-0.0585
G01 X1.1198 Y-0.4863
G01 X1.1576 Y-1.0115
G01 X1.2117 Y-1.5352
G01 X1.2821 Y-2.0571
G01 X1.3688 Y-2.5764
G01 X1.4716 Y-3.0929
G01 X1.5904 Y-3.6058
G01 X1.7251 Y-4.1149
G01 X1.8757 Y-4.6194
G01 X2.0277 Y-5.0029
G01 X2.1992 Y-5.3780
G01 X2.3899 Y-5.7437
G01 X2.5992 Y-6.0992
G01 X2.8265 Y-6.4433
G01 X3.0713 Y-6.7753
G01 X3.3328 Y-7.0943
G01 X3.6105 Y-7.3993
G01 X3.8690 Y-7.7285
G01 X4.0976 Y-8.0793
G01 X4.2945 Y-8.4487
G01 X4.4582 Y-8.8340
G01 X4.5873 Y-9.2323
G01 X4.6810 Y-9.6403
G01 X4.7384 Y-10.0550
G01 X4.7592 Y-10.4731
G01 X4.7432 Y-10.8914
G01 X4.6905 Y-11.3067
G01 X4.6014 Y-11.7158
G01 X4.4768 Y-12.1154
G01 X4.3175 Y-12.5026
G01 X4.1249 Y-12.8743
G01 X3.9003 Y-13.2276
G01 X3.6455 Y-13.5597
G01 X3.3625 Y-13.8683
G01 X3.0535 Y-14.1507
G01 X2.7209 Y-14.4049
G01 X2.3673 Y-14.6289
G01 X1.9953 Y-14.8210
G01 X1.6078 Y-14.9796
G01 X1.2080 Y-15.1036
G01 X0.7988 Y-15.1919
G01 X0.3834 Y-15.2440
G01 X-0.0350 Y-15.2593
G01 X-0.4531 Y-15.2378
G01 X-0.8677 Y-15.1797
G01 X-1.2755 Y-15.0853
G01 X-1.6735 Y-14.9555
G01 X-2.0586 Y-14.7912
G01 X-2.4277 Y-14.5937
G01 X-2.7780 Y-14.3645
G01 X-3.1069 Y-14.1055
G01 X-3.4117 Y-13.8185
G01 X-3.6901 Y-13.5058
G01 X-3.9024 Y-13.2232
G01 X-4.0932 Y-12.9256
G01 X-4.2615 Y-12.6147
G01 X-4.4064 Y-12.2923
G01 X-4.5271 Y-11.9601
G01 X-4.6230 Y-11.6198
G01 X-4.6935 Y-11.2734
G01 X-4.7382 Y-10.9227
G01 X-4.7569 Y-10.5697
G01 X-4.7495 Y-10.2163
G01 X-4.7160 Y-9.8644
G01 X-4.6566 Y-9.5159
G01 X-4.5717 Y-9.1728
G01 X-4.4616 Y-8.8368
G01 X-4.3271 Y-8.5099
G01 X-4.1688 Y-8.1939
G01 X-3.9876 Y-7.8903
G01 X-3.7845 Y-7.6010
G01 X-3.5605 Y-7.3275
G01 X-3.3170 Y-7.0712
G01 X-3.1256 Y-6.8411
G01 X-2.9429 Y-6.6039
G01 X-2.7694 Y-6.3600
G01 X-2.6053 Y-6.1096
G01 X-2.4507 Y-5.8532
G01 X-2.3060 Y-5.5912
G01 X-2.1712 Y-5.3239
G01 X-2.0467 Y-5.0516
G00 Z5.0000
G00 X0.0000 Y0.0000

M05
M30
