(Project hex)
(Created by Estlcam version 11 build 11.245)
(Machining time about 00:00:53 hours)

(Required tools:)
(1/16")
G21
G90
G94
M03 S24000
G00 Z5.0000


(No. 1: Hole 1)
G00 X-7.3036 Y-4.1738
G00 Z0.5000
G01 Z0.0000 F300 S24000
G01 Z-1.0000
G01 X7.3081 F762
G01 X6.6196 Y-2.9813
G01 X-6.6166
G01 X-5.9295 Y-1.7888
G01 X5.9312
G01 X5.2427 Y-0.5963
G01 X-5.2425
G01 Y0.5963
G01 X5.2425
G01 X5.9295 Y1.7888
G01 X-5.9312
G01 X-6.6196 Y2.9813
G01 X6.6166
G01 X7.3036 Y4.1738
G01 X-7.3081
G01 X-1.8002
G01 Y5.3663
G01 X1.7994
G01 X1.1095 Y6.5588
G01 X-1.1117
G01 X-0.4232 Y7.7513
G01 X0.4195
G00 Z5.0000
G00 X1.8002 Y-4.1738
G00 Z0.5000
G01 Z-1.0000 F300
G01 Y-5.3663 F762
G01 X-1.7994
G01 X-1.1095 Y-6.5588
G01 X1.1117
G01 X0.4232 Y-7.7513
G01 X-0.4195
G01 X-0.5640 Y-7.8254
G01 X-2.3115 Y-4.7987
G01 X-2.3333 Y-4.7632
G01 X-2.3568 Y-4.7289
G01 X-2.3822 Y-4.6958
G01 X-2.4092 Y-4.6642
G01 X-2.4379 Y-4.6340
G01 X-2.4680 Y-4.6054
G01 X-2.4997 Y-4.5783
G01 X-2.5327 Y-4.5530
G01 X-2.5670 Y-4.5294
G01 X-2.6025 Y-4.5077
G01 X-2.6391 Y-4.4878
G01 X-2.6766 Y-4.4699
G01 X-2.7151 Y-4.4540
G01 X-2.7543 Y-4.4401
G01 X-2.7942 Y-4.4282
G01 X-2.8347 Y-4.4185
G01 X-2.8756 Y-4.4109
G01 X-2.9169 Y-4.4055
G01 X-2.9584 Y-4.4022
G01 X-3.0000 Y-4.4012
G01 X-7.6126
G01 X-7.6228 Y-4.4013
G01 X-7.6178 Y-4.3921
G01 X-5.3115 Y-0.3975
G01 X-5.2916 Y-0.3609
G01 X-5.2737 Y-0.3234
G01 X-5.2578 Y-0.2849
G01 X-5.2439 Y-0.2457
G01 X-5.2321 Y-0.2058
G01 X-5.2224 Y-0.1653
G01 X-5.2148 Y-0.1244
G01 X-5.2094 Y-0.0831
G01 X-5.2061 Y-0.0416
G01 X-5.2050 Y0.0000
G01 X-5.2061 Y0.0416
G01 X-5.2094 Y0.0831
G01 X-5.2148 Y0.1244
G01 X-5.2224 Y0.1653
G01 X-5.2321 Y0.2058
G01 X-5.2439 Y0.2457
G01 X-5.2578 Y0.2849
G01 X-5.2737 Y0.3234
G01 X-5.2916 Y0.3609
G01 X-5.3115 Y0.3975
G01 X-7.6178 Y4.3921
G01 X-7.6230 Y4.4009
G01 X-7.6126 Y4.4012
G01 X-3.0000
G01 X-2.9584 Y4.4022
G01 X-2.9169 Y4.4055
G01 X-2.8756 Y4.4109
G01 X-2.8347 Y4.4185
G01 X-2.7942 Y4.4282
G01 X-2.7543 Y4.4401
G01 X-2.7151 Y4.4540
G01 X-2.6766 Y4.4699
G01 X-2.6391 Y4.4878
G01 X-2.6025 Y4.5077
G01 X-2.5670 Y4.5294
G01 X-2.5327 Y4.5530
G01 X-2.4997 Y4.5783
G01 X-2.4680 Y4.6054
G01 X-2.4379 Y4.6340
G01 X-2.4092 Y4.6642
G01 X-2.3822 Y4.6958
G01 X-2.3568 Y4.7289
G01 X-2.3333 Y4.7632
G01 X-2.3115 Y4.7987
G01 X-0.0052 Y8.7933
G01 X-0.0002 Y8.8022
G01 X0.0052 Y8.7933
G01 X2.3115 Y4.7987
G01 X2.3333 Y4.7632
G01 X2.3568 Y4.7289
G01 X2.3822 Y4.6958
G01 X2.4092 Y4.6642
G01 X2.4379 Y4.6340
G01 X2.4680 Y4.6054
G01 X2.4997 Y4.5783
G01 X2.5327 Y4.5530
G01 X2.5670 Y4.5294
G01 X2.6025 Y4.5077
G01 X2.6391 Y4.4878
G01 X2.6766 Y4.4699
G01 X2.7151 Y4.4540
G01 X2.7543 Y4.4401
G01 X2.7942 Y4.4282
G01 X2.8347 Y4.4185
G01 X2.8756 Y4.4109
G01 X2.9169 Y4.4055
G01 X2.9584 Y4.4022
G01 X3.0000 Y4.4012
G01 X7.6126
G01 X7.6228 Y4.4013
G01 X7.6178 Y4.3921
G01 X5.3115 Y0.3975
G01 X5.2916 Y0.3609
G01 X5.2737 Y0.3234
G01 X5.2578 Y0.2849
G01 X5.2439 Y0.2457
G01 X5.2321 Y0.2058
G01 X5.2224 Y0.1653
G01 X5.2148 Y0.1244
G01 X5.2094 Y0.0831
G01 X5.2061 Y0.0416
G01 X5.2050 Y0.0000
G01 X5.2061 Y-0.0416
G01 X5.2094 Y-0.0831
G01 X5.2148 Y-0.1244
G01 X5.2224 Y-0.1653
G01 X5.2321 Y-0.2058
G01 X5.2439 Y-0.2457
G01 X5.2578 Y-0.2849
G01 X5.2737 Y-0.3234
G01 X5.2916 Y-0.3609
G01 X5.3115 Y-0.3975
G01 X7.6178 Y-4.3921
G01 X7.6230 Y-4.4009
G01 X7.6126 Y-4.4012
G01 X3.0000
G01 X2.9584 Y-4.4022
G01 X2.9169 Y-4.4055
G01 X2.8756 Y-4.4109
G01 X2.8347 Y-4.4185
G01 X2.7942 Y-4.4282
G01 X2.7543 Y-4.4401
G01 X2.7151 Y-4.4540
G01 X2.6766 Y-4.4699
G01 X2.6391 Y-4.4878
G01 X2.6025 Y-4.5077
G01 X2.5670 Y-4.5294
G01 X2.5327 Y-4.5530
G01 X2.4997 Y-4.5783
G01 X2.4680 Y-4.6054
G01 X2.4379 Y-4.6340
G01 X2.4092 Y-4.6642
G01 X2.3822 Y-4.6958
G01 X2.3568 Y-4.7289
G01 X2.3333 Y-4.7632
G01 X2.3115 Y-4.7987
G01 X0.0052 Y-8.7933
G01 X0.0002 Y-8.8022
G01 X-0.0052 Y-8.7933
G01 X-0.5640 Y-7.8254
G01 X-0.4195 Y-7.7513
G01 Z-2.0000 F300
G01 X0.4232 F762
G01 X1.1117 Y-6.5588
G01 X-1.1095
G01 X-1.7994 Y-5.3663
G01 X1.8002
G01 Y-4.1738
G01 X7.3081
G01 X-7.3036
G01 X-6.6166 Y-2.9813
G01 X6.6196
G01 X5.9312 Y-1.7888
G01 X-5.9295
G01 X-5.2425 Y-0.5963
G01 X5.2427
G01 X5.2425 Y0.5963
G01 X-5.2427
G01 X-5.9312 Y1.7888
G01 X5.9295
G01 X6.6166 Y2.9813
G01 X-6.6196
G01 X-7.3081 Y4.1738
G01 X7.3036
G01 X1.7994
G01 Y5.3663
G01 X-1.8002
G01 X-1.1117 Y6.5588
G01 X1.1095
G01 X0.4195 Y7.7513
G01 X-0.4232
G01 X-0.5648 Y7.8241
G01 X-0.0052 Y8.7933
G01 X-0.0002 Y8.8022
G01 X0.0052 Y8.7933
G01 X2.3115 Y4.7987
G01 X2.3333 Y4.7632
G01 X2.3568 Y4.7289
G01 X2.3822 Y4.6958
G01 X2.4092 Y4.6642
G01 X2.4379 Y4.6340
G01 X2.4680 Y4.6054
G01 X2.4997 Y4.5783
G01 X2.5327 Y4.5530
G01 X2.5670 Y4.5294
G01 X2.6025 Y4.5077
G01 X2.6391 Y4.4878
G01 X2.6766 Y4.4699
G01 X2.7151 Y4.4540
G01 X2.7543 Y4.4401
G01 X2.7942 Y4.4282
G01 X2.8347 Y4.4185
G01 X2.8756 Y4.4109
G01 X2.9169 Y4.4055
G01 X2.9584 Y4.4022
G01 X3.0000 Y4.4012
G01 X7.6126
G01 X7.6228 Y4.4013
G01 X7.6178 Y4.3921
G01 X5.3115 Y0.3975
G01 X5.2916 Y0.3609
G01 X5.2737 Y0.3234
G01 X5.2578 Y0.2849
G01 X5.2439 Y0.2457
G01 X5.2321 Y0.2058
G01 X5.2224 Y0.1653
G01 X5.2148 Y0.1244
G01 X5.2094 Y0.0831
G01 X5.2061 Y0.0416
G01 X5.2050 Y0.0000
G01 X5.2061 Y-0.0416
G01 X5.2094 Y-0.0831
G01 X5.2148 Y-0.1244
G01 X5.2224 Y-0.1653
G01 X5.2321 Y-0.2058
G01 X5.2439 Y-0.2457
G01 X5.2578 Y-0.2849
G01 X5.2737 Y-0.3234
G01 X5.2916 Y-0.3609
G01 X5.3115 Y-0.3975
G01 X7.6178 Y-4.3921
G01 X7.6230 Y-4.4009
G01 X7.6126 Y-4.4012
G01 X3.0000
G01 X2.9584 Y-4.4022
G01 X2.9169 Y-4.4055
G01 X2.8756 Y-4.4109
G01 X2.8347 Y-4.4185
G01 X2.7942 Y-4.4282
G01 X2.7543 Y-4.4401
G01 X2.7151 Y-4.4540
G01 X2.6766 Y-4.4699
G01 X2.6391 Y-4.4878
G01 X2.6025 Y-4.5077
G01 X2.5670 Y-4.5294
G01 X2.5327 Y-4.5530
G01 X2.4997 Y-4.5783
G01 X2.4680 Y-4.6054
G01 X2.4379 Y-4.6340
G01 X2.4092 Y-4.6642
G01 X2.3822 Y-4.6958
G01 X2.3568 Y-4.7289
G01 X2.3333 Y-4.7632
G01 X2.3115 Y-4.7987
G01 X0.0052 Y-8.7933
G01 X0.0002 Y-8.8022
G01 X-0.0052 Y-8.7933
G01 X-2.3115 Y-4.7987
G01 X-2.3333 Y-4.7632
G01 X-2.3568 Y-4.7289
G01 X-2.3822 Y-4.6958
G01 X-2.4092 Y-4.6642
G01 X-2.4379 Y-4.6340
G01 X-2.4680 Y-4.6054
G01 X-2.4997 Y-4.5783
G01 X-2.5327 Y-4.5530
G01 X-2.5670 Y-4.5294
G01 X-2.6025 Y-4.5077
G01 X-2.6391 Y-4.4878
G01 X-2.6766 Y-4.4699
G01 X-2.7151 Y-4.4540
G01 X-2.7543 Y-4.4401
G01 X-2.7942 Y-4.4282
G01 X-2.8347 Y-4.4185
G01 X-2.8756 Y-4.4109
G01 X-2.9169 Y-4.4055
G01 X-2.9584 Y-4.4022
G01 X-3.0000 Y-4.4012
G01 X-7.6126
G01 X-7.6228 Y-4.4013
G01 X-7.6178 Y-4.3921
G01 X-5.3115 Y-0.3975
G01 X-5.2916 Y-0.3609
G01 X-5.2737 Y-0.3234
G01 X-5.2578 Y-0.2849
G01 X-5.2439 Y-0.2457
G01 X-5.2321 Y-0.2058
G01 X-5.2224 Y-0.1653
G01 X-5.2148 Y-0.1244
G01 X-5.2094 Y-0.0831
G01 X-5.2061 Y-0.0416
G01 X-5.2050 Y0.0000
G01 X-5.2061 Y0.0416
G01 X-5.2094 Y0.0831
G01 X-5.2148 Y0.1244
G01 X-5.2224 Y0.1653
G01 X-5.2321 Y0.2058
G01 X-5.2439 Y0.2457
G01 X-5.2578 Y0.2849
G01 X-5.2737 Y0.3234
G01 X-5.2916 Y0.3609
G01 X-5.3115 Y0.3975
G01 X-7.6178 Y4.3921
G01 X-7.6230 Y4.4009
G01 X-7.6126 Y4.4012
G01 X-3.0000
G01 X-2.9584 Y4.4022
G01 X-2.9169 Y4.4055
G01 X-2.8756 Y4.4109
G01 X-2.8347 Y4.4185
G01 X-2.7942 Y4.4282
G01 X-2.7543 Y4.4401
G01 X-2.7151 Y4.4540
G01 X-2.6766 Y4.4699
G01 X-2.6391 Y4.4878
G01 X-2.6025 Y4.5077
G01 X-2.5670 Y4.5294
G01 X-2.5327 Y4.5530
G01 X-2.4997 Y4.5783
G01 X-2.4680 Y4.6054
G01 X-2.4379 Y4.6340
G01 X-2.4092 Y4.6642
G01 X-2.3822 Y4.6958
G01 X-2.3568 Y4.7289
G01 X-2.3333 Y4.7632
G01 X-2.3115 Y4.7987
G01 X-0.5648 Y7.8241
G01 X-0.4232 Y7.7513
G01 Z-3.0000 F300
G01 X0.4195 F762
G01 X1.1095 Y6.5588
G01 X-1.1117
G01 X-1.8002 Y5.3663
G01 X1.7994
G01 Y4.1738
G01 X7.3036
G01 X-7.3081
G01 X-6.6196 Y2.9813
G01 X6.6166
G01 X5.9295 Y1.7888
G01 X-5.9312
G01 X-5.2427 Y0.5963
G01 X5.2425
G01 Y-0.5963
G01 X-5.2425
G01 X-5.9295 Y-1.7888
G01 X5.9312
G01 X6.6196 Y-2.9813
G01 X-6.6166
G01 X-7.3036 Y-4.1738
G01 X7.3081
G01 X1.8002
G01 Y-5.3663
G01 X-1.7994
G01 X-1.1095 Y-6.5588
G01 X1.1117
G01 X0.4232 Y-7.7513
G01 X-0.4195
G01 X-0.5640 Y-7.8254
G01 X-2.3115 Y-4.7987
G01 X-2.3333 Y-4.7632
G01 X-2.3568 Y-4.7289
G01 X-2.3822 Y-4.6958
G01 X-2.4092 Y-4.6642
G01 X-2.4379 Y-4.6340
G01 X-2.4680 Y-4.6054
G01 X-2.4997 Y-4.5783
G01 X-2.5327 Y-4.5530
G01 X-2.5670 Y-4.5294
G01 X-2.6025 Y-4.5077
G01 X-2.6391 Y-4.4878
G01 X-2.6766 Y-4.4699
G01 X-2.7151 Y-4.4540
G01 X-2.7543 Y-4.4401
G01 X-2.7942 Y-4.4282
G01 X-2.8347 Y-4.4185
G01 X-2.8756 Y-4.4109
G01 X-2.9169 Y-4.4055
G01 X-2.9584 Y-4.4022
G01 X-3.0000 Y-4.4012
G01 X-7.6126
G01 X-7.6228 Y-4.4013
G01 X-7.6178 Y-4.3921
G01 X-5.3115 Y-0.3975
G01 X-5.2916 Y-0.3609
G01 X-5.2737 Y-0.3234
G01 X-5.2578 Y-0.2849
G01 X-5.2439 Y-0.2457
G01 X-5.2321 Y-0.2058
G01 X-5.2224 Y-0.1653
G01 X-5.2148 Y-0.1244
G01 X-5.2094 Y-0.0831
G01 X-5.2061 Y-0.0416
G01 X-5.2050 Y0.0000
G01 X-5.2061 Y0.0416
G01 X-5.2094 Y0.0831
G01 X-5.2148 Y0.1244
G01 X-5.2224 Y0.1653
G01 X-5.2321 Y0.2058
G01 X-5.2439 Y0.2457
G01 X-5.2578 Y0.2849
G01 X-5.2737 Y0.3234
G01 X-5.2916 Y0.3609
G01 X-5.3115 Y0.3975
G01 X-7.6178 Y4.3921
G01 X-7.6230 Y4.4009
G01 X-7.6126 Y4.4012
G01 X-3.0000
G01 X-2.9584 Y4.4022
G01 X-2.9169 Y4.4055
G01 X-2.8756 Y4.4109
G01 X-2.8347 Y4.4185
G01 X-2.7942 Y4.4282
G01 X-2.7543 Y4.4401
G01 X-2.7151 Y4.4540
G01 X-2.6766 Y4.4699
G01 X-2.6391 Y4.4878
G01 X-2.6025 Y4.5077
G01 X-2.5670 Y4.5294
G01 X-2.5327 Y4.5530
G01 X-2.4997 Y4.5783
G01 X-2.4680 Y4.6054
G01 X-2.4379 Y4.6340
G01 X-2.4092 Y4.6642
G01 X-2.3822 Y4.6958
G01 X-2.3568 Y4.7289
G01 X-2.3333 Y4.7632
G01 X-2.3115 Y4.7987
G01 X-0.0052 Y8.7933
G01 X-0.0002 Y8.8022
G01 X0.0052 Y8.7933
G01 X2.3115 Y4.7987
G01 X2.3333 Y4.7632
G01 X2.3568 Y4.7289
G01 X2.3822 Y4.6958
G01 X2.4092 Y4.6642
G01 X2.4379 Y4.6340
G01 X2.4680 Y4.6054
G01 X2.4997 Y4.5783
G01 X2.5327 Y4.5530
G01 X2.5670 Y4.5294
G01 X2.6025 Y4.5077
G01 X2.6391 Y4.4878
G01 X2.6766 Y4.4699
G01 X2.7151 Y4.4540
G01 X2.7543 Y4.4401
G01 X2.7942 Y4.4282
G01 X2.8347 Y4.4185
G01 X2.8756 Y4.4109
G01 X2.9169 Y4.4055
G01 X2.9584 Y4.4022
G01 X3.0000 Y4.4012
G01 X7.6126
G01 X7.6228 Y4.4013
G01 X7.6178 Y4.3921
G01 X5.3115 Y0.3975
G01 X5.2916 Y0.3609
G01 X5.2737 Y0.3234
G01 X5.2578 Y0.2849
G01 X5.2439 Y0.2457
G01 X5.2321 Y0.2058
G01 X5.2224 Y0.1653
G01 X5.2148 Y0.1244
G01 X5.2094 Y0.0831
G01 X5.2061 Y0.0416
G01 X5.2050 Y0.0000
G01 X5.2061 Y-0.0416
G01 X5.2094 Y-0.0831
G01 X5.2148 Y-0.1244
G01 X5.2224 Y-0.1653
G01 X5.2321 Y-0.2058
G01 X5.2439 Y-0.2457
G01 X5.2578 Y-0.2849
G01 X5.2737 Y-0.3234
G01 X5.2916 Y-0.3609
G01 X5.3115 Y-0.3975
G01 X7.6178 Y-4.3921
G01 X7.6230 Y-4.4009
G01 X7.6126 Y-4.4012
G01 X3.0000
G01 X2.9584 Y-4.4022
G01 X2.9169 Y-4.4055
G01 X2.8756 Y-4.4109
G01 X2.8347 Y-4.4185
G01 X2.7942 Y-4.4282
G01 X2.7543 Y-4.4401
G01 X2.7151 Y-4.4540
G01 X2.6766 Y-4.4699
G01 X2.6391 Y-4.4878
G01 X2.6025 Y-4.5077
G01 X2.5670 Y-4.5294
G01 X2.5327 Y-4.5530
G01 X2.4997 Y-4.5783
G01 X2.4680 Y-4.6054
G01 X2.4379 Y-4.6340
G01 X2.4092 Y-4.6642
G01 X2.3822 Y-4.6958
G01 X2.3568 Y-4.7289
G01 X2.3333 Y-4.7632
G01 X2.3115 Y-4.7987
G01 X0.0052 Y-8.7933
G01 X0.0002 Y-8.8022
G01 X-0.0052 Y-8.7933
G01 X-0.5640 Y-7.8254
G01 X-0.4195 Y-7.7513
G00 Z5.0000
G00 X0.0000 Y0.0000

M05
M30
