(Project int-angle-pewa)
(Created by Estlcam version 11 build 11.245)
(Machining time about 00:01:02 hours)

(Required tools:)
(5/32")
G21
G90
G94
M03 S24000
G00 Z5.0000


(No. 1: Hole 1)
G00 X-1.0720 Y-7.1400
G00 Z0.5000
G01 Z0.0000 F300 S24000
G01 Z-1.0000
G01 X6.0511 F762
G01 X4.7177 Y-5.3550
G01 X-1.0720
G01 Y-3.5700
G01 X3.3843
G01 X2.0510 Y-1.7850
G01 X-1.0720
G01 Y0.0000
G01 X1.0720
G01 Y1.7850
G01 X-2.0510
G01 X-3.3846 Y3.5700
G01 X1.0720
G01 Y5.3550
G01 X-4.7181
G01 X-6.0516 Y7.1400
G01 X1.0720
G01 X1.3100 Y7.1271
G01 Y0.0000
G01 X1.3138 Y-0.0953
G01 X1.3253 Y-0.1901
G01 X1.3443 Y-0.2836
G01 X1.3707 Y-0.3753
G01 X1.4044 Y-0.4645
G01 X1.4451 Y-0.5508
G01 X1.4927 Y-0.6335
G01 X1.5467 Y-0.7122
G01 X7.5908 Y-8.8100
G01 X0.0100
G01 X-1.3100
G01 Y0.0000
G01 X-1.3138 Y0.0953
G01 X-1.3253 Y0.1901
G01 X-1.3443 Y0.2836
G01 X-1.3707 Y0.3753
G01 X-1.4044 Y0.4645
G01 X-1.4451 Y0.5508
G01 X-1.4927 Y0.6335
G01 X-1.5467 Y0.7122
G01 X-7.5963 Y8.8100
G01 X1.3100
G01 Y7.1271
G01 X1.0720 Y7.1400
G01 Z-2.0000 F300
G01 X-6.0516 F762
G01 X-4.7181 Y5.3550
G01 X1.0720
G01 Y3.5700
G01 X-3.3846
G01 X-2.0510 Y1.7850
G01 X1.0720
G01 Y0.0000
G01 X-1.0720
G01 Y-1.7850
G01 X2.0510
G01 X3.3843 Y-3.5700
G01 X-1.0720
G01 Y-5.3550
G01 X4.7177
G01 X6.0511 Y-7.1400
G01 X-1.0720
G01 X-1.3100 Y-7.1271
G01 Y0.0000
G01 X-1.3138 Y0.0953
G01 X-1.3253 Y0.1901
G01 X-1.3443 Y0.2836
G01 X-1.3707 Y0.3753
G01 X-1.4044 Y0.4645
G01 X-1.4451 Y0.5508
G01 X-1.4927 Y0.6335
G01 X-1.5467 Y0.7122
G01 X-7.5963 Y8.8100
G01 X1.3100
G01 Y0.0000
G01 X1.3138 Y-0.0953
G01 X1.3253 Y-0.1901
G01 X1.3443 Y-0.2836
G01 X1.3707 Y-0.3753
G01 X1.4044 Y-0.4645
G01 X1.4451 Y-0.5508
G01 X1.4927 Y-0.6335
G01 X1.5467 Y-0.7122
G01 X7.5908 Y-8.8100
G01 X0.0100
G01 X-1.3100
G01 Y-7.1271
G01 X-1.0720 Y-7.1400
G01 Z-3.0000 F300
G01 X6.0511 F762
G01 X4.7177 Y-5.3550
G01 X-1.0720
G01 Y-3.5700
G01 X3.3843
G01 X2.0510 Y-1.7850
G01 X-1.0720
G01 Y0.0000
G01 X1.0720
G01 Y1.7850
G01 X-2.0510
G01 X-3.3846 Y3.5700
G01 X1.0720
G01 Y5.3550
G01 X-4.7181
G01 X-6.0516 Y7.1400
G01 X1.0720
G01 X1.3100 Y7.1271
G01 Y0.0000
G01 X1.3138 Y-0.0953
G01 X1.3253 Y-0.1901
G01 X1.3443 Y-0.2836
G01 X1.3707 Y-0.3753
G01 X1.4044 Y-0.4645
G01 X1.4451 Y-0.5508
G01 X1.4927 Y-0.6335
G01 X1.5467 Y-0.7122
G01 X7.5908 Y-8.8100
G01 X0.0100
G01 X-1.3100
G01 Y0.0000
G01 X-1.3138 Y0.0953
G01 X-1.3253 Y0.1901
G01 X-1.3443 Y0.2836
G01 X-1.3707 Y0.3753
G01 X-1.4044 Y0.4645
G01 X-1.4451 Y0.5508
G01 X-1.4927 Y0.6335
G01 X-1.5467 Y0.7122
G01 X-7.5963 Y8.8100
G01 X1.3100
G01 Y7.1271
G01 X1.0720 Y7.1400
G01 Z-4.0000 F300
G01 X-6.0516 F762
G01 X-4.7181 Y5.3550
G01 X1.0720
G01 Y3.5700
G01 X-3.3846
G01 X-2.0510 Y1.7850
G01 X1.0720
G01 Y0.0000
G01 X-1.0720
G01 Y-1.7850
G01 X2.0510
G01 X3.3843 Y-3.5700
G01 X-1.0720
G01 Y-5.3550
G01 X4.7177
G01 X6.0511 Y-7.1400
G01 X-1.0720
G01 X-1.3100 Y-7.1271
G01 Y0.0000
G01 X-1.3138 Y0.0953
G01 X-1.3253 Y0.1901
G01 X-1.3443 Y0.2836
G01 X-1.3707 Y0.3753
G01 X-1.4044 Y0.4645
G01 X-1.4451 Y0.5508
G01 X-1.4927 Y0.6335
G01 X-1.5467 Y0.7122
G01 X-7.5963 Y8.8100
G01 X1.3100
G01 Y0.0000
G01 X1.3138 Y-0.0953
G01 X1.3253 Y-0.1901
G01 X1.3443 Y-0.2836
G01 X1.3707 Y-0.3753
G01 X1.4044 Y-0.4645
G01 X1.4451 Y-0.5508
G01 X1.4927 Y-0.6335
G01 X1.5467 Y-0.7122
G01 X7.5908 Y-8.8100
G01 X0.0100
G01 X-1.3100
G01 Y-7.1271
G01 X-1.0720 Y-7.1400
G01 Z-5.0000 F300
G01 X6.0511 F762
G01 X4.7177 Y-5.3550
G01 X-1.0720
G01 Y-3.5700
G01 X3.3843
G01 X2.0510 Y-1.7850
G01 X-1.0720
G01 Y0.0000
G01 X1.0720
G01 Y1.7850
G01 X-2.0510
G01 X-3.3846 Y3.5700
G01 X1.0720
G01 Y5.3550
G01 X-4.7181
G01 X-6.0516 Y7.1400
G01 X1.0720
G01 X1.3100 Y7.1271
G01 Y0.0000
G01 X1.3138 Y-0.0953
G01 X1.3253 Y-0.1901
G01 X1.3443 Y-0.2836
G01 X1.3707 Y-0.3753
G01 X1.4044 Y-0.4645
G01 X1.4451 Y-0.5508
G01 X1.4927 Y-0.6335
G01 X1.5467 Y-0.7122
G01 X7.5908 Y-8.8100
G01 X0.0100
G01 X-1.3100
G01 Y0.0000
G01 X-1.3138 Y0.0953
G01 X-1.3253 Y0.1901
G01 X-1.3443 Y0.2836
G01 X-1.3707 Y0.3753
G01 X-1.4044 Y0.4645
G01 X-1.4451 Y0.5508
G01 X-1.4927 Y0.6335
G01 X-1.5467 Y0.7122
G01 X-7.5963 Y8.8100
G01 X1.3100
G01 Y7.1271
G01 X1.0720 Y7.1400
G01 Z-6.0000 F300
G01 X-6.0516 F762
G01 X-4.7181 Y5.3550
G01 X1.0720
G01 Y3.5700
G01 X-3.3846
G01 X-2.0510 Y1.7850
G01 X1.0720
G01 Y0.0000
G01 X-1.0720
G01 Y-1.7850
G01 X2.0510
G01 X3.3843 Y-3.5700
G01 X-1.0720
G01 Y-5.3550
G01 X4.7177
G01 X6.0511 Y-7.1400
G01 X-1.0720
G01 X-1.3100 Y-7.1271
G01 Y0.0000
G01 X-1.3138 Y0.0953
G01 X-1.3253 Y0.1901
G01 X-1.3443 Y0.2836
G01 X-1.3707 Y0.3753
G01 X-1.4044 Y0.4645
G01 X-1.4451 Y0.5508
G01 X-1.4927 Y0.6335
G01 X-1.5467 Y0.7122
G01 X-7.5963 Y8.8100
G01 X1.3100
G01 Y0.0000
G01 X1.3138 Y-0.0953
G01 X1.3253 Y-0.1901
G01 X1.3443 Y-0.2836
G01 X1.3707 Y-0.3753
G01 X1.4044 Y-0.4645
G01 X1.4451 Y-0.5508
G01 X1.4927 Y-0.6335
G01 X1.5467 Y-0.7122
G01 X7.5908 Y-8.8100
G01 X0.0100
G01 X-1.3100
G01 Y-7.1271
G01 X-1.0720 Y-7.1400
G00 Z5.0000
G00 X0.0000 Y0.0000

M05
M30
