(Project int-pewa-radius)
(Created by Estlcam version 11 build 11.245)
(Machining time about 00:00:56 hours)

(Required tools:)
(5/32")
G21
G90
G94
M03 S24000
G00 Z5.0000


(No. 1: Hole 1)
G00 X-3.1201 Y-7.0996
G00 Z0.5000
G01 Z0.0000 F300 S24000
G01 Z-1.0000
G01 X3.1739 F762
G01 X2.5060 Y-5.3146
G01 X-2.4522
G01 X-1.7842 Y-3.5296
G01 X1.8381
G01 X1.1701 Y-1.7446
G01 X-1.1163
G01 X-0.5451 Y0.0404
G01 X0.5989
G01 X1.1701 Y1.8254
G01 X-1.1163
G01 X-1.7842 Y3.6104
G01 X1.8381
G01 X2.5060 Y5.3954
G01 X-2.4522
G01 X-3.1201 Y7.1804
G01 X3.1739
G01 X3.3974 Y7.0841
G01 X0.9127 Y0.4582
G01 X0.8897 Y0.3909
G01 X0.8708 Y0.3223
G01 X0.8560 Y0.2527
G01 X0.8454 Y0.1823
G01 X0.8390 Y0.1115
G01 X0.8369 Y0.0404
G01 X0.8390 Y-0.0307
G01 X0.8454 Y-0.1016
G01 X0.8560 Y-0.1720
G01 X0.8708 Y-0.2415
G01 X0.8897 Y-0.3101
G01 X0.9127 Y-0.3775
G01 X4.0524 Y-8.7500
G01 X4.0480 Y-8.7368
G01 X4.0529 Y-8.7724
G01 X4.0369
G01 X-3.9830
G01 X-3.9691 Y-8.7730
G01 X-4.0042 Y-8.7650
G01 X-3.9986 Y-8.7500
G01 X-0.8589 Y-0.3775
G01 X-0.8359 Y-0.3101
G01 X-0.8170 Y-0.2415
G01 X-0.8022 Y-0.1720
G01 X-0.7916 Y-0.1016
G01 X-0.7852 Y-0.0307
G01 X-0.7831 Y0.0404
G01 X-0.7852 Y0.1115
G01 X-0.7916 Y0.1823
G01 X-0.8022 Y0.2527
G01 X-0.8170 Y0.3223
G01 X-0.8359 Y0.3909
G01 X-0.8589 Y0.4582
G01 X-3.9986 Y8.8307
G01 X-3.9942 Y8.8175
G01 X-3.9991 Y8.8531
G01 X-3.9830
G01 X4.0369
G01 X4.0230 Y8.8537
G01 X4.0580 Y8.8458
G01 X4.0524 Y8.8307
G01 X3.3974 Y7.0841
G01 X3.1739 Y7.1804
G01 Z-2.0000 F300
G01 X-3.1201 F762
G01 X-2.4522 Y5.3954
G01 X2.5060
G01 X1.8381 Y3.6104
G01 X-1.7842
G01 X-1.1163 Y1.8254
G01 X1.1701
G01 X0.5989 Y0.0404
G01 X-0.5451
G01 X-1.1163 Y-1.7446
G01 X1.1701
G01 X1.8381 Y-3.5296
G01 X-1.7842
G01 X-2.4522 Y-5.3146
G01 X2.5060
G01 X3.1739 Y-7.0996
G01 X-3.1201
G01 X-3.3436 Y-7.0033
G01 X-0.8589 Y-0.3775
G01 X-0.8359 Y-0.3101
G01 X-0.8170 Y-0.2415
G01 X-0.8022 Y-0.1720
G01 X-0.7916 Y-0.1016
G01 X-0.7852 Y-0.0307
G01 X-0.7831 Y0.0404
G01 X-0.7852 Y0.1115
G01 X-0.7916 Y0.1823
G01 X-0.8022 Y0.2527
G01 X-0.8170 Y0.3223
G01 X-0.8359 Y0.3909
G01 X-0.8589 Y0.4582
G01 X-3.9986 Y8.8307
G01 X-3.9942 Y8.8175
G01 X-3.9991 Y8.8531
G01 X-3.9830
G01 X4.0369
G01 X4.0230 Y8.8537
G01 X4.0580 Y8.8458
G01 X4.0524 Y8.8307
G01 X0.9127 Y0.4582
G01 X0.8897 Y0.3909
G01 X0.8708 Y0.3223
G01 X0.8560 Y0.2527
G01 X0.8454 Y0.1823
G01 X0.8390 Y0.1115
G01 X0.8369 Y0.0404
G01 X0.8390 Y-0.0307
G01 X0.8454 Y-0.1016
G01 X0.8560 Y-0.1720
G01 X0.8708 Y-0.2415
G01 X0.8897 Y-0.3101
G01 X0.9127 Y-0.3775
G01 X4.0524 Y-8.7500
G01 X4.0480 Y-8.7368
G01 X4.0529 Y-8.7724
G01 X4.0369
G01 X-3.9830
G01 X-3.9691 Y-8.7730
G01 X-4.0042 Y-8.7650
G01 X-3.9986 Y-8.7500
G01 X-3.3436 Y-7.0033
G01 X-3.1201 Y-7.0996
G01 Z-3.0000 F300
G01 X3.1739 F762
G01 X2.5060 Y-5.3146
G01 X-2.4522
G01 X-1.7842 Y-3.5296
G01 X1.8381
G01 X1.1701 Y-1.7446
G01 X-1.1163
G01 X-0.5451 Y0.0404
G01 X0.5989
G01 X1.1701 Y1.8254
G01 X-1.1163
G01 X-1.7842 Y3.6104
G01 X1.8381
G01 X2.5060 Y5.3954
G01 X-2.4522
G01 X-3.1201 Y7.1804
G01 X3.1739
G01 X3.3974 Y7.0841
G01 X0.9127 Y0.4582
G01 X0.8897 Y0.3909
G01 X0.8708 Y0.3223
G01 X0.8560 Y0.2527
G01 X0.8454 Y0.1823
G01 X0.8390 Y0.1115
G01 X0.8369 Y0.0404
G01 X0.8390 Y-0.0307
G01 X0.8454 Y-0.1016
G01 X0.8560 Y-0.1720
G01 X0.8708 Y-0.2415
G01 X0.8897 Y-0.3101
G01 X0.9127 Y-0.3775
G01 X4.0524 Y-8.7500
G01 X4.0480 Y-8.7368
G01 X4.0529 Y-8.7724
G01 X4.0369
G01 X-3.9830
G01 X-3.9691 Y-8.7730
G01 X-4.0042 Y-8.7650
G01 X-3.9986 Y-8.7500
G01 X-0.8589 Y-0.3775
G01 X-0.8359 Y-0.3101
G01 X-0.8170 Y-0.2415
G01 X-0.8022 Y-0.1720
G01 X-0.7916 Y-0.1016
G01 X-0.7852 Y-0.0307
G01 X-0.7831 Y0.0404
G01 X-0.7852 Y0.1115
G01 X-0.7916 Y0.1823
G01 X-0.8022 Y0.2527
G01 X-0.8170 Y0.3223
G01 X-0.8359 Y0.3909
G01 X-0.8589 Y0.4582
G01 X-3.9986 Y8.8307
G01 X-3.9942 Y8.8175
G01 X-3.9991 Y8.8531
G01 X-3.9830
G01 X4.0369
G01 X4.0230 Y8.8537
G01 X4.0580 Y8.8458
G01 X4.0524 Y8.8307
G01 X3.3974 Y7.0841
G01 X3.1739 Y7.1804
G01 Z-4.0000 F300
G01 X-3.1201 F762
G01 X-2.4522 Y5.3954
G01 X2.5060
G01 X1.8381 Y3.6104
G01 X-1.7842
G01 X-1.1163 Y1.8254
G01 X1.1701
G01 X0.5989 Y0.0404
G01 X-0.5451
G01 X-1.1163 Y-1.7446
G01 X1.1701
G01 X1.8381 Y-3.5296
G01 X-1.7842
G01 X-2.4522 Y-5.3146
G01 X2.5060
G01 X3.1739 Y-7.0996
G01 X-3.1201
G01 X-3.3436 Y-7.0033
G01 X-0.8589 Y-0.3775
G01 X-0.8359 Y-0.3101
G01 X-0.8170 Y-0.2415
G01 X-0.8022 Y-0.1720
G01 X-0.7916 Y-0.1016
G01 X-0.7852 Y-0.0307
G01 X-0.7831 Y0.0404
G01 X-0.7852 Y0.1115
G01 X-0.7916 Y0.1823
G01 X-0.8022 Y0.2527
G01 X-0.8170 Y0.3223
G01 X-0.8359 Y0.3909
G01 X-0.8589 Y0.4582
G01 X-3.9986 Y8.8307
G01 X-3.9942 Y8.8175
G01 X-3.9991 Y8.8531
G01 X-3.9830
G01 X4.0369
G01 X4.0230 Y8.8537
G01 X4.0580 Y8.8458
G01 X4.0524 Y8.8307
G01 X0.9127 Y0.4582
G01 X0.8897 Y0.3909
G01 X0.8708 Y0.3223
G01 X0.8560 Y0.2527
G01 X0.8454 Y0.1823
G01 X0.8390 Y0.1115
G01 X0.8369 Y0.0404
G01 X0.8390 Y-0.0307
G01 X0.8454 Y-0.1016
G01 X0.8560 Y-0.1720
G01 X0.8708 Y-0.2415
G01 X0.8897 Y-0.3101
G01 X0.9127 Y-0.3775
G01 X4.0524 Y-8.7500
G01 X4.0480 Y-8.7368
G01 X4.0529 Y-8.7724
G01 X4.0369
G01 X-3.9830
G01 X-3.9691 Y-8.7730
G01 X-4.0042 Y-8.7650
G01 X-3.9986 Y-8.7500
G01 X-3.3436 Y-7.0033
G01 X-3.1201 Y-7.0996
G01 Z-5.0000 F300
G01 X3.1739 F762
G01 X2.5060 Y-5.3146
G01 X-2.4522
G01 X-1.7842 Y-3.5296
G01 X1.8381
G01 X1.1701 Y-1.7446
G01 X-1.1163
G01 X-0.5451 Y0.0404
G01 X0.5989
G01 X1.1701 Y1.8254
G01 X-1.1163
G01 X-1.7842 Y3.6104
G01 X1.8381
G01 X2.5060 Y5.3954
G01 X-2.4522
G01 X-3.1201 Y7.1804
G01 X3.1739
G01 X3.3974 Y7.0841
G01 X0.9127 Y0.4582
G01 X0.8897 Y0.3909
G01 X0.8708 Y0.3223
G01 X0.8560 Y0.2527
G01 X0.8454 Y0.1823
G01 X0.8390 Y0.1115
G01 X0.8369 Y0.0404
G01 X0.8390 Y-0.0307
G01 X0.8454 Y-0.1016
G01 X0.8560 Y-0.1720
G01 X0.8708 Y-0.2415
G01 X0.8897 Y-0.3101
G01 X0.9127 Y-0.3775
G01 X4.0524 Y-8.7500
G01 X4.0480 Y-8.7368
G01 X4.0529 Y-8.7724
G01 X4.0369
G01 X-3.9830
G01 X-3.9691 Y-8.7730
G01 X-4.0042 Y-8.7650
G01 X-3.9986 Y-8.7500
G01 X-0.8589 Y-0.3775
G01 X-0.8359 Y-0.3101
G01 X-0.8170 Y-0.2415
G01 X-0.8022 Y-0.1720
G01 X-0.7916 Y-0.1016
G01 X-0.7852 Y-0.0307
G01 X-0.7831 Y0.0404
G01 X-0.7852 Y0.1115
G01 X-0.7916 Y0.1823
G01 X-0.8022 Y0.2527
G01 X-0.8170 Y0.3223
G01 X-0.8359 Y0.3909
G01 X-0.8589 Y0.4582
G01 X-3.9986 Y8.8307
G01 X-3.9942 Y8.8175
G01 X-3.9991 Y8.8531
G01 X-3.9830
G01 X4.0369
G01 X4.0230 Y8.8537
G01 X4.0580 Y8.8458
G01 X4.0524 Y8.8307
G01 X3.3974 Y7.0841
G01 X3.1739 Y7.1804
G01 Z-6.0000 F300
G01 X-3.1201 F762
G01 X-2.4522 Y5.3954
G01 X2.5060
G01 X1.8381 Y3.6104
G01 X-1.7842
G01 X-1.1163 Y1.8254
G01 X1.1701
G01 X0.5989 Y0.0404
G01 X-0.5451
G01 X-1.1163 Y-1.7446
G01 X1.1701
G01 X1.8381 Y-3.5296
G01 X-1.7842
G01 X-2.4522 Y-5.3146
G01 X2.5060
G01 X3.1739 Y-7.0996
G01 X-3.1201
G01 X-3.3436 Y-7.0033
G01 X-0.8589 Y-0.3775
G01 X-0.8359 Y-0.3101
G01 X-0.8170 Y-0.2415
G01 X-0.8022 Y-0.1720
G01 X-0.7916 Y-0.1016
G01 X-0.7852 Y-0.0307
G01 X-0.7831 Y0.0404
G01 X-0.7852 Y0.1115
G01 X-0.7916 Y0.1823
G01 X-0.8022 Y0.2527
G01 X-0.8170 Y0.3223
G01 X-0.8359 Y0.3909
G01 X-0.8589 Y0.4582
G01 X-3.9986 Y8.8307
G01 X-3.9942 Y8.8175
G01 X-3.9991 Y8.8531
G01 X-3.9830
G01 X4.0369
G01 X4.0230 Y8.8537
G01 X4.0580 Y8.8458
G01 X4.0524 Y8.8307
G01 X0.9127 Y0.4582
G01 X0.8897 Y0.3909
G01 X0.8708 Y0.3223
G01 X0.8560 Y0.2527
G01 X0.8454 Y0.1823
G01 X0.8390 Y0.1115
G01 X0.8369 Y0.0404
G01 X0.8390 Y-0.0307
G01 X0.8454 Y-0.1016
G01 X0.8560 Y-0.1720
G01 X0.8708 Y-0.2415
G01 X0.8897 Y-0.3101
G01 X0.9127 Y-0.3775
G01 X4.0524 Y-8.7500
G01 X4.0480 Y-8.7368
G01 X4.0529 Y-8.7724
G01 X4.0369
G01 X-3.9830
G01 X-3.9691 Y-8.7730
G01 X-4.0042 Y-8.7650
G01 X-3.9986 Y-8.7500
G01 X-3.3436 Y-7.0033
G01 X-3.1201 Y-7.0996
G00 Z5.0000
G00 X0.0000 Y0.0000

M05
M30
