(Project large-pewa-radius)
(Created by Estlcam version 11 build 11.245)
(Machining time about 00:01:50 hours)

(Required tools:)
(5/32")
G21
G90
G94
M03 S24000
G00 Z5.0000


(No. 1: Hole 1)
G00 X-5.7158 Y-11.6026
G00 Z0.5000
G01 Z0.0000 F300 S24000
G01 Z-1.0000
G01 X5.7156 F762
G01 X5.0639 Y-9.8176
G01 X-5.0641
G01 X-4.4124 Y-8.0326
G01 X4.4123
G01 X3.7606 Y-6.2476
G01 X-3.7607
G01 X-3.1091 Y-4.4626
G01 X3.1090
G01 X2.4573 Y-2.6776
G01 X-2.4574
G01 X-1.8057 Y-0.8926
G01 X1.8057
G01 X1.8056 Y0.8924
G01 X-1.8056
G01 X-2.4573 Y2.6774
G01 X2.4573
G01 X3.1090 Y4.4624
G01 X-3.1090
G01 X-3.7607 Y6.2474
G01 X3.7607
G01 X4.4123 Y8.0324
G01 X-4.4123
G01 X-5.0640 Y9.8174
G01 X5.0640
G01 X5.7157 Y11.6024
G01 X-5.7157
G01 X-5.9332 Y11.5048
G01 X-6.4346 Y12.8780
G01 X-6.4303 Y12.8649
G01 X-6.4351 Y12.9004
G01 X-6.4189
G01 X6.4427
G01 X6.4189
G01 X6.4051 Y12.9010
G01 X6.4401 Y12.8932
G01 X6.4346 Y12.8780
G01 X1.8822 Y0.4081
G01 X1.8508 Y0.3088
G01 X1.8282 Y0.2072
G01 X1.8146 Y0.1040
G01 X1.8100 Y0.0000
G01 X1.8146 Y-0.1040
G01 X1.8282 Y-0.2072
G01 X1.8508 Y-0.3088
G01 X1.8822 Y-0.4081
G01 X6.4346 Y-12.8780
G01 X6.4303 Y-12.8649
G01 X6.4351 Y-12.9004
G01 X6.4189
G01 X-6.4427
G01 X-6.4189
G01 X-6.4051 Y-12.9010
G01 X-6.4401 Y-12.8932
G01 X-6.4346 Y-12.8780
G01 X-1.8822 Y-0.4081
G01 X-1.8508 Y-0.3088
G01 X-1.8282 Y-0.2072
G01 X-1.8146 Y-0.1040
G01 X-1.8100 Y0.0000
G01 X-1.8146 Y0.1040
G01 X-1.8282 Y0.2072
G01 X-1.8508 Y0.3088
G01 X-1.8822 Y0.4081
G01 X-5.9332 Y11.5048
G01 X-5.7157 Y11.6024
G01 Z-2.0000 F300
G01 X5.7157 F762
G01 X5.0640 Y9.8174
G01 X-5.0640
G01 X-4.4123 Y8.0324
G01 X4.4123
G01 X3.7607 Y6.2474
G01 X-3.7607
G01 X-3.1090 Y4.4624
G01 X3.1090
G01 X2.4573 Y2.6774
G01 X-2.4573
G01 X-1.8056 Y0.8924
G01 X1.8056
G01 Y-0.8926
G01 X-1.8057
G01 X-2.4574 Y-2.6776
G01 X2.4573
G01 X3.1090 Y-4.4626
G01 X-3.1091
G01 X-3.7607 Y-6.2476
G01 X3.7606
G01 X4.4123 Y-8.0326
G01 X-4.4124
G01 X-5.0641 Y-9.8176
G01 X5.0639
G01 X5.7156 Y-11.6026
G01 X-5.7158
G01 X-5.9333 Y-11.5051
G01 X-1.8822 Y-0.4081
G01 X-1.8508 Y-0.3088
G01 X-1.8282 Y-0.2072
G01 X-1.8146 Y-0.1040
G01 X-1.8100 Y0.0000
G01 X-1.8146 Y0.1040
G01 X-1.8282 Y0.2072
G01 X-1.8508 Y0.3088
G01 X-1.8822 Y0.4081
G01 X-6.4346 Y12.8780
G01 X-6.4303 Y12.8649
G01 X-6.4351 Y12.9004
G01 X-6.4189
G01 X6.4427
G01 X6.4189
G01 X6.4051 Y12.9010
G01 X6.4401 Y12.8932
G01 X6.4346 Y12.8780
G01 X1.8822 Y0.4081
G01 X1.8508 Y0.3088
G01 X1.8282 Y0.2072
G01 X1.8146 Y0.1040
G01 X1.8100 Y0.0000
G01 X1.8146 Y-0.1040
G01 X1.8282 Y-0.2072
G01 X1.8508 Y-0.3088
G01 X1.8822 Y-0.4081
G01 X6.4346 Y-12.8780
G01 X6.4303 Y-12.8649
G01 X6.4351 Y-12.9004
G01 X6.4189
G01 X-6.4427
G01 X-6.4189
G01 X-6.4051 Y-12.9010
G01 X-6.4401 Y-12.8932
G01 X-6.4346 Y-12.8780
G01 X-5.9333 Y-11.5051
G01 X-5.7158 Y-11.6026
G01 Z-3.0000 F300
G01 X5.7156 F762
G01 X5.0639 Y-9.8176
G01 X-5.0641
G01 X-4.4124 Y-8.0326
G01 X4.4123
G01 X3.7606 Y-6.2476
G01 X-3.7607
G01 X-3.1091 Y-4.4626
G01 X3.1090
G01 X2.4573 Y-2.6776
G01 X-2.4574
G01 X-1.8057 Y-0.8926
G01 X1.8057
G01 X1.8056 Y0.8924
G01 X-1.8056
G01 X-2.4573 Y2.6774
G01 X2.4573
G01 X3.1090 Y4.4624
G01 X-3.1090
G01 X-3.7607 Y6.2474
G01 X3.7607
G01 X4.4123 Y8.0324
G01 X-4.4123
G01 X-5.0640 Y9.8174
G01 X5.0640
G01 X5.7157 Y11.6024
G01 X-5.7157
G01 X-5.9332 Y11.5048
G01 X-6.4346 Y12.8780
G01 X-6.4303 Y12.8649
G01 X-6.4351 Y12.9004
G01 X-6.4189
G01 X6.4427
G01 X6.4189
G01 X6.4051 Y12.9010
G01 X6.4401 Y12.8932
G01 X6.4346 Y12.8780
G01 X1.8822 Y0.4081
G01 X1.8508 Y0.3088
G01 X1.8282 Y0.2072
G01 X1.8146 Y0.1040
G01 X1.8100 Y0.0000
G01 X1.8146 Y-0.1040
G01 X1.8282 Y-0.2072
G01 X1.8508 Y-0.3088
G01 X1.8822 Y-0.4081
G01 X6.4346 Y-12.8780
G01 X6.4303 Y-12.8649
G01 X6.4351 Y-12.9004
G01 X6.4189
G01 X-6.4427
G01 X-6.4189
G01 X-6.4051 Y-12.9010
G01 X-6.4401 Y-12.8932
G01 X-6.4346 Y-12.8780
G01 X-1.8822 Y-0.4081
G01 X-1.8508 Y-0.3088
G01 X-1.8282 Y-0.2072
G01 X-1.8146 Y-0.1040
G01 X-1.8100 Y0.0000
G01 X-1.8146 Y0.1040
G01 X-1.8282 Y0.2072
G01 X-1.8508 Y0.3088
G01 X-1.8822 Y0.4081
G01 X-5.9332 Y11.5048
G01 X-5.7157 Y11.6024
G01 Z-4.0000 F300
G01 X5.7157 F762
G01 X5.0640 Y9.8174
G01 X-5.0640
G01 X-4.4123 Y8.0324
G01 X4.4123
G01 X3.7607 Y6.2474
G01 X-3.7607
G01 X-3.1090 Y4.4624
G01 X3.1090
G01 X2.4573 Y2.6774
G01 X-2.4573
G01 X-1.8056 Y0.8924
G01 X1.8056
G01 Y-0.8926
G01 X-1.8057
G01 X-2.4574 Y-2.6776
G01 X2.4573
G01 X3.1090 Y-4.4626
G01 X-3.1091
G01 X-3.7607 Y-6.2476
G01 X3.7606
G01 X4.4123 Y-8.0326
G01 X-4.4124
G01 X-5.0641 Y-9.8176
G01 X5.0639
G01 X5.7156 Y-11.6026
G01 X-5.7158
G01 X-5.9333 Y-11.5051
G01 X-1.8822 Y-0.4081
G01 X-1.8508 Y-0.3088
G01 X-1.8282 Y-0.2072
G01 X-1.8146 Y-0.1040
G01 X-1.8100 Y0.0000
G01 X-1.8146 Y0.1040
G01 X-1.8282 Y0.2072
G01 X-1.8508 Y0.3088
G01 X-1.8822 Y0.4081
G01 X-6.4346 Y12.8780
G01 X-6.4303 Y12.8649
G01 X-6.4351 Y12.9004
G01 X-6.4189
G01 X6.4427
G01 X6.4189
G01 X6.4051 Y12.9010
G01 X6.4401 Y12.8932
G01 X6.4346 Y12.8780
G01 X1.8822 Y0.4081
G01 X1.8508 Y0.3088
G01 X1.8282 Y0.2072
G01 X1.8146 Y0.1040
G01 X1.8100 Y0.0000
G01 X1.8146 Y-0.1040
G01 X1.8282 Y-0.2072
G01 X1.8508 Y-0.3088
G01 X1.8822 Y-0.4081
G01 X6.4346 Y-12.8780
G01 X6.4303 Y-12.8649
G01 X6.4351 Y-12.9004
G01 X6.4189
G01 X-6.4427
G01 X-6.4189
G01 X-6.4051 Y-12.9010
G01 X-6.4401 Y-12.8932
G01 X-6.4346 Y-12.8780
G01 X-5.9333 Y-11.5051
G01 X-5.7158 Y-11.6026
G01 Z-5.0000 F300
G01 X5.7156 F762
G01 X5.0639 Y-9.8176
G01 X-5.0641
G01 X-4.4124 Y-8.0326
G01 X4.4123
G01 X3.7606 Y-6.2476
G01 X-3.7607
G01 X-3.1091 Y-4.4626
G01 X3.1090
G01 X2.4573 Y-2.6776
G01 X-2.4574
G01 X-1.8057 Y-0.8926
G01 X1.8057
G01 X1.8056 Y0.8924
G01 X-1.8056
G01 X-2.4573 Y2.6774
G01 X2.4573
G01 X3.1090 Y4.4624
G01 X-3.1090
G01 X-3.7607 Y6.2474
G01 X3.7607
G01 X4.4123 Y8.0324
G01 X-4.4123
G01 X-5.0640 Y9.8174
G01 X5.0640
G01 X5.7157 Y11.6024
G01 X-5.7157
G01 X-5.9332 Y11.5048
G01 X-6.4346 Y12.8780
G01 X-6.4303 Y12.8649
G01 X-6.4351 Y12.9004
G01 X-6.4189
G01 X6.4427
G01 X6.4189
G01 X6.4051 Y12.9010
G01 X6.4401 Y12.8932
G01 X6.4346 Y12.8780
G01 X1.8822 Y0.4081
G01 X1.8508 Y0.3088
G01 X1.8282 Y0.2072
G01 X1.8146 Y0.1040
G01 X1.8100 Y0.0000
G01 X1.8146 Y-0.1040
G01 X1.8282 Y-0.2072
G01 X1.8508 Y-0.3088
G01 X1.8822 Y-0.4081
G01 X6.4346 Y-12.8780
G01 X6.4303 Y-12.8649
G01 X6.4351 Y-12.9004
G01 X6.4189
G01 X-6.4427
G01 X-6.4189
G01 X-6.4051 Y-12.9010
G01 X-6.4401 Y-12.8932
G01 X-6.4346 Y-12.8780
G01 X-1.8822 Y-0.4081
G01 X-1.8508 Y-0.3088
G01 X-1.8282 Y-0.2072
G01 X-1.8146 Y-0.1040
G01 X-1.8100 Y0.0000
G01 X-1.8146 Y0.1040
G01 X-1.8282 Y0.2072
G01 X-1.8508 Y0.3088
G01 X-1.8822 Y0.4081
G01 X-5.9332 Y11.5048
G01 X-5.7157 Y11.6024
G01 Z-6.0000 F300
G01 X5.7157 F762
G01 X5.0640 Y9.8174
G01 X-5.0640
G01 X-4.4123 Y8.0324
G01 X4.4123
G01 X3.7607 Y6.2474
G01 X-3.7607
G01 X-3.1090 Y4.4624
G01 X3.1090
G01 X2.4573 Y2.6774
G01 X-2.4573
G01 X-1.8056 Y0.8924
G01 X1.8056
G01 Y-0.8926
G01 X-1.8057
G01 X-2.4574 Y-2.6776
G01 X2.4573
G01 X3.1090 Y-4.4626
G01 X-3.1091
G01 X-3.7607 Y-6.2476
G01 X3.7606
G01 X4.4123 Y-8.0326
G01 X-4.4124
G01 X-5.0641 Y-9.8176
G01 X5.0639
G01 X5.7156 Y-11.6026
G01 X-5.7158
G01 X-5.9333 Y-11.5051
G01 X-1.8822 Y-0.4081
G01 X-1.8508 Y-0.3088
G01 X-1.8282 Y-0.2072
G01 X-1.8146 Y-0.1040
G01 X-1.8100 Y0.0000
G01 X-1.8146 Y0.1040
G01 X-1.8282 Y0.2072
G01 X-1.8508 Y0.3088
G01 X-1.8822 Y0.4081
G01 X-6.4346 Y12.8780
G01 X-6.4303 Y12.8649
G01 X-6.4351 Y12.9004
G01 X-6.4189
G01 X6.4427
G01 X6.4189
G01 X6.4051 Y12.9010
G01 X6.4401 Y12.8932
G01 X6.4346 Y12.8780
G01 X1.8822 Y0.4081
G01 X1.8508 Y0.3088
G01 X1.8282 Y0.2072
G01 X1.8146 Y0.1040
G01 X1.8100 Y0.0000
G01 X1.8146 Y-0.1040
G01 X1.8282 Y-0.2072
G01 X1.8508 Y-0.3088
G01 X1.8822 Y-0.4081
G01 X6.4346 Y-12.8780
G01 X6.4303 Y-12.8649
G01 X6.4351 Y-12.9004
G01 X6.4189
G01 X-6.4427
G01 X-6.4189
G01 X-6.4051 Y-12.9010
G01 X-6.4401 Y-12.8932
G01 X-6.4346 Y-12.8780
G01 X-5.9333 Y-11.5051
G01 X-5.7158 Y-11.6026
G00 Z5.0000
G00 X0.0000 Y0.0000

M05
M30
