(Project penta-smallradius)
(Created by Estlcam version 11 build 11.245)
(Machining time about 00:00:24 hours)

(Required tools:)
(1/16")
G21
G90
G94
M03 S24000
G00 Z5.0000


(No. 1: Hole 1)
G00 X-3.2468 Y-3.1002
G00 Z0.5000
G01 Z0.0000 F300 S24000
G01 Z-1.0000
G01 X3.2462 F762
G01 X3.6338 Y-1.9077
G01 X-3.6340
G01 X-4.0213 Y-0.7152
G01 X4.0215
G01 X4.4091 Y0.4773
G01 X-4.4086
G01 X-4.5851 Y1.6698
G01 X4.5838
G01 X2.9430 Y2.8623
G01 X-2.9433
G01 X-1.3015 Y4.0548
G01 X1.3021
G01 X1.3994 Y4.1811
G01 X4.9386 Y1.6101
G01 X4.9412 Y1.5997
G01 X3.0574 Y-4.1994
G01 X3.0483 Y-4.2050
G01 X-3.0490 Y-4.2055
G01 X-3.0572 Y-4.1986
G01 X-4.9419 Y1.6002
G01 X-4.9378 Y1.6101
G01 X-0.0052 Y5.1945
G01 X0.0055 Y5.1937
G01 X1.3994 Y4.1811
G01 X1.3021 Y4.0548
G01 Z-2.0000 F300
G01 X-1.3015 F762
G01 X-2.9433 Y2.8623
G01 X2.9430
G01 X4.5838 Y1.6698
G01 X-4.5851
G01 X-4.4086 Y0.4773
G01 X4.4091
G01 X4.0215 Y-0.7152
G01 X-4.0213
G01 X-3.6340 Y-1.9077
G01 X3.6338
G01 X3.2462 Y-3.1002
G01 X-3.2468
G01 X-3.4009 Y-3.1409
G01 X-4.9419 Y1.6002
G01 X-4.9378 Y1.6101
G01 X-0.0052 Y5.1945
G01 X0.0055 Y5.1937
G01 X4.9386 Y1.6101
G01 X4.9412 Y1.5997
G01 X3.0574 Y-4.1994
G01 X3.0483 Y-4.2050
G01 X-3.0490 Y-4.2055
G01 X-3.0572 Y-4.1986
G01 X-3.4009 Y-3.1409
G01 X-3.2468 Y-3.1002
G01 Z-3.0000 F300
G01 X3.2462 F762
G01 X3.6338 Y-1.9077
G01 X-3.6340
G01 X-4.0213 Y-0.7152
G01 X4.0215
G01 X4.4091 Y0.4773
G01 X-4.4086
G01 X-4.5851 Y1.6698
G01 X4.5838
G01 X2.9430 Y2.8623
G01 X-2.9433
G01 X-1.3015 Y4.0548
G01 X1.3021
G01 X1.3994 Y4.1811
G01 X4.9386 Y1.6101
G01 X4.9412 Y1.5997
G01 X3.0574 Y-4.1994
G01 X3.0483 Y-4.2050
G01 X-3.0490 Y-4.2055
G01 X-3.0572 Y-4.1986
G01 X-4.9419 Y1.6002
G01 X-4.9378 Y1.6101
G01 X-0.0052 Y5.1945
G01 X0.0055 Y5.1937
G01 X1.3994 Y4.1811
G01 X1.3021 Y4.0548
G00 Z5.0000
G00 X0.0000 Y0.0000

M05
M30
