(Project small-pewa-radius.dxf)
(Created by Estlcam version 11 build 11.245)
(Machining time about 00:00:41 hours)

(Required tools:)
(5/32")
G21
G90
G94
M03 S24000
G00 Z5.0000


(No. 1: Hole 1)
G00 X-2.4777 Y-5.3550
G00 Z0.5000
G01 Z0.0000 F300 S24000
G01 Z-1.0000
G01 X2.4830 F762
G01 X1.8136 Y-3.5700
G01 X-1.8103
G01 X-1.1429 Y-1.7850
G01 X1.1443
G01 X0.5720 Y0.0000
G01 X-0.5720
G01 X-1.1429 Y1.7850
G01 X1.1429
G01 X1.8103 Y3.5700
G01 X-1.8103
G01 X-2.4777 Y5.3550
G01 X2.4777
G01 X2.7007 Y5.2576
G01 X0.8858 Y0.4178
G01 X0.8628 Y0.3505
G01 X0.8439 Y0.2819
G01 X0.8291 Y0.2123
G01 X0.8185 Y0.1420
G01 X0.8121 Y0.0711
G01 X0.8100 Y0.0000
G01 X0.8121 Y-0.0711
G01 X0.8185 Y-0.1420
G01 X0.8291 Y-0.2123
G01 X0.8439 Y-0.2819
G01 X0.8628 Y-0.3505
G01 X0.8858 Y-0.4178
G01 X3.2590 Y-6.7464
G01 X3.2546 Y-6.7332
G01 X3.2595 Y-6.7688
G01 X3.2435
G01 X-0.2042
G01 X-3.2435
G01 X-3.2295 Y-6.7694
G01 X-3.2646 Y-6.7614
G01 X-3.2590 Y-6.7464
G01 X-0.8858 Y-0.4178
G01 X-0.8628 Y-0.3505
G01 X-0.8439 Y-0.2819
G01 X-0.8291 Y-0.2123
G01 X-0.8185 Y-0.1420
G01 X-0.8121 Y-0.0711
G01 X-0.8100 Y0.0000
G01 X-0.8121 Y0.0711
G01 X-0.8185 Y0.1420
G01 X-0.8291 Y0.2123
G01 X-0.8439 Y0.2819
G01 X-0.8628 Y0.3505
G01 X-0.8858 Y0.4178
G01 X-3.2590 Y6.7464
G01 X-3.2546 Y6.7332
G01 X-3.2595 Y6.7688
G01 X-3.2435
G01 X3.2674
G01 X3.2435
G01 X3.2295 Y6.7694
G01 X3.2646 Y6.7614
G01 X3.2590 Y6.7464
G01 X2.7007 Y5.2576
G01 X2.4777 Y5.3550
G01 Z-2.0000 F300
G01 X-2.4777 F762
G01 X-1.8103 Y3.5700
G01 X1.8103
G01 X1.1429 Y1.7850
G01 X-1.1429
G01 X-0.5720 Y0.0000
G01 X0.5720
G01 X1.1443 Y-1.7850
G01 X-1.1429
G01 X-1.8103 Y-3.5700
G01 X1.8136
G01 X2.4830 Y-5.3550
G01 X-2.4777
G01 X-2.7007 Y-5.2576
G01 X-0.8858 Y-0.4178
G01 X-0.8628 Y-0.3505
G01 X-0.8439 Y-0.2819
G01 X-0.8291 Y-0.2123
G01 X-0.8185 Y-0.1420
G01 X-0.8121 Y-0.0711
G01 X-0.8100 Y0.0000
G01 X-0.8121 Y0.0711
G01 X-0.8185 Y0.1420
G01 X-0.8291 Y0.2123
G01 X-0.8439 Y0.2819
G01 X-0.8628 Y0.3505
G01 X-0.8858 Y0.4178
G01 X-3.2590 Y6.7464
G01 X-3.2546 Y6.7332
G01 X-3.2595 Y6.7688
G01 X-3.2435
G01 X3.2674
G01 X3.2435
G01 X3.2295 Y6.7694
G01 X3.2646 Y6.7614
G01 X3.2590 Y6.7464
G01 X0.8858 Y0.4178
G01 X0.8628 Y0.3505
G01 X0.8439 Y0.2819
G01 X0.8291 Y0.2123
G01 X0.8185 Y0.1420
G01 X0.8121 Y0.0711
G01 X0.8100 Y0.0000
G01 X0.8121 Y-0.0711
G01 X0.8185 Y-0.1420
G01 X0.8291 Y-0.2123
G01 X0.8439 Y-0.2819
G01 X0.8628 Y-0.3505
G01 X0.8858 Y-0.4178
G01 X3.2590 Y-6.7464
G01 X3.2546 Y-6.7332
G01 X3.2595 Y-6.7688
G01 X3.2435
G01 X-0.2042
G01 X-3.2435
G01 X-3.2295 Y-6.7694
G01 X-3.2646 Y-6.7614
G01 X-3.2590 Y-6.7464
G01 X-2.7007 Y-5.2576
G01 X-2.4777 Y-5.3550
G01 Z-3.0000 F300
G01 X2.4830 F762
G01 X1.8136 Y-3.5700
G01 X-1.8103
G01 X-1.1429 Y-1.7850
G01 X1.1443
G01 X0.5720 Y0.0000
G01 X-0.5720
G01 X-1.1429 Y1.7850
G01 X1.1429
G01 X1.8103 Y3.5700
G01 X-1.8103
G01 X-2.4777 Y5.3550
G01 X2.4777
G01 X2.7007 Y5.2576
G01 X0.8858 Y0.4178
G01 X0.8628 Y0.3505
G01 X0.8439 Y0.2819
G01 X0.8291 Y0.2123
G01 X0.8185 Y0.1420
G01 X0.8121 Y0.0711
G01 X0.8100 Y0.0000
G01 X0.8121 Y-0.0711
G01 X0.8185 Y-0.1420
G01 X0.8291 Y-0.2123
G01 X0.8439 Y-0.2819
G01 X0.8628 Y-0.3505
G01 X0.8858 Y-0.4178
G01 X3.2590 Y-6.7464
G01 X3.2546 Y-6.7332
G01 X3.2595 Y-6.7688
G01 X3.2435
G01 X-0.2042
G01 X-3.2435
G01 X-3.2295 Y-6.7694
G01 X-3.2646 Y-6.7614
G01 X-3.2590 Y-6.7464
G01 X-0.8858 Y-0.4178
G01 X-0.8628 Y-0.3505
G01 X-0.8439 Y-0.2819
G01 X-0.8291 Y-0.2123
G01 X-0.8185 Y-0.1420
G01 X-0.8121 Y-0.0711
G01 X-0.8100 Y0.0000
G01 X-0.8121 Y0.0711
G01 X-0.8185 Y0.1420
G01 X-0.8291 Y0.2123
G01 X-0.8439 Y0.2819
G01 X-0.8628 Y0.3505
G01 X-0.8858 Y0.4178
G01 X-3.2590 Y6.7464
G01 X-3.2546 Y6.7332
G01 X-3.2595 Y6.7688
G01 X-3.2435
G01 X3.2674
G01 X3.2435
G01 X3.2295 Y6.7694
G01 X3.2646 Y6.7614
G01 X3.2590 Y6.7464
G01 X2.7007 Y5.2576
G01 X2.4777 Y5.3550
G01 Z-4.0000 F300
G01 X-2.4777 F762
G01 X-1.8103 Y3.5700
G01 X1.8103
G01 X1.1429 Y1.7850
G01 X-1.1429
G01 X-0.5720 Y0.0000
G01 X0.5720
G01 X1.1443 Y-1.7850
G01 X-1.1429
G01 X-1.8103 Y-3.5700
G01 X1.8136
G01 X2.4830 Y-5.3550
G01 X-2.4777
G01 X-2.7007 Y-5.2576
G01 X-0.8858 Y-0.4178
G01 X-0.8628 Y-0.3505
G01 X-0.8439 Y-0.2819
G01 X-0.8291 Y-0.2123
G01 X-0.8185 Y-0.1420
G01 X-0.8121 Y-0.0711
G01 X-0.8100 Y0.0000
G01 X-0.8121 Y0.0711
G01 X-0.8185 Y0.1420
G01 X-0.8291 Y0.2123
G01 X-0.8439 Y0.2819
G01 X-0.8628 Y0.3505
G01 X-0.8858 Y0.4178
G01 X-3.2590 Y6.7464
G01 X-3.2546 Y6.7332
G01 X-3.2595 Y6.7688
G01 X-3.2435
G01 X3.2674
G01 X3.2435
G01 X3.2295 Y6.7694
G01 X3.2646 Y6.7614
G01 X3.2590 Y6.7464
G01 X0.8858 Y0.4178
G01 X0.8628 Y0.3505
G01 X0.8439 Y0.2819
G01 X0.8291 Y0.2123
G01 X0.8185 Y0.1420
G01 X0.8121 Y0.0711
G01 X0.8100 Y0.0000
G01 X0.8121 Y-0.0711
G01 X0.8185 Y-0.1420
G01 X0.8291 Y-0.2123
G01 X0.8439 Y-0.2819
G01 X0.8628 Y-0.3505
G01 X0.8858 Y-0.4178
G01 X3.2590 Y-6.7464
G01 X3.2546 Y-6.7332
G01 X3.2595 Y-6.7688
G01 X3.2435
G01 X-0.2042
G01 X-3.2435
G01 X-3.2295 Y-6.7694
G01 X-3.2646 Y-6.7614
G01 X-3.2590 Y-6.7464
G01 X-2.7007 Y-5.2576
G01 X-2.4777 Y-5.3550
G01 Z-5.0000 F300
G01 X2.4830 F762
G01 X1.8136 Y-3.5700
G01 X-1.8103
G01 X-1.1429 Y-1.7850
G01 X1.1443
G01 X0.5720 Y0.0000
G01 X-0.5720
G01 X-1.1429 Y1.7850
G01 X1.1429
G01 X1.8103 Y3.5700
G01 X-1.8103
G01 X-2.4777 Y5.3550
G01 X2.4777
G01 X2.7007 Y5.2576
G01 X0.8858 Y0.4178
G01 X0.8628 Y0.3505
G01 X0.8439 Y0.2819
G01 X0.8291 Y0.2123
G01 X0.8185 Y0.1420
G01 X0.8121 Y0.0711
G01 X0.8100 Y0.0000
G01 X0.8121 Y-0.0711
G01 X0.8185 Y-0.1420
G01 X0.8291 Y-0.2123
G01 X0.8439 Y-0.2819
G01 X0.8628 Y-0.3505
G01 X0.8858 Y-0.4178
G01 X3.2590 Y-6.7464
G01 X3.2546 Y-6.7332
G01 X3.2595 Y-6.7688
G01 X3.2435
G01 X-0.2042
G01 X-3.2435
G01 X-3.2295 Y-6.7694
G01 X-3.2646 Y-6.7614
G01 X-3.2590 Y-6.7464
G01 X-0.8858 Y-0.4178
G01 X-0.8628 Y-0.3505
G01 X-0.8439 Y-0.2819
G01 X-0.8291 Y-0.2123
G01 X-0.8185 Y-0.1420
G01 X-0.8121 Y-0.0711
G01 X-0.8100 Y0.0000
G01 X-0.8121 Y0.0711
G01 X-0.8185 Y0.1420
G01 X-0.8291 Y0.2123
G01 X-0.8439 Y0.2819
G01 X-0.8628 Y0.3505
G01 X-0.8858 Y0.4178
G01 X-3.2590 Y6.7464
G01 X-3.2546 Y6.7332
G01 X-3.2595 Y6.7688
G01 X-3.2435
G01 X3.2674
G01 X3.2435
G01 X3.2295 Y6.7694
G01 X3.2646 Y6.7614
G01 X3.2590 Y6.7464
G01 X2.7007 Y5.2576
G01 X2.4777 Y5.3550
G01 Z-6.0000 F300
G01 X-2.4777 F762
G01 X-1.8103 Y3.5700
G01 X1.8103
G01 X1.1429 Y1.7850
G01 X-1.1429
G01 X-0.5720 Y0.0000
G01 X0.5720
G01 X1.1443 Y-1.7850
G01 X-1.1429
G01 X-1.8103 Y-3.5700
G01 X1.8136
G01 X2.4830 Y-5.3550
G01 X-2.4777
G01 X-2.7007 Y-5.2576
G01 X-0.8858 Y-0.4178
G01 X-0.8628 Y-0.3505
G01 X-0.8439 Y-0.2819
G01 X-0.8291 Y-0.2123
G01 X-0.8185 Y-0.1420
G01 X-0.8121 Y-0.0711
G01 X-0.8100 Y0.0000
G01 X-0.8121 Y0.0711
G01 X-0.8185 Y0.1420
G01 X-0.8291 Y0.2123
G01 X-0.8439 Y0.2819
G01 X-0.8628 Y0.3505
G01 X-0.8858 Y0.4178
G01 X-3.2590 Y6.7464
G01 X-3.2546 Y6.7332
G01 X-3.2595 Y6.7688
G01 X-3.2435
G01 X3.2674
G01 X3.2435
G01 X3.2295 Y6.7694
G01 X3.2646 Y6.7614
G01 X3.2590 Y6.7464
G01 X0.8858 Y0.4178
G01 X0.8628 Y0.3505
G01 X0.8439 Y0.2819
G01 X0.8291 Y0.2123
G01 X0.8185 Y0.1420
G01 X0.8121 Y0.0711
G01 X0.8100 Y0.0000
G01 X0.8121 Y-0.0711
G01 X0.8185 Y-0.1420
G01 X0.8291 Y-0.2123
G01 X0.8439 Y-0.2819
G01 X0.8628 Y-0.3505
G01 X0.8858 Y-0.4178
G01 X3.2590 Y-6.7464
G01 X3.2546 Y-6.7332
G01 X3.2595 Y-6.7688
G01 X3.2435
G01 X-0.2042
G01 X-3.2435
G01 X-3.2295 Y-6.7694
G01 X-3.2646 Y-6.7614
G01 X-3.2590 Y-6.7464
G01 X-2.7007 Y-5.2576
G01 X-2.4777 Y-5.3550
G00 Z5.0000
G00 X0.0000 Y0.0000

M05
M30
