(Project staple1)
(Created by Estlcam version 11 build 11.245)
(Machining time about 00:01:36 hours)

(Required tools:)
(5/32")
G21
G90
G94
M03 S24000
G00 Z5.0000


(No. 1: Hole 1)
G00 X0.1683 Y-2.0711
G00 Z0.5000
G01 Z-1.0000 F300 S24000
G01 X0.1362 F762
G01 X-0.4850 Y-1.0858
G01 X-0.9134 Y-0.4860
G01 X-1.1276 Y-0.0576
G01 X-0.7421 Y0.4993
G01 X0.0933 Y1.9559
G01 X0.1576 Y1.9773
G01 X1.0144 Y0.4993
G01 X1.3785 Y-0.0148
G01 X1.3999 Y-0.1433
G01 X0.2004 Y-2.0711
G01 X0.1683
G01 X1.3175 Y-2.3474
G01 X0.8430 Y-3.0992
G01 X0.1576 Y-4.4701
G01 X0.1147
G01 X-0.0805 Y-4.0254
G01 X-0.2892 Y-3.5868
G01 X-0.5112 Y-3.1547
G01 X-0.7463 Y-2.7297
G01 X-0.9943 Y-2.3120
G01 X-1.2549 Y-1.9021
G01 X-1.5279 Y-1.5004
G01 X-1.8131 Y-1.1072
G01 X-2.3700 Y-0.1861
G01 X-2.4128 Y0.0281
G01 X-2.0465 Y0.5490
G01 X-1.6941 Y1.0794
G01 X-1.3559 Y1.6190
G01 X-1.0321 Y2.1674
G01 X-0.7229 Y2.7241
G01 X-0.4286 Y3.2888
G01 X-0.1493 Y3.8611
G01 X0.1147 Y4.4406
G01 X0.1576
G01 X0.4216 Y3.8611
G01 X0.7009 Y3.2888
G01 X0.9952 Y2.7241
G01 X1.3044 Y2.1674
G01 X1.6282 Y1.6190
G01 X1.9665 Y1.0794
G01 X2.3188 Y0.5490
G01 X2.6851 Y0.0281
G01 Y-0.0790
G01 X2.2353 Y-0.8930
G01 X1.3175 Y-2.3474
G00 Z5.0000
G00 X0.1362 Y-8.2400
G00 Z0.5000
G01 Z-1.0000 F300
G01 X0.1576 F762
G01 X0.3504 Y-8.6256
G01 X-0.0995
G01 X0.1147 Y-8.2400
G01 X0.1362
G00 Z5.0000
G00 X0.1468 Y8.1998
G00 Z0.5000
G01 Z-1.0000 F300
G01 X0.1147 Y8.1891 F762
G01 X-0.0780 Y8.5104
G01 Y8.5532
G01 X0.3504
G01 X0.1790 Y8.2105
G01 X0.1468 Y8.1998
G01 X0.6587 Y7.9453
G01 X0.5469 Y7.7056
G01 X0.4531 Y7.4583
G01 X0.3781 Y7.2048
G01 X0.3222 Y6.9463
G01 X0.2856 Y6.6844
G01 X0.2687 Y6.4204
G01 X0.2714 Y6.1560
G01 X0.2939 Y5.8925
G01 X0.3359 Y5.6314
G01 X0.3972 Y5.3741
G01 X0.4775 Y5.1222
G01 X0.5764 Y4.8769
G01 X0.9040 Y4.1654
G01 X1.2629 Y3.4692
G01 X1.6523 Y2.7896
G01 X2.0715 Y2.1280
G01 X2.4088 Y1.6048
G01 X2.7304 Y1.0719
G01 X3.0360 Y0.5296
G01 X3.3254 Y-0.0216
G01 X2.9704 Y-0.6817
G01 X2.5982 Y-1.3324
G01 X2.2091 Y-1.9730
G01 X1.8034 Y-2.6032
G01 X1.6003 Y-2.9189
G01 X1.4067 Y-3.2405
G01 X1.2228 Y-3.5677
G01 X1.0487 Y-3.9003
G01 X0.8846 Y-4.2378
G01 X0.7306 Y-4.5802
G01 X0.5869 Y-4.9269
G01 X0.4536 Y-5.2778
G01 X0.3708 Y-5.5378
G01 X0.3100 Y-5.8037
G01 X0.2717 Y-6.0738
G01 X0.2560 Y-6.3462
G01 X0.2631 Y-6.6189
G01 X0.2929 Y-6.8901
G01 X0.3453 Y-7.1579
G01 X0.4198 Y-7.4203
G01 X0.5160 Y-7.6756
G01 X0.6332 Y-7.9220
G01 X0.7705 Y-8.1578
G01 X0.9270 Y-8.3812
G01 X1.0248 Y-8.4894
G01 X1.1290 Y-8.5913
G01 X1.2392 Y-8.6867
G01 X1.3551 Y-8.7752
G01 X1.4761 Y-8.8565
G01 X1.6018 Y-8.9303
G01 X1.7319 Y-8.9962
G01 X1.8657 Y-9.0541
G01 X2.0028 Y-9.1038
G01 X2.1426 Y-9.1450
G01 X2.2847 Y-9.1775
G01 X2.4285 Y-9.2014
G01 X2.5736 Y-9.2164
G01 X2.7192 Y-9.2226
G01 X2.8650 Y-9.2199
G01 X3.0103 Y-9.2083
G01 X3.1547 Y-9.1878
G01 X3.2975 Y-9.1586
G01 X3.4383 Y-9.1208
G01 X3.5765 Y-9.0744
G01 X3.7117 Y-9.0197
G01 X3.8432 Y-8.9568
G01 X3.9707 Y-8.8861
G01 X4.0936 Y-8.8077
G01 X4.2115 Y-8.7219
G01 X4.3240 Y-8.6292
G01 X4.4306 Y-8.5297
G01 X4.5309 Y-8.4239
G01 X4.6246 Y-8.3122
G01 X4.7113 Y-8.1950
G01 X4.7907 Y-8.0728
G01 X4.8625 Y-7.9459
G01 X4.9265 Y-7.8148
G01 X4.9823 Y-7.6802
G01 X5.0298 Y-7.5423
G01 X5.0688 Y-7.4018
G01 X5.0992 Y-7.2593
G01 X5.1208 Y-7.1151
G01 X5.1336 Y-6.9698
G01 X5.1375 Y-6.8241
G01 X5.1449 Y-6.8315
G01 X5.1624 Y-6.9442
G01 X5.1723 Y-7.0579
G01 X5.1745 Y-7.1720
G01 X5.1689 Y-7.2859
G01 X5.1556 Y-7.3993
G01 X5.1347 Y-7.5114
G01 X5.1062 Y-7.6219
G01 X5.0702 Y-7.7302
G01 X5.0271 Y-7.8358
G01 X4.9768 Y-7.9382
G01 X4.9198 Y-8.0371
G01 X4.8561 Y-8.1318
G01 X4.7862 Y-8.2219
G01 X4.7104 Y-8.3072
G01 X4.6289 Y-8.3871
G01 X4.5422 Y-8.4613
G01 X4.2336 Y-8.6957
G01 X3.9049 Y-8.9012
G01 X3.5590 Y-9.0759
G01 X3.1986 Y-9.2185
G01 X2.8267 Y-9.3278
G01 X2.4464 Y-9.4028
G01 X2.0609 Y-9.4429
G01 X1.6733 Y-9.4479
G01 X1.3545 Y-9.4237
G01 X1.0389 Y-9.3719
G01 X0.7290 Y-9.2928
G01 X0.4271 Y-9.1872
G01 X0.3456 Y-9.1741
G01 X0.2635 Y-9.1654
G01 X0.1811 Y-9.1609
G01 X0.0986 Y-9.1608
G01 X0.0161 Y-9.1650
G01 X-0.0660 Y-9.1735
G01 X-0.1475 Y-9.1863
G01 X-0.2283 Y-9.2033
G01 X-0.3081 Y-9.2245
G01 X-0.3866 Y-9.2499
G01 X-0.4637 Y-9.2793
G01 X-0.5392 Y-9.3127
G01 X-0.8630 Y-9.3811
G01 X-1.1912 Y-9.4239
G01 X-1.5218 Y-9.4408
G01 X-1.8526 Y-9.4316
G01 X-2.1818 Y-9.3964
G01 X-2.5071 Y-9.3355
G01 X-2.8266 Y-9.2493
G01 X-3.1384 Y-9.1381
G01 X-3.4405 Y-9.0029
G01 X-3.7310 Y-8.8443
G01 X-4.0082 Y-8.6634
G01 X-4.2702 Y-8.4613
G01 X-4.3500 Y-8.3935
G01 X-4.4254 Y-8.3209
G01 X-4.4961 Y-8.2437
G01 X-4.5618 Y-8.1623
G01 X-4.6224 Y-8.0769
G01 X-4.6775 Y-7.9879
G01 X-4.7269 Y-7.8957
G01 X-4.7705 Y-7.8005
G01 X-4.8081 Y-7.7028
G01 X-4.8395 Y-7.6030
G01 X-4.8646 Y-7.5014
G01 X-4.8833 Y-7.3984
G01 X-4.8956 Y-7.2945
G01 X-4.9013 Y-7.1900
G01 X-4.9006 Y-7.0853
G01 X-4.8933 Y-6.9809
G01 X-4.8804 Y-6.8908
G01 X-4.8729 Y-6.8315
G01 X-4.8660 Y-6.8242
G01 X-4.8620 Y-6.9661
G01 X-4.8495 Y-7.1075
G01 X-4.8288 Y-7.2479
G01 X-4.7997 Y-7.3868
G01 X-4.7625 Y-7.5238
G01 X-4.7172 Y-7.6584
G01 X-4.6640 Y-7.7900
G01 X-4.6032 Y-7.9182
G01 X-4.5348 Y-8.0426
G01 X-4.4592 Y-8.1628
G01 X-4.3766 Y-8.2782
G01 X-4.2873 Y-8.3886
G01 X-4.1917 Y-8.4935
G01 X-4.0900 Y-8.5925
G01 X-3.9826 Y-8.6853
G01 X-3.8699 Y-8.7716
G01 X-3.7522 Y-8.8511
G01 X-3.6301 Y-8.9235
G01 X-3.5039 Y-8.9885
G01 X-3.3741 Y-9.0459
G01 X-3.2411 Y-9.0956
G01 X-3.1054 Y-9.1372
G01 X-2.9675 Y-9.1708
G01 X-2.8278 Y-9.1961
G01 X-2.6869 Y-9.2132
G01 X-2.5452 Y-9.2218
G01 X-2.4033 Y-9.2221
G01 X-2.2616 Y-9.2139
G01 X-2.1206 Y-9.1973
G01 X-1.9808 Y-9.1725
G01 X-1.8428 Y-9.1394
G01 X-1.7069 Y-9.0982
G01 X-1.5738 Y-9.0490
G01 X-1.4438 Y-8.9920
G01 X-1.3174 Y-8.9274
G01 X-1.1950 Y-8.8554
G01 X-1.0771 Y-8.7763
G01 X-0.9641 Y-8.6904
G01 X-0.8564 Y-8.5979
G01 X-0.7544 Y-8.4993
G01 X-0.6584 Y-8.3947
G01 X-0.5687 Y-8.2846
G01 X-0.4857 Y-8.1695
G01 X-0.4097 Y-8.0496
G01 X-0.3410 Y-7.9254
G01 X-0.2797 Y-7.7974
G01 X-0.2260 Y-7.6659
G01 X-0.1803 Y-7.5316
G01 X-0.0928 Y-7.2134
G01 X-0.0341 Y-6.8886
G01 X-0.0045 Y-6.5600
G01 X-0.0042 Y-6.2300
G01 X-0.0334 Y-5.9013
G01 X-0.0918 Y-5.5765
G01 X-0.1789 Y-5.2582
G01 X-0.2940 Y-4.9489
G01 X-0.6198 Y-4.2353
G01 X-0.9777 Y-3.5371
G01 X-1.3670 Y-2.8559
G01 X-1.7867 Y-2.1931
G01 X-2.1271 Y-1.6650
G01 X-2.4518 Y-1.1271
G01 X-2.7606 Y-0.5799
G01 X-3.0532 Y-0.0239
G01 X-2.6984 Y0.6366
G01 X-2.3264 Y1.2874
G01 X-1.9373 Y1.9283
G01 X-1.5314 Y2.5586
G01 X-1.3283 Y2.8742
G01 X-1.1347 Y3.1958
G01 X-0.9508 Y3.5230
G01 X-0.7767 Y3.8556
G01 X-0.6126 Y4.1932
G01 X-0.4586 Y4.5355
G01 X-0.3149 Y4.8822
G01 X-0.1816 Y5.2331
G01 X-0.0988 Y5.4931
G01 X-0.0381 Y5.7590
G01 X0.0003 Y6.0292
G01 X0.0160 Y6.3015
G01 X0.0089 Y6.5742
G01 X-0.0209 Y6.8454
G01 X-0.0733 Y7.1132
G01 X-0.1478 Y7.3756
G01 X-0.2440 Y7.6309
G01 X-0.3612 Y7.8773
G01 X-0.4985 Y8.1131
G01 X-0.6550 Y8.3365
G01 X-0.7528 Y8.4447
G01 X-0.8570 Y8.5466
G01 X-0.9672 Y8.6420
G01 X-1.0831 Y8.7305
G01 X-1.2041 Y8.8118
G01 X-1.3299 Y8.8856
G01 X-1.4599 Y8.9515
G01 X-1.5937 Y9.0094
G01 X-1.7308 Y9.0591
G01 X-1.8706 Y9.1003
G01 X-2.0127 Y9.1328
G01 X-2.1566 Y9.1567
G01 X-2.3016 Y9.1717
G01 X-2.4472 Y9.1779
G01 X-2.5930 Y9.1752
G01 X-2.7383 Y9.1636
G01 X-2.8827 Y9.1432
G01 X-3.0255 Y9.1139
G01 X-3.1663 Y9.0761
G01 X-3.3045 Y9.0297
G01 X-3.4397 Y8.9750
G01 X-3.5712 Y8.9121
G01 X-3.6987 Y8.8414
G01 X-3.8216 Y8.7630
G01 X-3.9395 Y8.6772
G01 X-4.0520 Y8.5845
G01 X-4.1586 Y8.4850
G01 X-4.2589 Y8.3792
G01 X-4.3526 Y8.2675
G01 X-4.4393 Y8.1503
G01 X-4.5187 Y8.0281
G01 X-4.5905 Y7.9012
G01 X-4.6545 Y7.7701
G01 X-4.7103 Y7.6355
G01 X-4.7578 Y7.4976
G01 X-4.7968 Y7.3572
G01 X-4.8272 Y7.2146
G01 X-4.8488 Y7.0704
G01 X-4.8616 Y6.9252
G01 X-4.8656 Y6.7794
G01 X-4.8729 Y6.7868
G01 X-4.8904 Y6.8995
G01 X-4.9003 Y7.0132
G01 X-4.9025 Y7.1273
G01 X-4.8969 Y7.2412
G01 X-4.8836 Y7.3546
G01 X-4.8627 Y7.4667
G01 X-4.8342 Y7.5772
G01 X-4.7983 Y7.6855
G01 X-4.7551 Y7.7911
G01 X-4.7048 Y7.8936
G01 X-4.6478 Y7.9924
G01 X-4.5841 Y8.0871
G01 X-4.5142 Y8.1772
G01 X-4.4384 Y8.2625
G01 X-4.3569 Y8.3424
G01 X-4.2702 Y8.4166
G01 X-3.9616 Y8.6510
G01 X-3.6330 Y8.8565
G01 X-3.2870 Y9.0313
G01 X-2.9266 Y9.1738
G01 X-2.5547 Y9.2831
G01 X-2.1744 Y9.3581
G01 X-1.7889 Y9.3982
G01 X-1.4014 Y9.4032
G01 X-1.0825 Y9.3790
G01 X-0.7669 Y9.3272
G01 X-0.4570 Y9.2481
G01 X-0.1552 Y9.1425
G01 X-0.0736 Y9.1295
G01 X0.0084 Y9.1207
G01 X0.0909 Y9.1163
G01 X0.1734 Y9.1161
G01 X0.2558 Y9.1203
G01 X0.3379 Y9.1288
G01 X0.4195 Y9.1416
G01 X0.5003 Y9.1586
G01 X0.5800 Y9.1798
G01 X0.6586 Y9.2052
G01 X0.7357 Y9.2346
G01 X0.8112 Y9.2680
G01 X1.1350 Y9.3365
G01 X1.4632 Y9.3792
G01 X1.7938 Y9.3961
G01 X2.1246 Y9.3869
G01 X2.4537 Y9.3517
G01 X2.7791 Y9.2908
G01 X3.0986 Y9.2046
G01 X3.4104 Y9.0935
G01 X3.7125 Y8.9582
G01 X4.0030 Y8.7996
G01 X4.2801 Y8.6187
G01 X4.5422 Y8.4166
G01 X4.6220 Y8.3488
G01 X4.6974 Y8.2762
G01 X4.7681 Y8.1990
G01 X4.8338 Y8.1176
G01 X4.8944 Y8.0322
G01 X4.9495 Y7.9432
G01 X4.9989 Y7.8510
G01 X5.0425 Y7.7558
G01 X5.0801 Y7.6581
G01 X5.1115 Y7.5583
G01 X5.1366 Y7.4567
G01 X5.1553 Y7.3537
G01 X5.1676 Y7.2498
G01 X5.1733 Y7.1453
G01 X5.1725 Y7.0406
G01 X5.1652 Y6.9362
G01 X5.1523 Y6.8461
G01 X5.1449 Y6.7868
G01 X5.1380 Y6.7795
G01 X5.1343 Y6.9228
G01 X5.1221 Y7.0657
G01 X5.1013 Y7.2075
G01 X5.0721 Y7.3479
G01 X5.0345 Y7.4863
G01 X4.9886 Y7.6221
G01 X4.9347 Y7.7550
G01 X4.8729 Y7.8843
G01 X4.8035 Y8.0098
G01 X4.7266 Y8.1308
G01 X4.6426 Y8.2470
G01 X4.5518 Y8.3580
G01 X4.4545 Y8.4633
G01 X4.3511 Y8.5626
G01 X4.2419 Y8.6555
G01 X4.1273 Y8.7417
G01 X4.0078 Y8.8209
G01 X3.8837 Y8.8927
G01 X3.7555 Y8.9570
G01 X3.6237 Y9.0134
G01 X3.4888 Y9.0619
G01 X3.3511 Y9.1021
G01 X3.2114 Y9.1341
G01 X3.0699 Y9.1576
G01 X2.9273 Y9.1725
G01 X2.7841 Y9.1789
G01 X2.6407 Y9.1767
G01 X2.4978 Y9.1658
G01 X2.3557 Y9.1464
G01 X2.2150 Y9.1186
G01 X2.0763 Y9.0823
G01 X1.9400 Y9.0378
G01 X1.8067 Y8.9852
G01 X1.6767 Y8.9246
G01 X1.5506 Y8.8564
G01 X1.4288 Y8.7807
G01 X1.3118 Y8.6979
G01 X1.1999 Y8.6082
G01 X1.0936 Y8.5119
G01 X0.9933 Y8.4095
G01 X0.8994 Y8.3012
G01 X0.8121 Y8.1874
G01 X0.7318 Y8.0687
G01 X0.6587 Y7.9453
G00 Z5.0000
G00 X0.1255 Y1.9666
G00 Z-0.5000
G01 Z-2.0000 F300
G01 X0.1576 Y1.9773 F762
G01 X1.0144 Y0.4993
G01 X1.3785 Y-0.0148
G01 X1.3999 Y-0.1433
G01 X0.2004 Y-2.0711
G01 X0.1362
G01 X-0.4850 Y-1.0858
G01 X-0.9134 Y-0.4860
G01 X-1.1276 Y-0.0576
G01 X-0.7421 Y0.4993
G01 X0.0933 Y1.9559
G01 X0.1255 Y1.9666
G01 X-0.8750 Y2.4502
G01 X-0.6096 Y2.9387
G01 X-0.3560 Y3.4334
G01 X-0.1145 Y3.9342
G01 X0.1147 Y4.4406
G01 X0.1576
G01 X0.4216 Y3.8611
G01 X0.7009 Y3.2888
G01 X0.9952 Y2.7241
G01 X1.3044 Y2.1674
G01 X1.6282 Y1.6190
G01 X1.9665 Y1.0794
G01 X2.3188 Y0.5490
G01 X2.6851 Y0.0281
G01 Y-0.0790
G01 X2.2353 Y-0.8930
G01 X0.8430 Y-3.0992
G01 X0.1576 Y-4.4701
G01 X0.1147
G01 X-0.0805 Y-4.0254
G01 X-0.2892 Y-3.5868
G01 X-0.5112 Y-3.1547
G01 X-0.7463 Y-2.7297
G01 X-0.9943 Y-2.3120
G01 X-1.2549 Y-1.9021
G01 X-1.5279 Y-1.5004
G01 X-1.8131 Y-1.1072
G01 X-2.3700 Y-0.1861
G01 X-2.4128 Y0.0281
G01 X-2.0004 Y0.6155
G01 X-1.6064 Y1.2154
G01 X-1.2312 Y1.8271
G01 X-0.8750 Y2.4502
G00 Z5.0000
G00 X0.0094 Y-8.4296
G00 Z-0.5000
G01 Z-2.0000 F300
G01 X0.1147 Y-8.2400 F762
G01 X0.1576
G01 X0.3504 Y-8.6256
G01 X-0.0995
G01 X0.0094 Y-8.4296
G00 Z5.0000
G00 X0.1468 Y8.1998
G00 Z-0.5000
G01 Z-2.0000 F300
G01 X0.1147 Y8.1891 F762
G01 X-0.0780 Y8.5104
G01 Y8.5532
G01 X0.3504
G01 X0.1790 Y8.2105
G01 X0.1468 Y8.1998
G01 X0.6587 Y7.9453
G01 X0.5469 Y7.7056
G01 X0.4531 Y7.4583
G01 X0.3781 Y7.2048
G01 X0.3222 Y6.9463
G01 X0.2856 Y6.6844
G01 X0.2687 Y6.4204
G01 X0.2714 Y6.1560
G01 X0.2939 Y5.8925
G01 X0.3359 Y5.6314
G01 X0.3972 Y5.3741
G01 X0.4775 Y5.1222
G01 X0.5764 Y4.8769
G01 X0.9040 Y4.1654
G01 X1.2629 Y3.4692
G01 X1.6523 Y2.7896
G01 X2.0715 Y2.1280
G01 X2.4088 Y1.6048
G01 X2.7304 Y1.0719
G01 X3.0360 Y0.5296
G01 X3.3254 Y-0.0216
G01 X2.9704 Y-0.6817
G01 X2.5982 Y-1.3324
G01 X2.2091 Y-1.9730
G01 X1.8034 Y-2.6032
G01 X1.6003 Y-2.9189
G01 X1.4067 Y-3.2405
G01 X1.2228 Y-3.5677
G01 X1.0487 Y-3.9003
G01 X0.8846 Y-4.2378
G01 X0.7306 Y-4.5802
G01 X0.5869 Y-4.9269
G01 X0.4536 Y-5.2778
G01 X0.3708 Y-5.5378
G01 X0.3100 Y-5.8037
G01 X0.2717 Y-6.0738
G01 X0.2560 Y-6.3462
G01 X0.2631 Y-6.6189
G01 X0.2929 Y-6.8901
G01 X0.3453 Y-7.1579
G01 X0.4198 Y-7.4203
G01 X0.5160 Y-7.6756
G01 X0.6332 Y-7.9220
G01 X0.7705 Y-8.1578
G01 X0.9270 Y-8.3812
G01 X1.0248 Y-8.4894
G01 X1.1290 Y-8.5913
G01 X1.2392 Y-8.6867
G01 X1.3551 Y-8.7752
G01 X1.4761 Y-8.8565
G01 X1.6018 Y-8.9303
G01 X1.7319 Y-8.9962
G01 X1.8657 Y-9.0541
G01 X2.0028 Y-9.1038
G01 X2.1426 Y-9.1450
G01 X2.2847 Y-9.1775
G01 X2.4285 Y-9.2014
G01 X2.5736 Y-9.2164
G01 X2.7192 Y-9.2226
G01 X2.8650 Y-9.2199
G01 X3.0103 Y-9.2083
G01 X3.1547 Y-9.1878
G01 X3.2975 Y-9.1586
G01 X3.4383 Y-9.1208
G01 X3.5765 Y-9.0744
G01 X3.7117 Y-9.0197
G01 X3.8432 Y-8.9568
G01 X3.9707 Y-8.8861
G01 X4.0936 Y-8.8077
G01 X4.2115 Y-8.7219
G01 X4.3240 Y-8.6292
G01 X4.4306 Y-8.5297
G01 X4.5309 Y-8.4239
G01 X4.6246 Y-8.3122
G01 X4.7113 Y-8.1950
G01 X4.7907 Y-8.0728
G01 X4.8625 Y-7.9459
G01 X4.9265 Y-7.8148
G01 X4.9823 Y-7.6802
G01 X5.0298 Y-7.5423
G01 X5.0688 Y-7.4018
G01 X5.0992 Y-7.2593
G01 X5.1208 Y-7.1151
G01 X5.1336 Y-6.9698
G01 X5.1375 Y-6.8241
G01 X5.1449 Y-6.8315
G01 X5.1624 Y-6.9442
G01 X5.1723 Y-7.0579
G01 X5.1745 Y-7.1720
G01 X5.1689 Y-7.2859
G01 X5.1556 Y-7.3993
G01 X5.1347 Y-7.5114
G01 X5.1062 Y-7.6219
G01 X5.0702 Y-7.7302
G01 X5.0271 Y-7.8358
G01 X4.9768 Y-7.9382
G01 X4.9198 Y-8.0371
G01 X4.8561 Y-8.1318
G01 X4.7862 Y-8.2219
G01 X4.7104 Y-8.3072
G01 X4.6289 Y-8.3871
G01 X4.5422 Y-8.4613
G01 X4.2336 Y-8.6957
G01 X3.9049 Y-8.9012
G01 X3.5590 Y-9.0759
G01 X3.1986 Y-9.2185
G01 X2.8267 Y-9.3278
G01 X2.4464 Y-9.4028
G01 X2.0609 Y-9.4429
G01 X1.6733 Y-9.4479
G01 X1.3545 Y-9.4237
G01 X1.0389 Y-9.3719
G01 X0.7290 Y-9.2928
G01 X0.4271 Y-9.1872
G01 X0.3456 Y-9.1741
G01 X0.2635 Y-9.1654
G01 X0.1811 Y-9.1609
G01 X0.0986 Y-9.1608
G01 X0.0161 Y-9.1650
G01 X-0.0660 Y-9.1735
G01 X-0.1475 Y-9.1863
G01 X-0.2283 Y-9.2033
G01 X-0.3081 Y-9.2245
G01 X-0.3866 Y-9.2499
G01 X-0.4637 Y-9.2793
G01 X-0.5392 Y-9.3127
G01 X-0.8630 Y-9.3811
G01 X-1.1912 Y-9.4239
G01 X-1.5218 Y-9.4408
G01 X-1.8526 Y-9.4316
G01 X-2.1818 Y-9.3964
G01 X-2.5071 Y-9.3355
G01 X-2.8266 Y-9.2493
G01 X-3.1384 Y-9.1381
G01 X-3.4405 Y-9.0029
G01 X-3.7310 Y-8.8443
G01 X-4.0082 Y-8.6634
G01 X-4.2702 Y-8.4613
G01 X-4.3500 Y-8.3935
G01 X-4.4254 Y-8.3209
G01 X-4.4961 Y-8.2437
G01 X-4.5618 Y-8.1623
G01 X-4.6224 Y-8.0769
G01 X-4.6775 Y-7.9879
G01 X-4.7269 Y-7.8957
G01 X-4.7705 Y-7.8005
G01 X-4.8081 Y-7.7028
G01 X-4.8395 Y-7.6030
G01 X-4.8646 Y-7.5014
G01 X-4.8833 Y-7.3984
G01 X-4.8956 Y-7.2945
G01 X-4.9013 Y-7.1900
G01 X-4.9006 Y-7.0853
G01 X-4.8933 Y-6.9809
G01 X-4.8804 Y-6.8908
G01 X-4.8729 Y-6.8315
G01 X-4.8660 Y-6.8242
G01 X-4.8620 Y-6.9661
G01 X-4.8495 Y-7.1075
G01 X-4.8288 Y-7.2479
G01 X-4.7997 Y-7.3868
G01 X-4.7625 Y-7.5238
G01 X-4.7172 Y-7.6584
G01 X-4.6640 Y-7.7900
G01 X-4.6032 Y-7.9182
G01 X-4.5348 Y-8.0426
G01 X-4.4592 Y-8.1628
G01 X-4.3766 Y-8.2782
G01 X-4.2873 Y-8.3886
G01 X-4.1917 Y-8.4935
G01 X-4.0900 Y-8.5925
G01 X-3.9826 Y-8.6853
G01 X-3.8699 Y-8.7716
G01 X-3.7522 Y-8.8511
G01 X-3.6301 Y-8.9235
G01 X-3.5039 Y-8.9885
G01 X-3.3741 Y-9.0459
G01 X-3.2411 Y-9.0956
G01 X-3.1054 Y-9.1372
G01 X-2.9675 Y-9.1708
G01 X-2.8278 Y-9.1961
G01 X-2.6869 Y-9.2132
G01 X-2.5452 Y-9.2218
G01 X-2.4033 Y-9.2221
G01 X-2.2616 Y-9.2139
G01 X-2.1206 Y-9.1973
G01 X-1.9808 Y-9.1725
G01 X-1.8428 Y-9.1394
G01 X-1.7069 Y-9.0982
G01 X-1.5738 Y-9.0490
G01 X-1.4438 Y-8.9920
G01 X-1.3174 Y-8.9274
G01 X-1.1950 Y-8.8554
G01 X-1.0771 Y-8.7763
G01 X-0.9641 Y-8.6904
G01 X-0.8564 Y-8.5979
G01 X-0.7544 Y-8.4993
G01 X-0.6584 Y-8.3947
G01 X-0.5687 Y-8.2846
G01 X-0.4857 Y-8.1695
G01 X-0.4097 Y-8.0496
G01 X-0.3410 Y-7.9254
G01 X-0.2797 Y-7.7974
G01 X-0.2260 Y-7.6659
G01 X-0.1803 Y-7.5316
G01 X-0.0928 Y-7.2134
G01 X-0.0341 Y-6.8886
G01 X-0.0045 Y-6.5600
G01 X-0.0042 Y-6.2300
G01 X-0.0334 Y-5.9013
G01 X-0.0918 Y-5.5765
G01 X-0.1789 Y-5.2582
G01 X-0.2940 Y-4.9489
G01 X-0.6198 Y-4.2353
G01 X-0.9777 Y-3.5371
G01 X-1.3670 Y-2.8559
G01 X-1.7867 Y-2.1931
G01 X-2.1271 Y-1.6650
G01 X-2.4518 Y-1.1271
G01 X-2.7606 Y-0.5799
G01 X-3.0532 Y-0.0239
G01 X-2.6984 Y0.6366
G01 X-2.3264 Y1.2874
G01 X-1.9373 Y1.9283
G01 X-1.5314 Y2.5586
G01 X-1.3283 Y2.8742
G01 X-1.1347 Y3.1958
G01 X-0.9508 Y3.5230
G01 X-0.7767 Y3.8556
G01 X-0.6126 Y4.1932
G01 X-0.4586 Y4.5355
G01 X-0.3149 Y4.8822
G01 X-0.1816 Y5.2331
G01 X-0.0988 Y5.4931
G01 X-0.0381 Y5.7590
G01 X0.0003 Y6.0292
G01 X0.0160 Y6.3015
G01 X0.0089 Y6.5742
G01 X-0.0209 Y6.8454
G01 X-0.0733 Y7.1132
G01 X-0.1478 Y7.3756
G01 X-0.2440 Y7.6309
G01 X-0.3612 Y7.8773
G01 X-0.4985 Y8.1131
G01 X-0.6550 Y8.3365
G01 X-0.7528 Y8.4447
G01 X-0.8570 Y8.5466
G01 X-0.9672 Y8.6420
G01 X-1.0831 Y8.7305
G01 X-1.2041 Y8.8118
G01 X-1.3299 Y8.8856
G01 X-1.4599 Y8.9515
G01 X-1.5937 Y9.0094
G01 X-1.7308 Y9.0591
G01 X-1.8706 Y9.1003
G01 X-2.0127 Y9.1328
G01 X-2.1566 Y9.1567
G01 X-2.3016 Y9.1717
G01 X-2.4472 Y9.1779
G01 X-2.5930 Y9.1752
G01 X-2.7383 Y9.1636
G01 X-2.8827 Y9.1432
G01 X-3.0255 Y9.1139
G01 X-3.1663 Y9.0761
G01 X-3.3045 Y9.0297
G01 X-3.4397 Y8.9750
G01 X-3.5712 Y8.9121
G01 X-3.6987 Y8.8414
G01 X-3.8216 Y8.7630
G01 X-3.9395 Y8.6772
G01 X-4.0520 Y8.5845
G01 X-4.1586 Y8.4850
G01 X-4.2589 Y8.3792
G01 X-4.3526 Y8.2675
G01 X-4.4393 Y8.1503
G01 X-4.5187 Y8.0281
G01 X-4.5905 Y7.9012
G01 X-4.6545 Y7.7701
G01 X-4.7103 Y7.6355
G01 X-4.7578 Y7.4976
G01 X-4.7968 Y7.3572
G01 X-4.8272 Y7.2146
G01 X-4.8488 Y7.0704
G01 X-4.8616 Y6.9252
G01 X-4.8656 Y6.7794
G01 X-4.8729 Y6.7868
G01 X-4.8904 Y6.8995
G01 X-4.9003 Y7.0132
G01 X-4.9025 Y7.1273
G01 X-4.8969 Y7.2412
G01 X-4.8836 Y7.3546
G01 X-4.8627 Y7.4667
G01 X-4.8342 Y7.5772
G01 X-4.7983 Y7.6855
G01 X-4.7551 Y7.7911
G01 X-4.7048 Y7.8936
G01 X-4.6478 Y7.9924
G01 X-4.5841 Y8.0871
G01 X-4.5142 Y8.1772
G01 X-4.4384 Y8.2625
G01 X-4.3569 Y8.3424
G01 X-4.2702 Y8.4166
G01 X-3.9616 Y8.6510
G01 X-3.6330 Y8.8565
G01 X-3.2870 Y9.0313
G01 X-2.9266 Y9.1738
G01 X-2.5547 Y9.2831
G01 X-2.1744 Y9.3581
G01 X-1.7889 Y9.3982
G01 X-1.4014 Y9.4032
G01 X-1.0825 Y9.3790
G01 X-0.7669 Y9.3272
G01 X-0.4570 Y9.2481
G01 X-0.1552 Y9.1425
G01 X-0.0736 Y9.1295
G01 X0.0084 Y9.1207
G01 X0.0909 Y9.1163
G01 X0.1734 Y9.1161
G01 X0.2558 Y9.1203
G01 X0.3379 Y9.1288
G01 X0.4195 Y9.1416
G01 X0.5003 Y9.1586
G01 X0.5800 Y9.1798
G01 X0.6586 Y9.2052
G01 X0.7357 Y9.2346
G01 X0.8112 Y9.2680
G01 X1.1350 Y9.3365
G01 X1.4632 Y9.3792
G01 X1.7938 Y9.3961
G01 X2.1246 Y9.3869
G01 X2.4537 Y9.3517
G01 X2.7791 Y9.2908
G01 X3.0986 Y9.2046
G01 X3.4104 Y9.0935
G01 X3.7125 Y8.9582
G01 X4.0030 Y8.7996
G01 X4.2801 Y8.6187
G01 X4.5422 Y8.4166
G01 X4.6220 Y8.3488
G01 X4.6974 Y8.2762
G01 X4.7681 Y8.1990
G01 X4.8338 Y8.1176
G01 X4.8944 Y8.0322
G01 X4.9495 Y7.9432
G01 X4.9989 Y7.8510
G01 X5.0425 Y7.7558
G01 X5.0801 Y7.6581
G01 X5.1115 Y7.5583
G01 X5.1366 Y7.4567
G01 X5.1553 Y7.3537
G01 X5.1676 Y7.2498
G01 X5.1733 Y7.1453
G01 X5.1725 Y7.0406
G01 X5.1652 Y6.9362
G01 X5.1523 Y6.8461
G01 X5.1449 Y6.7868
G01 X5.1380 Y6.7795
G01 X5.1343 Y6.9228
G01 X5.1221 Y7.0657
G01 X5.1013 Y7.2075
G01 X5.0721 Y7.3479
G01 X5.0345 Y7.4863
G01 X4.9886 Y7.6221
G01 X4.9347 Y7.7550
G01 X4.8729 Y7.8843
G01 X4.8035 Y8.0098
G01 X4.7266 Y8.1308
G01 X4.6426 Y8.2470
G01 X4.5518 Y8.3580
G01 X4.4545 Y8.4633
G01 X4.3511 Y8.5626
G01 X4.2419 Y8.6555
G01 X4.1273 Y8.7417
G01 X4.0078 Y8.8209
G01 X3.8837 Y8.8927
G01 X3.7555 Y8.9570
G01 X3.6237 Y9.0134
G01 X3.4888 Y9.0619
G01 X3.3511 Y9.1021
G01 X3.2114 Y9.1341
G01 X3.0699 Y9.1576
G01 X2.9273 Y9.1725
G01 X2.7841 Y9.1789
G01 X2.6407 Y9.1767
G01 X2.4978 Y9.1658
G01 X2.3557 Y9.1464
G01 X2.2150 Y9.1186
G01 X2.0763 Y9.0823
G01 X1.9400 Y9.0378
G01 X1.8067 Y8.9852
G01 X1.6767 Y8.9246
G01 X1.5506 Y8.8564
G01 X1.4288 Y8.7807
G01 X1.3118 Y8.6979
G01 X1.1999 Y8.6082
G01 X1.0936 Y8.5119
G01 X0.9933 Y8.4095
G01 X0.8994 Y8.3012
G01 X0.8121 Y8.1874
G01 X0.7318 Y8.0687
G01 X0.6587 Y7.9453
G00 Z5.0000
G00 X0.1255 Y1.9666
G00 Z-1.5000
G01 Z-3.0000 F300
G01 X0.1576 Y1.9773 F762
G01 X1.0144 Y0.4993
G01 X1.3785 Y-0.0148
G01 X1.3999 Y-0.1433
G01 X0.2004 Y-2.0711
G01 X0.1362
G01 X-0.4850 Y-1.0858
G01 X-0.9134 Y-0.4860
G01 X-1.1276 Y-0.0576
G01 X-0.7421 Y0.4993
G01 X0.0933 Y1.9559
G01 X0.1255 Y1.9666
G01 X-0.8750 Y2.4502
G01 X-0.6096 Y2.9387
G01 X-0.3560 Y3.4334
G01 X-0.1145 Y3.9342
G01 X0.1147 Y4.4406
G01 X0.1576
G01 X0.4216 Y3.8611
G01 X0.7009 Y3.2888
G01 X0.9952 Y2.7241
G01 X1.3044 Y2.1674
G01 X1.6282 Y1.6190
G01 X1.9665 Y1.0794
G01 X2.3188 Y0.5490
G01 X2.6851 Y0.0281
G01 Y-0.0790
G01 X2.2353 Y-0.8930
G01 X0.8430 Y-3.0992
G01 X0.1576 Y-4.4701
G01 X0.1147
G01 X-0.0805 Y-4.0254
G01 X-0.2892 Y-3.5868
G01 X-0.5112 Y-3.1547
G01 X-0.7463 Y-2.7297
G01 X-0.9943 Y-2.3120
G01 X-1.2549 Y-1.9021
G01 X-1.5279 Y-1.5004
G01 X-1.8131 Y-1.1072
G01 X-2.3700 Y-0.1861
G01 X-2.4128 Y0.0281
G01 X-2.0004 Y0.6155
G01 X-1.6064 Y1.2154
G01 X-1.2312 Y1.8271
G01 X-0.8750 Y2.4502
G00 Z5.0000
G00 X0.0094 Y-8.4296
G00 Z-1.5000
G01 Z-3.0000 F300
G01 X0.1147 Y-8.2400 F762
G01 X0.1576
G01 X0.3504 Y-8.6256
G01 X-0.0995
G01 X0.0094 Y-8.4296
G00 Z5.0000
G00 X0.1468 Y8.1998
G00 Z-1.5000
G01 Z-3.0000 F300
G01 X0.1147 Y8.1891 F762
G01 X-0.0780 Y8.5104
G01 Y8.5532
G01 X0.3504
G01 X0.1790 Y8.2105
G01 X0.1468 Y8.1998
G01 X0.6587 Y7.9453
G01 X0.5469 Y7.7056
G01 X0.4531 Y7.4583
G01 X0.3781 Y7.2048
G01 X0.3222 Y6.9463
G01 X0.2856 Y6.6844
G01 X0.2687 Y6.4204
G01 X0.2714 Y6.1560
G01 X0.2939 Y5.8925
G01 X0.3359 Y5.6314
G01 X0.3972 Y5.3741
G01 X0.4775 Y5.1222
G01 X0.5764 Y4.8769
G01 X0.9040 Y4.1654
G01 X1.2629 Y3.4692
G01 X1.6523 Y2.7896
G01 X2.0715 Y2.1280
G01 X2.4088 Y1.6048
G01 X2.7304 Y1.0719
G01 X3.0360 Y0.5296
G01 X3.3254 Y-0.0216
G01 X2.9704 Y-0.6817
G01 X2.5982 Y-1.3324
G01 X2.2091 Y-1.9730
G01 X1.8034 Y-2.6032
G01 X1.6003 Y-2.9189
G01 X1.4067 Y-3.2405
G01 X1.2228 Y-3.5677
G01 X1.0487 Y-3.9003
G01 X0.8846 Y-4.2378
G01 X0.7306 Y-4.5802
G01 X0.5869 Y-4.9269
G01 X0.4536 Y-5.2778
G01 X0.3708 Y-5.5378
G01 X0.3100 Y-5.8037
G01 X0.2717 Y-6.0738
G01 X0.2560 Y-6.3462
G01 X0.2631 Y-6.6189
G01 X0.2929 Y-6.8901
G01 X0.3453 Y-7.1579
G01 X0.4198 Y-7.4203
G01 X0.5160 Y-7.6756
G01 X0.6332 Y-7.9220
G01 X0.7705 Y-8.1578
G01 X0.9270 Y-8.3812
G01 X1.0248 Y-8.4894
G01 X1.1290 Y-8.5913
G01 X1.2392 Y-8.6867
G01 X1.3551 Y-8.7752
G01 X1.4761 Y-8.8565
G01 X1.6018 Y-8.9303
G01 X1.7319 Y-8.9962
G01 X1.8657 Y-9.0541
G01 X2.0028 Y-9.1038
G01 X2.1426 Y-9.1450
G01 X2.2847 Y-9.1775
G01 X2.4285 Y-9.2014
G01 X2.5736 Y-9.2164
G01 X2.7192 Y-9.2226
G01 X2.8650 Y-9.2199
G01 X3.0103 Y-9.2083
G01 X3.1547 Y-9.1878
G01 X3.2975 Y-9.1586
G01 X3.4383 Y-9.1208
G01 X3.5765 Y-9.0744
G01 X3.7117 Y-9.0197
G01 X3.8432 Y-8.9568
G01 X3.9707 Y-8.8861
G01 X4.0936 Y-8.8077
G01 X4.2115 Y-8.7219
G01 X4.3240 Y-8.6292
G01 X4.4306 Y-8.5297
G01 X4.5309 Y-8.4239
G01 X4.6246 Y-8.3122
G01 X4.7113 Y-8.1950
G01 X4.7907 Y-8.0728
G01 X4.8625 Y-7.9459
G01 X4.9265 Y-7.8148
G01 X4.9823 Y-7.6802
G01 X5.0298 Y-7.5423
G01 X5.0688 Y-7.4018
G01 X5.0992 Y-7.2593
G01 X5.1208 Y-7.1151
G01 X5.1336 Y-6.9698
G01 X5.1375 Y-6.8241
G01 X5.1449 Y-6.8315
G01 X5.1624 Y-6.9442
G01 X5.1723 Y-7.0579
G01 X5.1745 Y-7.1720
G01 X5.1689 Y-7.2859
G01 X5.1556 Y-7.3993
G01 X5.1347 Y-7.5114
G01 X5.1062 Y-7.6219
G01 X5.0702 Y-7.7302
G01 X5.0271 Y-7.8358
G01 X4.9768 Y-7.9382
G01 X4.9198 Y-8.0371
G01 X4.8561 Y-8.1318
G01 X4.7862 Y-8.2219
G01 X4.7104 Y-8.3072
G01 X4.6289 Y-8.3871
G01 X4.5422 Y-8.4613
G01 X4.2336 Y-8.6957
G01 X3.9049 Y-8.9012
G01 X3.5590 Y-9.0759
G01 X3.1986 Y-9.2185
G01 X2.8267 Y-9.3278
G01 X2.4464 Y-9.4028
G01 X2.0609 Y-9.4429
G01 X1.6733 Y-9.4479
G01 X1.3545 Y-9.4237
G01 X1.0389 Y-9.3719
G01 X0.7290 Y-9.2928
G01 X0.4271 Y-9.1872
G01 X0.3456 Y-9.1741
G01 X0.2635 Y-9.1654
G01 X0.1811 Y-9.1609
G01 X0.0986 Y-9.1608
G01 X0.0161 Y-9.1650
G01 X-0.0660 Y-9.1735
G01 X-0.1475 Y-9.1863
G01 X-0.2283 Y-9.2033
G01 X-0.3081 Y-9.2245
G01 X-0.3866 Y-9.2499
G01 X-0.4637 Y-9.2793
G01 X-0.5392 Y-9.3127
G01 X-0.8630 Y-9.3811
G01 X-1.1912 Y-9.4239
G01 X-1.5218 Y-9.4408
G01 X-1.8526 Y-9.4316
G01 X-2.1818 Y-9.3964
G01 X-2.5071 Y-9.3355
G01 X-2.8266 Y-9.2493
G01 X-3.1384 Y-9.1381
G01 X-3.4405 Y-9.0029
G01 X-3.7310 Y-8.8443
G01 X-4.0082 Y-8.6634
G01 X-4.2702 Y-8.4613
G01 X-4.3500 Y-8.3935
G01 X-4.4254 Y-8.3209
G01 X-4.4961 Y-8.2437
G01 X-4.5618 Y-8.1623
G01 X-4.6224 Y-8.0769
G01 X-4.6775 Y-7.9879
G01 X-4.7269 Y-7.8957
G01 X-4.7705 Y-7.8005
G01 X-4.8081 Y-7.7028
G01 X-4.8395 Y-7.6030
G01 X-4.8646 Y-7.5014
G01 X-4.8833 Y-7.3984
G01 X-4.8956 Y-7.2945
G01 X-4.9013 Y-7.1900
G01 X-4.9006 Y-7.0853
G01 X-4.8933 Y-6.9809
G01 X-4.8804 Y-6.8908
G01 X-4.8729 Y-6.8315
G01 X-4.8660 Y-6.8242
G01 X-4.8620 Y-6.9661
G01 X-4.8495 Y-7.1075
G01 X-4.8288 Y-7.2479
G01 X-4.7997 Y-7.3868
G01 X-4.7625 Y-7.5238
G01 X-4.7172 Y-7.6584
G01 X-4.6640 Y-7.7900
G01 X-4.6032 Y-7.9182
G01 X-4.5348 Y-8.0426
G01 X-4.4592 Y-8.1628
G01 X-4.3766 Y-8.2782
G01 X-4.2873 Y-8.3886
G01 X-4.1917 Y-8.4935
G01 X-4.0900 Y-8.5925
G01 X-3.9826 Y-8.6853
G01 X-3.8699 Y-8.7716
G01 X-3.7522 Y-8.8511
G01 X-3.6301 Y-8.9235
G01 X-3.5039 Y-8.9885
G01 X-3.3741 Y-9.0459
G01 X-3.2411 Y-9.0956
G01 X-3.1054 Y-9.1372
G01 X-2.9675 Y-9.1708
G01 X-2.8278 Y-9.1961
G01 X-2.6869 Y-9.2132
G01 X-2.5452 Y-9.2218
G01 X-2.4033 Y-9.2221
G01 X-2.2616 Y-9.2139
G01 X-2.1206 Y-9.1973
G01 X-1.9808 Y-9.1725
G01 X-1.8428 Y-9.1394
G01 X-1.7069 Y-9.0982
G01 X-1.5738 Y-9.0490
G01 X-1.4438 Y-8.9920
G01 X-1.3174 Y-8.9274
G01 X-1.1950 Y-8.8554
G01 X-1.0771 Y-8.7763
G01 X-0.9641 Y-8.6904
G01 X-0.8564 Y-8.5979
G01 X-0.7544 Y-8.4993
G01 X-0.6584 Y-8.3947
G01 X-0.5687 Y-8.2846
G01 X-0.4857 Y-8.1695
G01 X-0.4097 Y-8.0496
G01 X-0.3410 Y-7.9254
G01 X-0.2797 Y-7.7974
G01 X-0.2260 Y-7.6659
G01 X-0.1803 Y-7.5316
G01 X-0.0928 Y-7.2134
G01 X-0.0341 Y-6.8886
G01 X-0.0045 Y-6.5600
G01 X-0.0042 Y-6.2300
G01 X-0.0334 Y-5.9013
G01 X-0.0918 Y-5.5765
G01 X-0.1789 Y-5.2582
G01 X-0.2940 Y-4.9489
G01 X-0.6198 Y-4.2353
G01 X-0.9777 Y-3.5371
G01 X-1.3670 Y-2.8559
G01 X-1.7867 Y-2.1931
G01 X-2.1271 Y-1.6650
G01 X-2.4518 Y-1.1271
G01 X-2.7606 Y-0.5799
G01 X-3.0532 Y-0.0239
G01 X-2.6984 Y0.6366
G01 X-2.3264 Y1.2874
G01 X-1.9373 Y1.9283
G01 X-1.5314 Y2.5586
G01 X-1.3283 Y2.8742
G01 X-1.1347 Y3.1958
G01 X-0.9508 Y3.5230
G01 X-0.7767 Y3.8556
G01 X-0.6126 Y4.1932
G01 X-0.4586 Y4.5355
G01 X-0.3149 Y4.8822
G01 X-0.1816 Y5.2331
G01 X-0.0988 Y5.4931
G01 X-0.0381 Y5.7590
G01 X0.0003 Y6.0292
G01 X0.0160 Y6.3015
G01 X0.0089 Y6.5742
G01 X-0.0209 Y6.8454
G01 X-0.0733 Y7.1132
G01 X-0.1478 Y7.3756
G01 X-0.2440 Y7.6309
G01 X-0.3612 Y7.8773
G01 X-0.4985 Y8.1131
G01 X-0.6550 Y8.3365
G01 X-0.7528 Y8.4447
G01 X-0.8570 Y8.5466
G01 X-0.9672 Y8.6420
G01 X-1.0831 Y8.7305
G01 X-1.2041 Y8.8118
G01 X-1.3299 Y8.8856
G01 X-1.4599 Y8.9515
G01 X-1.5937 Y9.0094
G01 X-1.7308 Y9.0591
G01 X-1.8706 Y9.1003
G01 X-2.0127 Y9.1328
G01 X-2.1566 Y9.1567
G01 X-2.3016 Y9.1717
G01 X-2.4472 Y9.1779
G01 X-2.5930 Y9.1752
G01 X-2.7383 Y9.1636
G01 X-2.8827 Y9.1432
G01 X-3.0255 Y9.1139
G01 X-3.1663 Y9.0761
G01 X-3.3045 Y9.0297
G01 X-3.4397 Y8.9750
G01 X-3.5712 Y8.9121
G01 X-3.6987 Y8.8414
G01 X-3.8216 Y8.7630
G01 X-3.9395 Y8.6772
G01 X-4.0520 Y8.5845
G01 X-4.1586 Y8.4850
G01 X-4.2589 Y8.3792
G01 X-4.3526 Y8.2675
G01 X-4.4393 Y8.1503
G01 X-4.5187 Y8.0281
G01 X-4.5905 Y7.9012
G01 X-4.6545 Y7.7701
G01 X-4.7103 Y7.6355
G01 X-4.7578 Y7.4976
G01 X-4.7968 Y7.3572
G01 X-4.8272 Y7.2146
G01 X-4.8488 Y7.0704
G01 X-4.8616 Y6.9252
G01 X-4.8656 Y6.7794
G01 X-4.8729 Y6.7868
G01 X-4.8904 Y6.8995
G01 X-4.9003 Y7.0132
G01 X-4.9025 Y7.1273
G01 X-4.8969 Y7.2412
G01 X-4.8836 Y7.3546
G01 X-4.8627 Y7.4667
G01 X-4.8342 Y7.5772
G01 X-4.7983 Y7.6855
G01 X-4.7551 Y7.7911
G01 X-4.7048 Y7.8936
G01 X-4.6478 Y7.9924
G01 X-4.5841 Y8.0871
G01 X-4.5142 Y8.1772
G01 X-4.4384 Y8.2625
G01 X-4.3569 Y8.3424
G01 X-4.2702 Y8.4166
G01 X-3.9616 Y8.6510
G01 X-3.6330 Y8.8565
G01 X-3.2870 Y9.0313
G01 X-2.9266 Y9.1738
G01 X-2.5547 Y9.2831
G01 X-2.1744 Y9.3581
G01 X-1.7889 Y9.3982
G01 X-1.4014 Y9.4032
G01 X-1.0825 Y9.3790
G01 X-0.7669 Y9.3272
G01 X-0.4570 Y9.2481
G01 X-0.1552 Y9.1425
G01 X-0.0736 Y9.1295
G01 X0.0084 Y9.1207
G01 X0.0909 Y9.1163
G01 X0.1734 Y9.1161
G01 X0.2558 Y9.1203
G01 X0.3379 Y9.1288
G01 X0.4195 Y9.1416
G01 X0.5003 Y9.1586
G01 X0.5800 Y9.1798
G01 X0.6586 Y9.2052
G01 X0.7357 Y9.2346
G01 X0.8112 Y9.2680
G01 X1.1350 Y9.3365
G01 X1.4632 Y9.3792
G01 X1.7938 Y9.3961
G01 X2.1246 Y9.3869
G01 X2.4537 Y9.3517
G01 X2.7791 Y9.2908
G01 X3.0986 Y9.2046
G01 X3.4104 Y9.0935
G01 X3.7125 Y8.9582
G01 X4.0030 Y8.7996
G01 X4.2801 Y8.6187
G01 X4.5422 Y8.4166
G01 X4.6220 Y8.3488
G01 X4.6974 Y8.2762
G01 X4.7681 Y8.1990
G01 X4.8338 Y8.1176
G01 X4.8944 Y8.0322
G01 X4.9495 Y7.9432
G01 X4.9989 Y7.8510
G01 X5.0425 Y7.7558
G01 X5.0801 Y7.6581
G01 X5.1115 Y7.5583
G01 X5.1366 Y7.4567
G01 X5.1553 Y7.3537
G01 X5.1676 Y7.2498
G01 X5.1733 Y7.1453
G01 X5.1725 Y7.0406
G01 X5.1652 Y6.9362
G01 X5.1523 Y6.8461
G01 X5.1449 Y6.7868
G01 X5.1380 Y6.7795
G01 X5.1343 Y6.9228
G01 X5.1221 Y7.0657
G01 X5.1013 Y7.2075
G01 X5.0721 Y7.3479
G01 X5.0345 Y7.4863
G01 X4.9886 Y7.6221
G01 X4.9347 Y7.7550
G01 X4.8729 Y7.8843
G01 X4.8035 Y8.0098
G01 X4.7266 Y8.1308
G01 X4.6426 Y8.2470
G01 X4.5518 Y8.3580
G01 X4.4545 Y8.4633
G01 X4.3511 Y8.5626
G01 X4.2419 Y8.6555
G01 X4.1273 Y8.7417
G01 X4.0078 Y8.8209
G01 X3.8837 Y8.8927
G01 X3.7555 Y8.9570
G01 X3.6237 Y9.0134
G01 X3.4888 Y9.0619
G01 X3.3511 Y9.1021
G01 X3.2114 Y9.1341
G01 X3.0699 Y9.1576
G01 X2.9273 Y9.1725
G01 X2.7841 Y9.1789
G01 X2.6407 Y9.1767
G01 X2.4978 Y9.1658
G01 X2.3557 Y9.1464
G01 X2.2150 Y9.1186
G01 X2.0763 Y9.0823
G01 X1.9400 Y9.0378
G01 X1.8067 Y8.9852
G01 X1.6767 Y8.9246
G01 X1.5506 Y8.8564
G01 X1.4288 Y8.7807
G01 X1.3118 Y8.6979
G01 X1.1999 Y8.6082
G01 X1.0936 Y8.5119
G01 X0.9933 Y8.4095
G01 X0.8994 Y8.3012
G01 X0.8121 Y8.1874
G01 X0.7318 Y8.0687
G01 X0.6587 Y7.9453
G00 Z5.0000
G00 X0.1255 Y1.9666
G00 Z-2.5000
G01 Z-4.0000 F300
G01 X0.1576 Y1.9773 F762
G01 X1.0144 Y0.4993
G01 X1.3785 Y-0.0148
G01 X1.3999 Y-0.1433
G01 X0.2004 Y-2.0711
G01 X0.1362
G01 X-0.4850 Y-1.0858
G01 X-0.9134 Y-0.4860
G01 X-1.1276 Y-0.0576
G01 X-0.7421 Y0.4993
G01 X0.0933 Y1.9559
G01 X0.1255 Y1.9666
G01 X-0.8750 Y2.4502
G01 X-0.6096 Y2.9387
G01 X-0.3560 Y3.4334
G01 X-0.1145 Y3.9342
G01 X0.1147 Y4.4406
G01 X0.1576
G01 X0.4216 Y3.8611
G01 X0.7009 Y3.2888
G01 X0.9952 Y2.7241
G01 X1.3044 Y2.1674
G01 X1.6282 Y1.6190
G01 X1.9665 Y1.0794
G01 X2.3188 Y0.5490
G01 X2.6851 Y0.0281
G01 Y-0.0790
G01 X2.2353 Y-0.8930
G01 X0.8430 Y-3.0992
G01 X0.1576 Y-4.4701
G01 X0.1147
G01 X-0.0805 Y-4.0254
G01 X-0.2892 Y-3.5868
G01 X-0.5112 Y-3.1547
G01 X-0.7463 Y-2.7297
G01 X-0.9943 Y-2.3120
G01 X-1.2549 Y-1.9021
G01 X-1.5279 Y-1.5004
G01 X-1.8131 Y-1.1072
G01 X-2.3700 Y-0.1861
G01 X-2.4128 Y0.0281
G01 X-2.0004 Y0.6155
G01 X-1.6064 Y1.2154
G01 X-1.2312 Y1.8271
G01 X-0.8750 Y2.4502
G00 Z5.0000
G00 X0.0094 Y-8.4296
G00 Z-2.5000
G01 Z-4.0000 F300
G01 X0.1147 Y-8.2400 F762
G01 X0.1576
G01 X0.3504 Y-8.6256
G01 X-0.0995
G01 X0.0094 Y-8.4296
G00 Z5.0000
G00 X0.1468 Y8.1998
G00 Z-2.5000
G01 Z-4.0000 F300
G01 X0.1147 Y8.1891 F762
G01 X-0.0780 Y8.5104
G01 Y8.5532
G01 X0.3504
G01 X0.1790 Y8.2105
G01 X0.1468 Y8.1998
G01 X0.6587 Y7.9453
G01 X0.5469 Y7.7056
G01 X0.4531 Y7.4583
G01 X0.3781 Y7.2048
G01 X0.3222 Y6.9463
G01 X0.2856 Y6.6844
G01 X0.2687 Y6.4204
G01 X0.2714 Y6.1560
G01 X0.2939 Y5.8925
G01 X0.3359 Y5.6314
G01 X0.3972 Y5.3741
G01 X0.4775 Y5.1222
G01 X0.5764 Y4.8769
G01 X0.9040 Y4.1654
G01 X1.2629 Y3.4692
G01 X1.6523 Y2.7896
G01 X2.0715 Y2.1280
G01 X2.4088 Y1.6048
G01 X2.7304 Y1.0719
G01 X3.0360 Y0.5296
G01 X3.3254 Y-0.0216
G01 X2.9704 Y-0.6817
G01 X2.5982 Y-1.3324
G01 X2.2091 Y-1.9730
G01 X1.8034 Y-2.6032
G01 X1.6003 Y-2.9189
G01 X1.4067 Y-3.2405
G01 X1.2228 Y-3.5677
G01 X1.0487 Y-3.9003
G01 X0.8846 Y-4.2378
G01 X0.7306 Y-4.5802
G01 X0.5869 Y-4.9269
G01 X0.4536 Y-5.2778
G01 X0.3708 Y-5.5378
G01 X0.3100 Y-5.8037
G01 X0.2717 Y-6.0738
G01 X0.2560 Y-6.3462
G01 X0.2631 Y-6.6189
G01 X0.2929 Y-6.8901
G01 X0.3453 Y-7.1579
G01 X0.4198 Y-7.4203
G01 X0.5160 Y-7.6756
G01 X0.6332 Y-7.9220
G01 X0.7705 Y-8.1578
G01 X0.9270 Y-8.3812
G01 X1.0248 Y-8.4894
G01 X1.1290 Y-8.5913
G01 X1.2392 Y-8.6867
G01 X1.3551 Y-8.7752
G01 X1.4761 Y-8.8565
G01 X1.6018 Y-8.9303
G01 X1.7319 Y-8.9962
G01 X1.8657 Y-9.0541
G01 X2.0028 Y-9.1038
G01 X2.1426 Y-9.1450
G01 X2.2847 Y-9.1775
G01 X2.4285 Y-9.2014
G01 X2.5736 Y-9.2164
G01 X2.7192 Y-9.2226
G01 X2.8650 Y-9.2199
G01 X3.0103 Y-9.2083
G01 X3.1547 Y-9.1878
G01 X3.2975 Y-9.1586
G01 X3.4383 Y-9.1208
G01 X3.5765 Y-9.0744
G01 X3.7117 Y-9.0197
G01 X3.8432 Y-8.9568
G01 X3.9707 Y-8.8861
G01 X4.0936 Y-8.8077
G01 X4.2115 Y-8.7219
G01 X4.3240 Y-8.6292
G01 X4.4306 Y-8.5297
G01 X4.5309 Y-8.4239
G01 X4.6246 Y-8.3122
G01 X4.7113 Y-8.1950
G01 X4.7907 Y-8.0728
G01 X4.8625 Y-7.9459
G01 X4.9265 Y-7.8148
G01 X4.9823 Y-7.6802
G01 X5.0298 Y-7.5423
G01 X5.0688 Y-7.4018
G01 X5.0992 Y-7.2593
G01 X5.1208 Y-7.1151
G01 X5.1336 Y-6.9698
G01 X5.1375 Y-6.8241
G01 X5.1449 Y-6.8315
G01 X5.1624 Y-6.9442
G01 X5.1723 Y-7.0579
G01 X5.1745 Y-7.1720
G01 X5.1689 Y-7.2859
G01 X5.1556 Y-7.3993
G01 X5.1347 Y-7.5114
G01 X5.1062 Y-7.6219
G01 X5.0702 Y-7.7302
G01 X5.0271 Y-7.8358
G01 X4.9768 Y-7.9382
G01 X4.9198 Y-8.0371
G01 X4.8561 Y-8.1318
G01 X4.7862 Y-8.2219
G01 X4.7104 Y-8.3072
G01 X4.6289 Y-8.3871
G01 X4.5422 Y-8.4613
G01 X4.2336 Y-8.6957
G01 X3.9049 Y-8.9012
G01 X3.5590 Y-9.0759
G01 X3.1986 Y-9.2185
G01 X2.8267 Y-9.3278
G01 X2.4464 Y-9.4028
G01 X2.0609 Y-9.4429
G01 X1.6733 Y-9.4479
G01 X1.3545 Y-9.4237
G01 X1.0389 Y-9.3719
G01 X0.7290 Y-9.2928
G01 X0.4271 Y-9.1872
G01 X0.3456 Y-9.1741
G01 X0.2635 Y-9.1654
G01 X0.1811 Y-9.1609
G01 X0.0986 Y-9.1608
G01 X0.0161 Y-9.1650
G01 X-0.0660 Y-9.1735
G01 X-0.1475 Y-9.1863
G01 X-0.2283 Y-9.2033
G01 X-0.3081 Y-9.2245
G01 X-0.3866 Y-9.2499
G01 X-0.4637 Y-9.2793
G01 X-0.5392 Y-9.3127
G01 X-0.8630 Y-9.3811
G01 X-1.1912 Y-9.4239
G01 X-1.5218 Y-9.4408
G01 X-1.8526 Y-9.4316
G01 X-2.1818 Y-9.3964
G01 X-2.5071 Y-9.3355
G01 X-2.8266 Y-9.2493
G01 X-3.1384 Y-9.1381
G01 X-3.4405 Y-9.0029
G01 X-3.7310 Y-8.8443
G01 X-4.0082 Y-8.6634
G01 X-4.2702 Y-8.4613
G01 X-4.3500 Y-8.3935
G01 X-4.4254 Y-8.3209
G01 X-4.4961 Y-8.2437
G01 X-4.5618 Y-8.1623
G01 X-4.6224 Y-8.0769
G01 X-4.6775 Y-7.9879
G01 X-4.7269 Y-7.8957
G01 X-4.7705 Y-7.8005
G01 X-4.8081 Y-7.7028
G01 X-4.8395 Y-7.6030
G01 X-4.8646 Y-7.5014
G01 X-4.8833 Y-7.3984
G01 X-4.8956 Y-7.2945
G01 X-4.9013 Y-7.1900
G01 X-4.9006 Y-7.0853
G01 X-4.8933 Y-6.9809
G01 X-4.8804 Y-6.8908
G01 X-4.8729 Y-6.8315
G01 X-4.8660 Y-6.8242
G01 X-4.8620 Y-6.9661
G01 X-4.8495 Y-7.1075
G01 X-4.8288 Y-7.2479
G01 X-4.7997 Y-7.3868
G01 X-4.7625 Y-7.5238
G01 X-4.7172 Y-7.6584
G01 X-4.6640 Y-7.7900
G01 X-4.6032 Y-7.9182
G01 X-4.5348 Y-8.0426
G01 X-4.4592 Y-8.1628
G01 X-4.3766 Y-8.2782
G01 X-4.2873 Y-8.3886
G01 X-4.1917 Y-8.4935
G01 X-4.0900 Y-8.5925
G01 X-3.9826 Y-8.6853
G01 X-3.8699 Y-8.7716
G01 X-3.7522 Y-8.8511
G01 X-3.6301 Y-8.9235
G01 X-3.5039 Y-8.9885
G01 X-3.3741 Y-9.0459
G01 X-3.2411 Y-9.0956
G01 X-3.1054 Y-9.1372
G01 X-2.9675 Y-9.1708
G01 X-2.8278 Y-9.1961
G01 X-2.6869 Y-9.2132
G01 X-2.5452 Y-9.2218
G01 X-2.4033 Y-9.2221
G01 X-2.2616 Y-9.2139
G01 X-2.1206 Y-9.1973
G01 X-1.9808 Y-9.1725
G01 X-1.8428 Y-9.1394
G01 X-1.7069 Y-9.0982
G01 X-1.5738 Y-9.0490
G01 X-1.4438 Y-8.9920
G01 X-1.3174 Y-8.9274
G01 X-1.1950 Y-8.8554
G01 X-1.0771 Y-8.7763
G01 X-0.9641 Y-8.6904
G01 X-0.8564 Y-8.5979
G01 X-0.7544 Y-8.4993
G01 X-0.6584 Y-8.3947
G01 X-0.5687 Y-8.2846
G01 X-0.4857 Y-8.1695
G01 X-0.4097 Y-8.0496
G01 X-0.3410 Y-7.9254
G01 X-0.2797 Y-7.7974
G01 X-0.2260 Y-7.6659
G01 X-0.1803 Y-7.5316
G01 X-0.0928 Y-7.2134
G01 X-0.0341 Y-6.8886
G01 X-0.0045 Y-6.5600
G01 X-0.0042 Y-6.2300
G01 X-0.0334 Y-5.9013
G01 X-0.0918 Y-5.5765
G01 X-0.1789 Y-5.2582
G01 X-0.2940 Y-4.9489
G01 X-0.6198 Y-4.2353
G01 X-0.9777 Y-3.5371
G01 X-1.3670 Y-2.8559
G01 X-1.7867 Y-2.1931
G01 X-2.1271 Y-1.6650
G01 X-2.4518 Y-1.1271
G01 X-2.7606 Y-0.5799
G01 X-3.0532 Y-0.0239
G01 X-2.6984 Y0.6366
G01 X-2.3264 Y1.2874
G01 X-1.9373 Y1.9283
G01 X-1.5314 Y2.5586
G01 X-1.3283 Y2.8742
G01 X-1.1347 Y3.1958
G01 X-0.9508 Y3.5230
G01 X-0.7767 Y3.8556
G01 X-0.6126 Y4.1932
G01 X-0.4586 Y4.5355
G01 X-0.3149 Y4.8822
G01 X-0.1816 Y5.2331
G01 X-0.0988 Y5.4931
G01 X-0.0381 Y5.7590
G01 X0.0003 Y6.0292
G01 X0.0160 Y6.3015
G01 X0.0089 Y6.5742
G01 X-0.0209 Y6.8454
G01 X-0.0733 Y7.1132
G01 X-0.1478 Y7.3756
G01 X-0.2440 Y7.6309
G01 X-0.3612 Y7.8773
G01 X-0.4985 Y8.1131
G01 X-0.6550 Y8.3365
G01 X-0.7528 Y8.4447
G01 X-0.8570 Y8.5466
G01 X-0.9672 Y8.6420
G01 X-1.0831 Y8.7305
G01 X-1.2041 Y8.8118
G01 X-1.3299 Y8.8856
G01 X-1.4599 Y8.9515
G01 X-1.5937 Y9.0094
G01 X-1.7308 Y9.0591
G01 X-1.8706 Y9.1003
G01 X-2.0127 Y9.1328
G01 X-2.1566 Y9.1567
G01 X-2.3016 Y9.1717
G01 X-2.4472 Y9.1779
G01 X-2.5930 Y9.1752
G01 X-2.7383 Y9.1636
G01 X-2.8827 Y9.1432
G01 X-3.0255 Y9.1139
G01 X-3.1663 Y9.0761
G01 X-3.3045 Y9.0297
G01 X-3.4397 Y8.9750
G01 X-3.5712 Y8.9121
G01 X-3.6987 Y8.8414
G01 X-3.8216 Y8.7630
G01 X-3.9395 Y8.6772
G01 X-4.0520 Y8.5845
G01 X-4.1586 Y8.4850
G01 X-4.2589 Y8.3792
G01 X-4.3526 Y8.2675
G01 X-4.4393 Y8.1503
G01 X-4.5187 Y8.0281
G01 X-4.5905 Y7.9012
G01 X-4.6545 Y7.7701
G01 X-4.7103 Y7.6355
G01 X-4.7578 Y7.4976
G01 X-4.7968 Y7.3572
G01 X-4.8272 Y7.2146
G01 X-4.8488 Y7.0704
G01 X-4.8616 Y6.9252
G01 X-4.8656 Y6.7794
G01 X-4.8729 Y6.7868
G01 X-4.8904 Y6.8995
G01 X-4.9003 Y7.0132
G01 X-4.9025 Y7.1273
G01 X-4.8969 Y7.2412
G01 X-4.8836 Y7.3546
G01 X-4.8627 Y7.4667
G01 X-4.8342 Y7.5772
G01 X-4.7983 Y7.6855
G01 X-4.7551 Y7.7911
G01 X-4.7048 Y7.8936
G01 X-4.6478 Y7.9924
G01 X-4.5841 Y8.0871
G01 X-4.5142 Y8.1772
G01 X-4.4384 Y8.2625
G01 X-4.3569 Y8.3424
G01 X-4.2702 Y8.4166
G01 X-3.9616 Y8.6510
G01 X-3.6330 Y8.8565
G01 X-3.2870 Y9.0313
G01 X-2.9266 Y9.1738
G01 X-2.5547 Y9.2831
G01 X-2.1744 Y9.3581
G01 X-1.7889 Y9.3982
G01 X-1.4014 Y9.4032
G01 X-1.0825 Y9.3790
G01 X-0.7669 Y9.3272
G01 X-0.4570 Y9.2481
G01 X-0.1552 Y9.1425
G01 X-0.0736 Y9.1295
G01 X0.0084 Y9.1207
G01 X0.0909 Y9.1163
G01 X0.1734 Y9.1161
G01 X0.2558 Y9.1203
G01 X0.3379 Y9.1288
G01 X0.4195 Y9.1416
G01 X0.5003 Y9.1586
G01 X0.5800 Y9.1798
G01 X0.6586 Y9.2052
G01 X0.7357 Y9.2346
G01 X0.8112 Y9.2680
G01 X1.1350 Y9.3365
G01 X1.4632 Y9.3792
G01 X1.7938 Y9.3961
G01 X2.1246 Y9.3869
G01 X2.4537 Y9.3517
G01 X2.7791 Y9.2908
G01 X3.0986 Y9.2046
G01 X3.4104 Y9.0935
G01 X3.7125 Y8.9582
G01 X4.0030 Y8.7996
G01 X4.2801 Y8.6187
G01 X4.5422 Y8.4166
G01 X4.6220 Y8.3488
G01 X4.6974 Y8.2762
G01 X4.7681 Y8.1990
G01 X4.8338 Y8.1176
G01 X4.8944 Y8.0322
G01 X4.9495 Y7.9432
G01 X4.9989 Y7.8510
G01 X5.0425 Y7.7558
G01 X5.0801 Y7.6581
G01 X5.1115 Y7.5583
G01 X5.1366 Y7.4567
G01 X5.1553 Y7.3537
G01 X5.1676 Y7.2498
G01 X5.1733 Y7.1453
G01 X5.1725 Y7.0406
G01 X5.1652 Y6.9362
G01 X5.1523 Y6.8461
G01 X5.1449 Y6.7868
G01 X5.1380 Y6.7795
G01 X5.1343 Y6.9228
G01 X5.1221 Y7.0657
G01 X5.1013 Y7.2075
G01 X5.0721 Y7.3479
G01 X5.0345 Y7.4863
G01 X4.9886 Y7.6221
G01 X4.9347 Y7.7550
G01 X4.8729 Y7.8843
G01 X4.8035 Y8.0098
G01 X4.7266 Y8.1308
G01 X4.6426 Y8.2470
G01 X4.5518 Y8.3580
G01 X4.4545 Y8.4633
G01 X4.3511 Y8.5626
G01 X4.2419 Y8.6555
G01 X4.1273 Y8.7417
G01 X4.0078 Y8.8209
G01 X3.8837 Y8.8927
G01 X3.7555 Y8.9570
G01 X3.6237 Y9.0134
G01 X3.4888 Y9.0619
G01 X3.3511 Y9.1021
G01 X3.2114 Y9.1341
G01 X3.0699 Y9.1576
G01 X2.9273 Y9.1725
G01 X2.7841 Y9.1789
G01 X2.6407 Y9.1767
G01 X2.4978 Y9.1658
G01 X2.3557 Y9.1464
G01 X2.2150 Y9.1186
G01 X2.0763 Y9.0823
G01 X1.9400 Y9.0378
G01 X1.8067 Y8.9852
G01 X1.6767 Y8.9246
G01 X1.5506 Y8.8564
G01 X1.4288 Y8.7807
G01 X1.3118 Y8.6979
G01 X1.1999 Y8.6082
G01 X1.0936 Y8.5119
G01 X0.9933 Y8.4095
G01 X0.8994 Y8.3012
G01 X0.8121 Y8.1874
G01 X0.7318 Y8.0687
G01 X0.6587 Y7.9453
G00 Z5.0000
G00 X0.1255 Y1.9666
G00 Z-3.5000
G01 Z-5.0000 F300
G01 X0.1576 Y1.9773 F762
G01 X1.0144 Y0.4993
G01 X1.3785 Y-0.0148
G01 X1.3999 Y-0.1433
G01 X0.2004 Y-2.0711
G01 X0.1362
G01 X-0.4850 Y-1.0858
G01 X-0.9134 Y-0.4860
G01 X-1.1276 Y-0.0576
G01 X-0.7421 Y0.4993
G01 X0.0933 Y1.9559
G01 X0.1255 Y1.9666
G01 X-0.8750 Y2.4502
G01 X-0.6096 Y2.9387
G01 X-0.3560 Y3.4334
G01 X-0.1145 Y3.9342
G01 X0.1147 Y4.4406
G01 X0.1576
G01 X0.4216 Y3.8611
G01 X0.7009 Y3.2888
G01 X0.9952 Y2.7241
G01 X1.3044 Y2.1674
G01 X1.6282 Y1.6190
G01 X1.9665 Y1.0794
G01 X2.3188 Y0.5490
G01 X2.6851 Y0.0281
G01 Y-0.0790
G01 X2.2353 Y-0.8930
G01 X0.8430 Y-3.0992
G01 X0.1576 Y-4.4701
G01 X0.1147
G01 X-0.0805 Y-4.0254
G01 X-0.2892 Y-3.5868
G01 X-0.5112 Y-3.1547
G01 X-0.7463 Y-2.7297
G01 X-0.9943 Y-2.3120
G01 X-1.2549 Y-1.9021
G01 X-1.5279 Y-1.5004
G01 X-1.8131 Y-1.1072
G01 X-2.3700 Y-0.1861
G01 X-2.4128 Y0.0281
G01 X-2.0004 Y0.6155
G01 X-1.6064 Y1.2154
G01 X-1.2312 Y1.8271
G01 X-0.8750 Y2.4502
G00 Z5.0000
G00 X0.0094 Y-8.4296
G00 Z-3.5000
G01 Z-5.0000 F300
G01 X0.1147 Y-8.2400 F762
G01 X0.1576
G01 X0.3504 Y-8.6256
G01 X-0.0995
G01 X0.0094 Y-8.4296
G00 Z5.0000
G00 X0.1468 Y8.1998
G00 Z-3.5000
G01 Z-5.0000 F300
G01 X0.1147 Y8.1891 F762
G01 X-0.0780 Y8.5104
G01 Y8.5532
G01 X0.3504
G01 X0.1790 Y8.2105
G01 X0.1468 Y8.1998
G01 X0.6587 Y7.9453
G01 X0.5469 Y7.7056
G01 X0.4531 Y7.4583
G01 X0.3781 Y7.2048
G01 X0.3222 Y6.9463
G01 X0.2856 Y6.6844
G01 X0.2687 Y6.4204
G01 X0.2714 Y6.1560
G01 X0.2939 Y5.8925
G01 X0.3359 Y5.6314
G01 X0.3972 Y5.3741
G01 X0.4775 Y5.1222
G01 X0.5764 Y4.8769
G01 X0.9040 Y4.1654
G01 X1.2629 Y3.4692
G01 X1.6523 Y2.7896
G01 X2.0715 Y2.1280
G01 X2.4088 Y1.6048
G01 X2.7304 Y1.0719
G01 X3.0360 Y0.5296
G01 X3.3254 Y-0.0216
G01 X2.9704 Y-0.6817
G01 X2.5982 Y-1.3324
G01 X2.2091 Y-1.9730
G01 X1.8034 Y-2.6032
G01 X1.6003 Y-2.9189
G01 X1.4067 Y-3.2405
G01 X1.2228 Y-3.5677
G01 X1.0487 Y-3.9003
G01 X0.8846 Y-4.2378
G01 X0.7306 Y-4.5802
G01 X0.5869 Y-4.9269
G01 X0.4536 Y-5.2778
G01 X0.3708 Y-5.5378
G01 X0.3100 Y-5.8037
G01 X0.2717 Y-6.0738
G01 X0.2560 Y-6.3462
G01 X0.2631 Y-6.6189
G01 X0.2929 Y-6.8901
G01 X0.3453 Y-7.1579
G01 X0.4198 Y-7.4203
G01 X0.5160 Y-7.6756
G01 X0.6332 Y-7.9220
G01 X0.7705 Y-8.1578
G01 X0.9270 Y-8.3812
G01 X1.0248 Y-8.4894
G01 X1.1290 Y-8.5913
G01 X1.2392 Y-8.6867
G01 X1.3551 Y-8.7752
G01 X1.4761 Y-8.8565
G01 X1.6018 Y-8.9303
G01 X1.7319 Y-8.9962
G01 X1.8657 Y-9.0541
G01 X2.0028 Y-9.1038
G01 X2.1426 Y-9.1450
G01 X2.2847 Y-9.1775
G01 X2.4285 Y-9.2014
G01 X2.5736 Y-9.2164
G01 X2.7192 Y-9.2226
G01 X2.8650 Y-9.2199
G01 X3.0103 Y-9.2083
G01 X3.1547 Y-9.1878
G01 X3.2975 Y-9.1586
G01 X3.4383 Y-9.1208
G01 X3.5765 Y-9.0744
G01 X3.7117 Y-9.0197
G01 X3.8432 Y-8.9568
G01 X3.9707 Y-8.8861
G01 X4.0936 Y-8.8077
G01 X4.2115 Y-8.7219
G01 X4.3240 Y-8.6292
G01 X4.4306 Y-8.5297
G01 X4.5309 Y-8.4239
G01 X4.6246 Y-8.3122
G01 X4.7113 Y-8.1950
G01 X4.7907 Y-8.0728
G01 X4.8625 Y-7.9459
G01 X4.9265 Y-7.8148
G01 X4.9823 Y-7.6802
G01 X5.0298 Y-7.5423
G01 X5.0688 Y-7.4018
G01 X5.0992 Y-7.2593
G01 X5.1208 Y-7.1151
G01 X5.1336 Y-6.9698
G01 X5.1375 Y-6.8241
G01 X5.1449 Y-6.8315
G01 X5.1624 Y-6.9442
G01 X5.1723 Y-7.0579
G01 X5.1745 Y-7.1720
G01 X5.1689 Y-7.2859
G01 X5.1556 Y-7.3993
G01 X5.1347 Y-7.5114
G01 X5.1062 Y-7.6219
G01 X5.0702 Y-7.7302
G01 X5.0271 Y-7.8358
G01 X4.9768 Y-7.9382
G01 X4.9198 Y-8.0371
G01 X4.8561 Y-8.1318
G01 X4.7862 Y-8.2219
G01 X4.7104 Y-8.3072
G01 X4.6289 Y-8.3871
G01 X4.5422 Y-8.4613
G01 X4.2336 Y-8.6957
G01 X3.9049 Y-8.9012
G01 X3.5590 Y-9.0759
G01 X3.1986 Y-9.2185
G01 X2.8267 Y-9.3278
G01 X2.4464 Y-9.4028
G01 X2.0609 Y-9.4429
G01 X1.6733 Y-9.4479
G01 X1.3545 Y-9.4237
G01 X1.0389 Y-9.3719
G01 X0.7290 Y-9.2928
G01 X0.4271 Y-9.1872
G01 X0.3456 Y-9.1741
G01 X0.2635 Y-9.1654
G01 X0.1811 Y-9.1609
G01 X0.0986 Y-9.1608
G01 X0.0161 Y-9.1650
G01 X-0.0660 Y-9.1735
G01 X-0.1475 Y-9.1863
G01 X-0.2283 Y-9.2033
G01 X-0.3081 Y-9.2245
G01 X-0.3866 Y-9.2499
G01 X-0.4637 Y-9.2793
G01 X-0.5392 Y-9.3127
G01 X-0.8630 Y-9.3811
G01 X-1.1912 Y-9.4239
G01 X-1.5218 Y-9.4408
G01 X-1.8526 Y-9.4316
G01 X-2.1818 Y-9.3964
G01 X-2.5071 Y-9.3355
G01 X-2.8266 Y-9.2493
G01 X-3.1384 Y-9.1381
G01 X-3.4405 Y-9.0029
G01 X-3.7310 Y-8.8443
G01 X-4.0082 Y-8.6634
G01 X-4.2702 Y-8.4613
G01 X-4.3500 Y-8.3935
G01 X-4.4254 Y-8.3209
G01 X-4.4961 Y-8.2437
G01 X-4.5618 Y-8.1623
G01 X-4.6224 Y-8.0769
G01 X-4.6775 Y-7.9879
G01 X-4.7269 Y-7.8957
G01 X-4.7705 Y-7.8005
G01 X-4.8081 Y-7.7028
G01 X-4.8395 Y-7.6030
G01 X-4.8646 Y-7.5014
G01 X-4.8833 Y-7.3984
G01 X-4.8956 Y-7.2945
G01 X-4.9013 Y-7.1900
G01 X-4.9006 Y-7.0853
G01 X-4.8933 Y-6.9809
G01 X-4.8804 Y-6.8908
G01 X-4.8729 Y-6.8315
G01 X-4.8660 Y-6.8242
G01 X-4.8620 Y-6.9661
G01 X-4.8495 Y-7.1075
G01 X-4.8288 Y-7.2479
G01 X-4.7997 Y-7.3868
G01 X-4.7625 Y-7.5238
G01 X-4.7172 Y-7.6584
G01 X-4.6640 Y-7.7900
G01 X-4.6032 Y-7.9182
G01 X-4.5348 Y-8.0426
G01 X-4.4592 Y-8.1628
G01 X-4.3766 Y-8.2782
G01 X-4.2873 Y-8.3886
G01 X-4.1917 Y-8.4935
G01 X-4.0900 Y-8.5925
G01 X-3.9826 Y-8.6853
G01 X-3.8699 Y-8.7716
G01 X-3.7522 Y-8.8511
G01 X-3.6301 Y-8.9235
G01 X-3.5039 Y-8.9885
G01 X-3.3741 Y-9.0459
G01 X-3.2411 Y-9.0956
G01 X-3.1054 Y-9.1372
G01 X-2.9675 Y-9.1708
G01 X-2.8278 Y-9.1961
G01 X-2.6869 Y-9.2132
G01 X-2.5452 Y-9.2218
G01 X-2.4033 Y-9.2221
G01 X-2.2616 Y-9.2139
G01 X-2.1206 Y-9.1973
G01 X-1.9808 Y-9.1725
G01 X-1.8428 Y-9.1394
G01 X-1.7069 Y-9.0982
G01 X-1.5738 Y-9.0490
G01 X-1.4438 Y-8.9920
G01 X-1.3174 Y-8.9274
G01 X-1.1950 Y-8.8554
G01 X-1.0771 Y-8.7763
G01 X-0.9641 Y-8.6904
G01 X-0.8564 Y-8.5979
G01 X-0.7544 Y-8.4993
G01 X-0.6584 Y-8.3947
G01 X-0.5687 Y-8.2846
G01 X-0.4857 Y-8.1695
G01 X-0.4097 Y-8.0496
G01 X-0.3410 Y-7.9254
G01 X-0.2797 Y-7.7974
G01 X-0.2260 Y-7.6659
G01 X-0.1803 Y-7.5316
G01 X-0.0928 Y-7.2134
G01 X-0.0341 Y-6.8886
G01 X-0.0045 Y-6.5600
G01 X-0.0042 Y-6.2300
G01 X-0.0334 Y-5.9013
G01 X-0.0918 Y-5.5765
G01 X-0.1789 Y-5.2582
G01 X-0.2940 Y-4.9489
G01 X-0.6198 Y-4.2353
G01 X-0.9777 Y-3.5371
G01 X-1.3670 Y-2.8559
G01 X-1.7867 Y-2.1931
G01 X-2.1271 Y-1.6650
G01 X-2.4518 Y-1.1271
G01 X-2.7606 Y-0.5799
G01 X-3.0532 Y-0.0239
G01 X-2.6984 Y0.6366
G01 X-2.3264 Y1.2874
G01 X-1.9373 Y1.9283
G01 X-1.5314 Y2.5586
G01 X-1.3283 Y2.8742
G01 X-1.1347 Y3.1958
G01 X-0.9508 Y3.5230
G01 X-0.7767 Y3.8556
G01 X-0.6126 Y4.1932
G01 X-0.4586 Y4.5355
G01 X-0.3149 Y4.8822
G01 X-0.1816 Y5.2331
G01 X-0.0988 Y5.4931
G01 X-0.0381 Y5.7590
G01 X0.0003 Y6.0292
G01 X0.0160 Y6.3015
G01 X0.0089 Y6.5742
G01 X-0.0209 Y6.8454
G01 X-0.0733 Y7.1132
G01 X-0.1478 Y7.3756
G01 X-0.2440 Y7.6309
G01 X-0.3612 Y7.8773
G01 X-0.4985 Y8.1131
G01 X-0.6550 Y8.3365
G01 X-0.7528 Y8.4447
G01 X-0.8570 Y8.5466
G01 X-0.9672 Y8.6420
G01 X-1.0831 Y8.7305
G01 X-1.2041 Y8.8118
G01 X-1.3299 Y8.8856
G01 X-1.4599 Y8.9515
G01 X-1.5937 Y9.0094
G01 X-1.7308 Y9.0591
G01 X-1.8706 Y9.1003
G01 X-2.0127 Y9.1328
G01 X-2.1566 Y9.1567
G01 X-2.3016 Y9.1717
G01 X-2.4472 Y9.1779
G01 X-2.5930 Y9.1752
G01 X-2.7383 Y9.1636
G01 X-2.8827 Y9.1432
G01 X-3.0255 Y9.1139
G01 X-3.1663 Y9.0761
G01 X-3.3045 Y9.0297
G01 X-3.4397 Y8.9750
G01 X-3.5712 Y8.9121
G01 X-3.6987 Y8.8414
G01 X-3.8216 Y8.7630
G01 X-3.9395 Y8.6772
G01 X-4.0520 Y8.5845
G01 X-4.1586 Y8.4850
G01 X-4.2589 Y8.3792
G01 X-4.3526 Y8.2675
G01 X-4.4393 Y8.1503
G01 X-4.5187 Y8.0281
G01 X-4.5905 Y7.9012
G01 X-4.6545 Y7.7701
G01 X-4.7103 Y7.6355
G01 X-4.7578 Y7.4976
G01 X-4.7968 Y7.3572
G01 X-4.8272 Y7.2146
G01 X-4.8488 Y7.0704
G01 X-4.8616 Y6.9252
G01 X-4.8656 Y6.7794
G01 X-4.8729 Y6.7868
G01 X-4.8904 Y6.8995
G01 X-4.9003 Y7.0132
G01 X-4.9025 Y7.1273
G01 X-4.8969 Y7.2412
G01 X-4.8836 Y7.3546
G01 X-4.8627 Y7.4667
G01 X-4.8342 Y7.5772
G01 X-4.7983 Y7.6855
G01 X-4.7551 Y7.7911
G01 X-4.7048 Y7.8936
G01 X-4.6478 Y7.9924
G01 X-4.5841 Y8.0871
G01 X-4.5142 Y8.1772
G01 X-4.4384 Y8.2625
G01 X-4.3569 Y8.3424
G01 X-4.2702 Y8.4166
G01 X-3.9616 Y8.6510
G01 X-3.6330 Y8.8565
G01 X-3.2870 Y9.0313
G01 X-2.9266 Y9.1738
G01 X-2.5547 Y9.2831
G01 X-2.1744 Y9.3581
G01 X-1.7889 Y9.3982
G01 X-1.4014 Y9.4032
G01 X-1.0825 Y9.3790
G01 X-0.7669 Y9.3272
G01 X-0.4570 Y9.2481
G01 X-0.1552 Y9.1425
G01 X-0.0736 Y9.1295
G01 X0.0084 Y9.1207
G01 X0.0909 Y9.1163
G01 X0.1734 Y9.1161
G01 X0.2558 Y9.1203
G01 X0.3379 Y9.1288
G01 X0.4195 Y9.1416
G01 X0.5003 Y9.1586
G01 X0.5800 Y9.1798
G01 X0.6586 Y9.2052
G01 X0.7357 Y9.2346
G01 X0.8112 Y9.2680
G01 X1.1350 Y9.3365
G01 X1.4632 Y9.3792
G01 X1.7938 Y9.3961
G01 X2.1246 Y9.3869
G01 X2.4537 Y9.3517
G01 X2.7791 Y9.2908
G01 X3.0986 Y9.2046
G01 X3.4104 Y9.0935
G01 X3.7125 Y8.9582
G01 X4.0030 Y8.7996
G01 X4.2801 Y8.6187
G01 X4.5422 Y8.4166
G01 X4.6220 Y8.3488
G01 X4.6974 Y8.2762
G01 X4.7681 Y8.1990
G01 X4.8338 Y8.1176
G01 X4.8944 Y8.0322
G01 X4.9495 Y7.9432
G01 X4.9989 Y7.8510
G01 X5.0425 Y7.7558
G01 X5.0801 Y7.6581
G01 X5.1115 Y7.5583
G01 X5.1366 Y7.4567
G01 X5.1553 Y7.3537
G01 X5.1676 Y7.2498
G01 X5.1733 Y7.1453
G01 X5.1725 Y7.0406
G01 X5.1652 Y6.9362
G01 X5.1523 Y6.8461
G01 X5.1449 Y6.7868
G01 X5.1380 Y6.7795
G01 X5.1343 Y6.9228
G01 X5.1221 Y7.0657
G01 X5.1013 Y7.2075
G01 X5.0721 Y7.3479
G01 X5.0345 Y7.4863
G01 X4.9886 Y7.6221
G01 X4.9347 Y7.7550
G01 X4.8729 Y7.8843
G01 X4.8035 Y8.0098
G01 X4.7266 Y8.1308
G01 X4.6426 Y8.2470
G01 X4.5518 Y8.3580
G01 X4.4545 Y8.4633
G01 X4.3511 Y8.5626
G01 X4.2419 Y8.6555
G01 X4.1273 Y8.7417
G01 X4.0078 Y8.8209
G01 X3.8837 Y8.8927
G01 X3.7555 Y8.9570
G01 X3.6237 Y9.0134
G01 X3.4888 Y9.0619
G01 X3.3511 Y9.1021
G01 X3.2114 Y9.1341
G01 X3.0699 Y9.1576
G01 X2.9273 Y9.1725
G01 X2.7841 Y9.1789
G01 X2.6407 Y9.1767
G01 X2.4978 Y9.1658
G01 X2.3557 Y9.1464
G01 X2.2150 Y9.1186
G01 X2.0763 Y9.0823
G01 X1.9400 Y9.0378
G01 X1.8067 Y8.9852
G01 X1.6767 Y8.9246
G01 X1.5506 Y8.8564
G01 X1.4288 Y8.7807
G01 X1.3118 Y8.6979
G01 X1.1999 Y8.6082
G01 X1.0936 Y8.5119
G01 X0.9933 Y8.4095
G01 X0.8994 Y8.3012
G01 X0.8121 Y8.1874
G01 X0.7318 Y8.0687
G01 X0.6587 Y7.9453
G00 Z5.0000
G00 X0.1255 Y1.9666
G00 Z-4.5000
G01 Z-6.0000 F300
G01 X0.1576 Y1.9773 F762
G01 X1.0144 Y0.4993
G01 X1.3785 Y-0.0148
G01 X1.3999 Y-0.1433
G01 X0.2004 Y-2.0711
G01 X0.1362
G01 X-0.4850 Y-1.0858
G01 X-0.9134 Y-0.4860
G01 X-1.1276 Y-0.0576
G01 X-0.7421 Y0.4993
G01 X0.0933 Y1.9559
G01 X0.1255 Y1.9666
G01 X-0.8750 Y2.4502
G01 X-0.6096 Y2.9387
G01 X-0.3560 Y3.4334
G01 X-0.1145 Y3.9342
G01 X0.1147 Y4.4406
G01 X0.1576
G01 X0.4216 Y3.8611
G01 X0.7009 Y3.2888
G01 X0.9952 Y2.7241
G01 X1.3044 Y2.1674
G01 X1.6282 Y1.6190
G01 X1.9665 Y1.0794
G01 X2.3188 Y0.5490
G01 X2.6851 Y0.0281
G01 Y-0.0790
G01 X2.2353 Y-0.8930
G01 X0.8430 Y-3.0992
G01 X0.1576 Y-4.4701
G01 X0.1147
G01 X-0.0805 Y-4.0254
G01 X-0.2892 Y-3.5868
G01 X-0.5112 Y-3.1547
G01 X-0.7463 Y-2.7297
G01 X-0.9943 Y-2.3120
G01 X-1.2549 Y-1.9021
G01 X-1.5279 Y-1.5004
G01 X-1.8131 Y-1.1072
G01 X-2.3700 Y-0.1861
G01 X-2.4128 Y0.0281
G01 X-2.0004 Y0.6155
G01 X-1.6064 Y1.2154
G01 X-1.2312 Y1.8271
G01 X-0.8750 Y2.4502
G00 Z5.0000
G00 X0.0094 Y-8.4296
G00 Z-4.5000
G01 Z-6.0000 F300
G01 X0.1147 Y-8.2400 F762
G01 X0.1576
G01 X0.3504 Y-8.6256
G01 X-0.0995
G01 X0.0094 Y-8.4296
G00 Z5.0000
G00 X0.1468 Y8.1998
G00 Z-4.5000
G01 Z-6.0000 F300
G01 X0.1147 Y8.1891 F762
G01 X-0.0780 Y8.5104
G01 Y8.5532
G01 X0.3504
G01 X0.1790 Y8.2105
G01 X0.1468 Y8.1998
G01 X0.6587 Y7.9453
G01 X0.5469 Y7.7056
G01 X0.4531 Y7.4583
G01 X0.3781 Y7.2048
G01 X0.3222 Y6.9463
G01 X0.2856 Y6.6844
G01 X0.2687 Y6.4204
G01 X0.2714 Y6.1560
G01 X0.2939 Y5.8925
G01 X0.3359 Y5.6314
G01 X0.3972 Y5.3741
G01 X0.4775 Y5.1222
G01 X0.5764 Y4.8769
G01 X0.9040 Y4.1654
G01 X1.2629 Y3.4692
G01 X1.6523 Y2.7896
G01 X2.0715 Y2.1280
G01 X2.4088 Y1.6048
G01 X2.7304 Y1.0719
G01 X3.0360 Y0.5296
G01 X3.3254 Y-0.0216
G01 X2.9704 Y-0.6817
G01 X2.5982 Y-1.3324
G01 X2.2091 Y-1.9730
G01 X1.8034 Y-2.6032
G01 X1.6003 Y-2.9189
G01 X1.4067 Y-3.2405
G01 X1.2228 Y-3.5677
G01 X1.0487 Y-3.9003
G01 X0.8846 Y-4.2378
G01 X0.7306 Y-4.5802
G01 X0.5869 Y-4.9269
G01 X0.4536 Y-5.2778
G01 X0.3708 Y-5.5378
G01 X0.3100 Y-5.8037
G01 X0.2717 Y-6.0738
G01 X0.2560 Y-6.3462
G01 X0.2631 Y-6.6189
G01 X0.2929 Y-6.8901
G01 X0.3453 Y-7.1579
G01 X0.4198 Y-7.4203
G01 X0.5160 Y-7.6756
G01 X0.6332 Y-7.9220
G01 X0.7705 Y-8.1578
G01 X0.9270 Y-8.3812
G01 X1.0248 Y-8.4894
G01 X1.1290 Y-8.5913
G01 X1.2392 Y-8.6867
G01 X1.3551 Y-8.7752
G01 X1.4761 Y-8.8565
G01 X1.6018 Y-8.9303
G01 X1.7319 Y-8.9962
G01 X1.8657 Y-9.0541
G01 X2.0028 Y-9.1038
G01 X2.1426 Y-9.1450
G01 X2.2847 Y-9.1775
G01 X2.4285 Y-9.2014
G01 X2.5736 Y-9.2164
G01 X2.7192 Y-9.2226
G01 X2.8650 Y-9.2199
G01 X3.0103 Y-9.2083
G01 X3.1547 Y-9.1878
G01 X3.2975 Y-9.1586
G01 X3.4383 Y-9.1208
G01 X3.5765 Y-9.0744
G01 X3.7117 Y-9.0197
G01 X3.8432 Y-8.9568
G01 X3.9707 Y-8.8861
G01 X4.0936 Y-8.8077
G01 X4.2115 Y-8.7219
G01 X4.3240 Y-8.6292
G01 X4.4306 Y-8.5297
G01 X4.5309 Y-8.4239
G01 X4.6246 Y-8.3122
G01 X4.7113 Y-8.1950
G01 X4.7907 Y-8.0728
G01 X4.8625 Y-7.9459
G01 X4.9265 Y-7.8148
G01 X4.9823 Y-7.6802
G01 X5.0298 Y-7.5423
G01 X5.0688 Y-7.4018
G01 X5.0992 Y-7.2593
G01 X5.1208 Y-7.1151
G01 X5.1336 Y-6.9698
G01 X5.1375 Y-6.8241
G01 X5.1449 Y-6.8315
G01 X5.1624 Y-6.9442
G01 X5.1723 Y-7.0579
G01 X5.1745 Y-7.1720
G01 X5.1689 Y-7.2859
G01 X5.1556 Y-7.3993
G01 X5.1347 Y-7.5114
G01 X5.1062 Y-7.6219
G01 X5.0702 Y-7.7302
G01 X5.0271 Y-7.8358
G01 X4.9768 Y-7.9382
G01 X4.9198 Y-8.0371
G01 X4.8561 Y-8.1318
G01 X4.7862 Y-8.2219
G01 X4.7104 Y-8.3072
G01 X4.6289 Y-8.3871
G01 X4.5422 Y-8.4613
G01 X4.2336 Y-8.6957
G01 X3.9049 Y-8.9012
G01 X3.5590 Y-9.0759
G01 X3.1986 Y-9.2185
G01 X2.8267 Y-9.3278
G01 X2.4464 Y-9.4028
G01 X2.0609 Y-9.4429
G01 X1.6733 Y-9.4479
G01 X1.3545 Y-9.4237
G01 X1.0389 Y-9.3719
G01 X0.7290 Y-9.2928
G01 X0.4271 Y-9.1872
G01 X0.3456 Y-9.1741
G01 X0.2635 Y-9.1654
G01 X0.1811 Y-9.1609
G01 X0.0986 Y-9.1608
G01 X0.0161 Y-9.1650
G01 X-0.0660 Y-9.1735
G01 X-0.1475 Y-9.1863
G01 X-0.2283 Y-9.2033
G01 X-0.3081 Y-9.2245
G01 X-0.3866 Y-9.2499
G01 X-0.4637 Y-9.2793
G01 X-0.5392 Y-9.3127
G01 X-0.8630 Y-9.3811
G01 X-1.1912 Y-9.4239
G01 X-1.5218 Y-9.4408
G01 X-1.8526 Y-9.4316
G01 X-2.1818 Y-9.3964
G01 X-2.5071 Y-9.3355
G01 X-2.8266 Y-9.2493
G01 X-3.1384 Y-9.1381
G01 X-3.4405 Y-9.0029
G01 X-3.7310 Y-8.8443
G01 X-4.0082 Y-8.6634
G01 X-4.2702 Y-8.4613
G01 X-4.3500 Y-8.3935
G01 X-4.4254 Y-8.3209
G01 X-4.4961 Y-8.2437
G01 X-4.5618 Y-8.1623
G01 X-4.6224 Y-8.0769
G01 X-4.6775 Y-7.9879
G01 X-4.7269 Y-7.8957
G01 X-4.7705 Y-7.8005
G01 X-4.8081 Y-7.7028
G01 X-4.8395 Y-7.6030
G01 X-4.8646 Y-7.5014
G01 X-4.8833 Y-7.3984
G01 X-4.8956 Y-7.2945
G01 X-4.9013 Y-7.1900
G01 X-4.9006 Y-7.0853
G01 X-4.8933 Y-6.9809
G01 X-4.8804 Y-6.8908
G01 X-4.8729 Y-6.8315
G01 X-4.8660 Y-6.8242
G01 X-4.8620 Y-6.9661
G01 X-4.8495 Y-7.1075
G01 X-4.8288 Y-7.2479
G01 X-4.7997 Y-7.3868
G01 X-4.7625 Y-7.5238
G01 X-4.7172 Y-7.6584
G01 X-4.6640 Y-7.7900
G01 X-4.6032 Y-7.9182
G01 X-4.5348 Y-8.0426
G01 X-4.4592 Y-8.1628
G01 X-4.3766 Y-8.2782
G01 X-4.2873 Y-8.3886
G01 X-4.1917 Y-8.4935
G01 X-4.0900 Y-8.5925
G01 X-3.9826 Y-8.6853
G01 X-3.8699 Y-8.7716
G01 X-3.7522 Y-8.8511
G01 X-3.6301 Y-8.9235
G01 X-3.5039 Y-8.9885
G01 X-3.3741 Y-9.0459
G01 X-3.2411 Y-9.0956
G01 X-3.1054 Y-9.1372
G01 X-2.9675 Y-9.1708
G01 X-2.8278 Y-9.1961
G01 X-2.6869 Y-9.2132
G01 X-2.5452 Y-9.2218
G01 X-2.4033 Y-9.2221
G01 X-2.2616 Y-9.2139
G01 X-2.1206 Y-9.1973
G01 X-1.9808 Y-9.1725
G01 X-1.8428 Y-9.1394
G01 X-1.7069 Y-9.0982
G01 X-1.5738 Y-9.0490
G01 X-1.4438 Y-8.9920
G01 X-1.3174 Y-8.9274
G01 X-1.1950 Y-8.8554
G01 X-1.0771 Y-8.7763
G01 X-0.9641 Y-8.6904
G01 X-0.8564 Y-8.5979
G01 X-0.7544 Y-8.4993
G01 X-0.6584 Y-8.3947
G01 X-0.5687 Y-8.2846
G01 X-0.4857 Y-8.1695
G01 X-0.4097 Y-8.0496
G01 X-0.3410 Y-7.9254
G01 X-0.2797 Y-7.7974
G01 X-0.2260 Y-7.6659
G01 X-0.1803 Y-7.5316
G01 X-0.0928 Y-7.2134
G01 X-0.0341 Y-6.8886
G01 X-0.0045 Y-6.5600
G01 X-0.0042 Y-6.2300
G01 X-0.0334 Y-5.9013
G01 X-0.0918 Y-5.5765
G01 X-0.1789 Y-5.2582
G01 X-0.2940 Y-4.9489
G01 X-0.6198 Y-4.2353
G01 X-0.9777 Y-3.5371
G01 X-1.3670 Y-2.8559
G01 X-1.7867 Y-2.1931
G01 X-2.1271 Y-1.6650
G01 X-2.4518 Y-1.1271
G01 X-2.7606 Y-0.5799
G01 X-3.0532 Y-0.0239
G01 X-2.6984 Y0.6366
G01 X-2.3264 Y1.2874
G01 X-1.9373 Y1.9283
G01 X-1.5314 Y2.5586
G01 X-1.3283 Y2.8742
G01 X-1.1347 Y3.1958
G01 X-0.9508 Y3.5230
G01 X-0.7767 Y3.8556
G01 X-0.6126 Y4.1932
G01 X-0.4586 Y4.5355
G01 X-0.3149 Y4.8822
G01 X-0.1816 Y5.2331
G01 X-0.0988 Y5.4931
G01 X-0.0381 Y5.7590
G01 X0.0003 Y6.0292
G01 X0.0160 Y6.3015
G01 X0.0089 Y6.5742
G01 X-0.0209 Y6.8454
G01 X-0.0733 Y7.1132
G01 X-0.1478 Y7.3756
G01 X-0.2440 Y7.6309
G01 X-0.3612 Y7.8773
G01 X-0.4985 Y8.1131
G01 X-0.6550 Y8.3365
G01 X-0.7528 Y8.4447
G01 X-0.8570 Y8.5466
G01 X-0.9672 Y8.6420
G01 X-1.0831 Y8.7305
G01 X-1.2041 Y8.8118
G01 X-1.3299 Y8.8856
G01 X-1.4599 Y8.9515
G01 X-1.5937 Y9.0094
G01 X-1.7308 Y9.0591
G01 X-1.8706 Y9.1003
G01 X-2.0127 Y9.1328
G01 X-2.1566 Y9.1567
G01 X-2.3016 Y9.1717
G01 X-2.4472 Y9.1779
G01 X-2.5930 Y9.1752
G01 X-2.7383 Y9.1636
G01 X-2.8827 Y9.1432
G01 X-3.0255 Y9.1139
G01 X-3.1663 Y9.0761
G01 X-3.3045 Y9.0297
G01 X-3.4397 Y8.9750
G01 X-3.5712 Y8.9121
G01 X-3.6987 Y8.8414
G01 X-3.8216 Y8.7630
G01 X-3.9395 Y8.6772
G01 X-4.0520 Y8.5845
G01 X-4.1586 Y8.4850
G01 X-4.2589 Y8.3792
G01 X-4.3526 Y8.2675
G01 X-4.4393 Y8.1503
G01 X-4.5187 Y8.0281
G01 X-4.5905 Y7.9012
G01 X-4.6545 Y7.7701
G01 X-4.7103 Y7.6355
G01 X-4.7578 Y7.4976
G01 X-4.7968 Y7.3572
G01 X-4.8272 Y7.2146
G01 X-4.8488 Y7.0704
G01 X-4.8616 Y6.9252
G01 X-4.8656 Y6.7794
G01 X-4.8729 Y6.7868
G01 X-4.8904 Y6.8995
G01 X-4.9003 Y7.0132
G01 X-4.9025 Y7.1273
G01 X-4.8969 Y7.2412
G01 X-4.8836 Y7.3546
G01 X-4.8627 Y7.4667
G01 X-4.8342 Y7.5772
G01 X-4.7983 Y7.6855
G01 X-4.7551 Y7.7911
G01 X-4.7048 Y7.8936
G01 X-4.6478 Y7.9924
G01 X-4.5841 Y8.0871
G01 X-4.5142 Y8.1772
G01 X-4.4384 Y8.2625
G01 X-4.3569 Y8.3424
G01 X-4.2702 Y8.4166
G01 X-3.9616 Y8.6510
G01 X-3.6330 Y8.8565
G01 X-3.2870 Y9.0313
G01 X-2.9266 Y9.1738
G01 X-2.5547 Y9.2831
G01 X-2.1744 Y9.3581
G01 X-1.7889 Y9.3982
G01 X-1.4014 Y9.4032
G01 X-1.0825 Y9.3790
G01 X-0.7669 Y9.3272
G01 X-0.4570 Y9.2481
G01 X-0.1552 Y9.1425
G01 X-0.0736 Y9.1295
G01 X0.0084 Y9.1207
G01 X0.0909 Y9.1163
G01 X0.1734 Y9.1161
G01 X0.2558 Y9.1203
G01 X0.3379 Y9.1288
G01 X0.4195 Y9.1416
G01 X0.5003 Y9.1586
G01 X0.5800 Y9.1798
G01 X0.6586 Y9.2052
G01 X0.7357 Y9.2346
G01 X0.8112 Y9.2680
G01 X1.1350 Y9.3365
G01 X1.4632 Y9.3792
G01 X1.7938 Y9.3961
G01 X2.1246 Y9.3869
G01 X2.4537 Y9.3517
G01 X2.7791 Y9.2908
G01 X3.0986 Y9.2046
G01 X3.4104 Y9.0935
G01 X3.7125 Y8.9582
G01 X4.0030 Y8.7996
G01 X4.2801 Y8.6187
G01 X4.5422 Y8.4166
G01 X4.6220 Y8.3488
G01 X4.6974 Y8.2762
G01 X4.7681 Y8.1990
G01 X4.8338 Y8.1176
G01 X4.8944 Y8.0322
G01 X4.9495 Y7.9432
G01 X4.9989 Y7.8510
G01 X5.0425 Y7.7558
G01 X5.0801 Y7.6581
G01 X5.1115 Y7.5583
G01 X5.1366 Y7.4567
G01 X5.1553 Y7.3537
G01 X5.1676 Y7.2498
G01 X5.1733 Y7.1453
G01 X5.1725 Y7.0406
G01 X5.1652 Y6.9362
G01 X5.1523 Y6.8461
G01 X5.1449 Y6.7868
G01 X5.1380 Y6.7795
G01 X5.1343 Y6.9228
G01 X5.1221 Y7.0657
G01 X5.1013 Y7.2075
G01 X5.0721 Y7.3479
G01 X5.0345 Y7.4863
G01 X4.9886 Y7.6221
G01 X4.9347 Y7.7550
G01 X4.8729 Y7.8843
G01 X4.8035 Y8.0098
G01 X4.7266 Y8.1308
G01 X4.6426 Y8.2470
G01 X4.5518 Y8.3580
G01 X4.4545 Y8.4633
G01 X4.3511 Y8.5626
G01 X4.2419 Y8.6555
G01 X4.1273 Y8.7417
G01 X4.0078 Y8.8209
G01 X3.8837 Y8.8927
G01 X3.7555 Y8.9570
G01 X3.6237 Y9.0134
G01 X3.4888 Y9.0619
G01 X3.3511 Y9.1021
G01 X3.2114 Y9.1341
G01 X3.0699 Y9.1576
G01 X2.9273 Y9.1725
G01 X2.7841 Y9.1789
G01 X2.6407 Y9.1767
G01 X2.4978 Y9.1658
G01 X2.3557 Y9.1464
G01 X2.2150 Y9.1186
G01 X2.0763 Y9.0823
G01 X1.9400 Y9.0378
G01 X1.8067 Y8.9852
G01 X1.6767 Y8.9246
G01 X1.5506 Y8.8564
G01 X1.4288 Y8.7807
G01 X1.3118 Y8.6979
G01 X1.1999 Y8.6082
G01 X1.0936 Y8.5119
G01 X0.9933 Y8.4095
G01 X0.8994 Y8.3012
G01 X0.8121 Y8.1874
G01 X0.7318 Y8.0687
G01 X0.6587 Y7.9453
G00 Z5.0000
G00 X0.0000 Y0.0000

M05
M30
